(G-CODE GENERATED BY FLATCAM v8.993 - www.flatcam.org - Version Date: 2020/08/01)

(Name: Wasserhahn-Edge_Cuts.gm1_iso_cnc)
(Type: G-code from Geometry)
(Units: MM)

(Created on Sonntag, 17 Mai 2020 at 11:00)

(This preprocessor is the default preprocessor used by FlatCAM.)
(It is made to work with MACH3 compatible motion controllers.)

(TOOL DIAMETER: 0.1348 mm)
(Feedrate_XY: 120.0 mm/min)
(Feedrate_Z: 60.0 mm/min)
(Feedrate rapids 1500.0 mm/min)

(Z_Cut: -2.4 mm)
(Z_Move: 2.0 mm)
(Z Start: None mm)
(Z End: 15.0 mm)
(Steps per circle: 64)
(Preprocessor Geometry: default)

(X range:  -79.2924 ...   -0.4076  mm)
(Y range:   -2.5924 ...   80.7228  mm)

(Spindle Speed: None RPM)
G21
G90
G94



G01 F120.00
G00 Z2.0000

M03
G00 X-0.5924 Y0.1178
G01 F60.00
G01 Z-2.4000
G01 F120.00
G01 X-0.5924 Y78.0380
G01 X-74.9454 Y78.0380
G01 X-74.9491 Y77.9625
G01 X-74.9497 Y77.9551
G01 X-74.9739 Y77.7917
G01 X-74.9753 Y77.7844
G01 X-75.0171 Y77.6186
G01 X-75.0732 Y77.4615
G01 X-75.0760 Y77.4546
G01 X-75.1492 Y77.3001
G01 X-75.2381 Y77.1521
G01 X-75.3395 Y77.0154
G01 X-75.4553 Y76.8874
G01 X-75.5831 Y76.7714
G01 X-75.7217 Y76.6685
G01 X-75.8697 Y76.5796
G01 X-76.0242 Y76.5064
G01 X-76.0311 Y76.5036
G01 X-76.1882 Y76.4475
G01 X-76.3540 Y76.4057
G01 X-76.3613 Y76.4043
G01 X-76.5247 Y76.3801
G01 X-76.5321 Y76.3795
G01 X-76.6076 Y76.3758
G01 X-76.6076 Y1.7546
G01 X-76.5321 Y1.7509
G01 X-76.5247 Y1.7503
G01 X-76.3613 Y1.7261
G01 X-76.3540 Y1.7247
G01 X-76.1882 Y1.6829
G01 X-76.0311 Y1.6268
G01 X-76.0242 Y1.6240
G01 X-75.8697 Y1.5508
G01 X-75.7217 Y1.4619
G01 X-75.5850 Y1.3605
G01 X-75.4570 Y1.2447
G01 X-75.3410 Y1.1169
G01 X-75.2381 Y0.9783
G01 X-75.1492 Y0.8303
G01 X-75.0760 Y0.6758
G01 X-75.0732 Y0.6689
G01 X-75.0171 Y0.5118
G01 X-74.9753 Y0.3460
G01 X-74.9739 Y0.3387
G01 X-74.9497 Y0.1753
G01 X-74.9491 Y0.1679
G01 X-74.9466 Y0.1178
G01 X-0.5924 Y0.1178
G00 Z2.0000
G00 X-74.1368 Y-0.0674
G01 F60.00
G01 Z-2.4000
G01 F120.00
G01 X-0.5000 Y-0.0670
G01 X-0.4909 Y-0.0666
G01 X-0.4820 Y-0.0652
G01 X-0.4732 Y-0.0630
G01 X-0.4646 Y-0.0600
G01 X-0.4564 Y-0.0561
G01 X-0.4487 Y-0.0514
G01 X-0.4414 Y-0.0460
G01 X-0.4335 Y-0.0388
G01 X-0.4286 Y-0.0332
G01 X-0.4232 Y-0.0259
G01 X-0.4185 Y-0.0182
G01 X-0.4146 Y-0.0100
G01 X-0.4116 Y-0.0014
G01 X-0.4094 Y0.0074
G01 X-0.4080 Y0.0163
G01 X-0.4076 Y0.0254
G01 X-0.4076 Y78.1304
G01 X-0.4080 Y78.1395
G01 X-0.4094 Y78.1484
G01 X-0.4116 Y78.1572
G01 X-0.4146 Y78.1658
G01 X-0.4185 Y78.1740
G01 X-0.4232 Y78.1817
G01 X-0.4286 Y78.1890
G01 X-0.4358 Y78.1969
G01 X-0.4414 Y78.2018
G01 X-0.4487 Y78.2072
G01 X-0.4564 Y78.2119
G01 X-0.4646 Y78.2158
G01 X-0.4732 Y78.2188
G01 X-0.4820 Y78.2210
G01 X-0.4909 Y78.2224
G01 X-0.5000 Y78.2228
G01 X-74.9454 Y78.2228
G01 X-74.9491 Y78.2983
G01 X-74.9497 Y78.3057
G01 X-74.9739 Y78.4691
G01 X-74.9753 Y78.4764
G01 X-75.0171 Y78.6422
G01 X-75.0732 Y78.7993
G01 X-75.0760 Y78.8062
G01 X-75.1492 Y78.9607
G01 X-75.2381 Y79.1087
G01 X-75.3410 Y79.2473
G01 X-75.4570 Y79.3751
G01 X-75.5850 Y79.4909
G01 X-75.7217 Y79.5923
G01 X-75.8697 Y79.6812
G01 X-76.0242 Y79.7544
G01 X-76.0311 Y79.7572
G01 X-76.1882 Y79.8133
G01 X-76.3540 Y79.8551
G01 X-76.3613 Y79.8565
G01 X-76.5247 Y79.8807
G01 X-76.5321 Y79.8813
G01 X-76.6076 Y79.8850
G01 X-76.6076 Y80.6304
G01 X-76.6080 Y80.6395
G01 X-76.6094 Y80.6484
G01 X-76.6116 Y80.6572
G01 X-76.6146 Y80.6658
G01 X-76.6177 Y80.6725
G01 X-76.6223 Y80.6804
G01 X-76.6265 Y80.6864
G01 X-76.6307 Y80.6915
G01 X-76.6371 Y80.6980
G01 X-76.6427 Y80.7029
G01 X-76.6500 Y80.7081
G01 X-76.6579 Y80.7127
G01 X-76.6662 Y80.7164
G01 X-76.6732 Y80.7188
G01 X-76.6820 Y80.7210
G01 X-76.6909 Y80.7224
G01 X-76.7000 Y80.7228
G01 X-76.7091 Y80.7224
G01 X-76.7180 Y80.7210
G01 X-76.7268 Y80.7188
G01 X-76.7338 Y80.7164
G01 X-76.7421 Y80.7127
G01 X-76.7485 Y80.7090
G01 X-76.7540 Y80.7053
G01 X-76.7611 Y80.6997
G01 X-76.7665 Y80.6946
G01 X-76.7725 Y80.6877
G01 X-76.7777 Y80.6804
G01 X-76.7823 Y80.6725
G01 X-76.7854 Y80.6658
G01 X-76.7884 Y80.6572
G01 X-76.7906 Y80.6484
G01 X-76.7920 Y80.6395
G01 X-76.7924 Y80.6304
G01 X-76.7924 Y79.8850
G01 X-76.8679 Y79.8813
G01 X-76.8753 Y79.8807
G01 X-77.0387 Y79.8565
G01 X-77.0460 Y79.8551
G01 X-77.2118 Y79.8133
G01 X-77.3689 Y79.7572
G01 X-77.3758 Y79.7544
G01 X-77.5303 Y79.6812
G01 X-77.6783 Y79.5923
G01 X-77.8169 Y79.4894
G01 X-77.9447 Y79.3734
G01 X-78.0605 Y79.2454
G01 X-78.1619 Y79.1087
G01 X-78.2508 Y78.9607
G01 X-78.3240 Y78.8062
G01 X-78.3268 Y78.7993
G01 X-78.3829 Y78.6422
G01 X-78.4247 Y78.4764
G01 X-78.4261 Y78.4691
G01 X-78.4503 Y78.3057
G01 X-78.4509 Y78.2983
G01 X-78.4546 Y78.2228
G01 X-79.2017 Y78.2228
G01 X-79.2107 Y78.2222
G01 X-79.2196 Y78.2207
G01 X-79.2284 Y78.2183
G01 X-79.2369 Y78.2151
G01 X-79.2450 Y78.2111
G01 X-79.2527 Y78.2063
G01 X-79.2599 Y78.2008
G01 X-79.2665 Y78.1946
G01 X-79.2749 Y78.1844
G01 X-79.2815 Y78.1740
G01 X-79.2860 Y78.1642
G01 X-79.2899 Y78.1517
G01 X-79.2920 Y78.1395
G01 X-79.2924 Y78.1287
G01 X-79.2912 Y78.1156
G01 X-79.2884 Y78.1036
G01 X-79.2840 Y78.0920
G01 X-79.2777 Y78.0804
G01 X-79.2714 Y78.0718
G01 X-79.2629 Y78.0628
G01 X-79.2527 Y78.0545
G01 X-79.2421 Y78.0481
G01 X-79.2300 Y78.0430
G01 X-79.2180 Y78.0398
G01 X-79.2091 Y78.0384
G01 X-79.2000 Y78.0380
G01 X-78.4546 Y78.0380
G01 X-78.4509 Y77.9625
G01 X-78.4503 Y77.9551
G01 X-78.4261 Y77.7917
G01 X-78.4247 Y77.7844
G01 X-78.3829 Y77.6186
G01 X-78.3268 Y77.4615
G01 X-78.3240 Y77.4546
G01 X-78.2508 Y77.3001
G01 X-78.1619 Y77.1521
G01 X-78.0590 Y77.0135
G01 X-77.9430 Y76.8857
G01 X-77.8150 Y76.7699
G01 X-77.6783 Y76.6685
G01 X-77.5303 Y76.5796
G01 X-77.3758 Y76.5064
G01 X-77.3689 Y76.5036
G01 X-77.2118 Y76.4475
G01 X-77.0460 Y76.4057
G01 X-77.0387 Y76.4043
G01 X-76.8753 Y76.3801
G01 X-76.8679 Y76.3795
G01 X-76.7924 Y76.3758
G01 X-76.7924 Y1.7546
G01 X-76.8679 Y1.7509
G01 X-76.8753 Y1.7503
G01 X-77.0387 Y1.7261
G01 X-77.0460 Y1.7247
G01 X-77.2118 Y1.6829
G01 X-77.3689 Y1.6268
G01 X-77.3758 Y1.6240
G01 X-77.5303 Y1.5508
G01 X-77.6783 Y1.4619
G01 X-77.8169 Y1.3590
G01 X-77.9447 Y1.2430
G01 X-78.0605 Y1.1150
G01 X-78.1619 Y0.9783
G01 X-78.2508 Y0.8303
G01 X-78.3240 Y0.6758
G01 X-78.3268 Y0.6689
G01 X-78.3829 Y0.5118
G01 X-78.4247 Y0.3460
G01 X-78.4261 Y0.3387
G01 X-78.4503 Y0.1753
G01 X-78.4509 Y0.1679
G01 X-78.4546 Y0.0924
G01 X-79.2000 Y0.0924
G01 X-79.2107 Y0.0918
G01 X-79.2180 Y0.0906
G01 X-79.2268 Y0.0884
G01 X-79.2354 Y0.0854
G01 X-79.2436 Y0.0815
G01 X-79.2513 Y0.0768
G01 X-79.2586 Y0.0714
G01 X-79.2653 Y0.0653
G01 X-79.2714 Y0.0586
G01 X-79.2768 Y0.0513
G01 X-79.2815 Y0.0436
G01 X-79.2854 Y0.0354
G01 X-79.2884 Y0.0268
G01 X-79.2906 Y0.0180
G01 X-79.2920 Y0.0091
G01 X-79.2924 Y0.0000
G01 X-79.2921 Y-0.0074
G01 X-79.2909 Y-0.0164
G01 X-79.2893 Y-0.0236
G01 X-79.2866 Y-0.0323
G01 X-79.2840 Y-0.0384
G01 X-79.2807 Y-0.0450
G01 X-79.2759 Y-0.0527
G01 X-79.2714 Y-0.0586
G01 X-79.2653 Y-0.0653
G01 X-79.2586 Y-0.0714
G01 X-79.2527 Y-0.0759
G01 X-79.2450 Y-0.0807
G01 X-79.2384 Y-0.0840
G01 X-79.2323 Y-0.0866
G01 X-79.2252 Y-0.0889
G01 X-79.2180 Y-0.0906
G01 X-79.2091 Y-0.0920
G01 X-79.2000 Y-0.0924
G01 X-78.4546 Y-0.0924
G01 X-78.4509 Y-0.1679
G01 X-78.4503 Y-0.1753
G01 X-78.4261 Y-0.3387
G01 X-78.4247 Y-0.3460
G01 X-78.3829 Y-0.5118
G01 X-78.3268 Y-0.6689
G01 X-78.3240 Y-0.6758
G01 X-78.2508 Y-0.8303
G01 X-78.1619 Y-0.9783
G01 X-78.0590 Y-1.1169
G01 X-77.9430 Y-1.2447
G01 X-77.8150 Y-1.3605
G01 X-77.6783 Y-1.4619
G01 X-77.5303 Y-1.5508
G01 X-77.3758 Y-1.6240
G01 X-77.3689 Y-1.6268
G01 X-77.2118 Y-1.6829
G01 X-77.0460 Y-1.7247
G01 X-77.0387 Y-1.7261
G01 X-76.8753 Y-1.7503
G01 X-76.8679 Y-1.7509
G01 X-76.7924 Y-1.7546
G01 X-76.7924 Y-2.5000
G01 X-76.7920 Y-2.5091
G01 X-76.7906 Y-2.5180
G01 X-76.7884 Y-2.5268
G01 X-76.7854 Y-2.5354
G01 X-76.7823 Y-2.5421
G01 X-76.7777 Y-2.5500
G01 X-76.7735 Y-2.5560
G01 X-76.7693 Y-2.5611
G01 X-76.7629 Y-2.5676
G01 X-76.7573 Y-2.5725
G01 X-76.7500 Y-2.5777
G01 X-76.7421 Y-2.5823
G01 X-76.7338 Y-2.5860
G01 X-76.7268 Y-2.5884
G01 X-76.7180 Y-2.5906
G01 X-76.7091 Y-2.5920
G01 X-76.7000 Y-2.5924
G01 X-76.6909 Y-2.5920
G01 X-76.6820 Y-2.5906
G01 X-76.6732 Y-2.5884
G01 X-76.6662 Y-2.5860
G01 X-76.6579 Y-2.5823
G01 X-76.6515 Y-2.5786
G01 X-76.6460 Y-2.5749
G01 X-76.6389 Y-2.5693
G01 X-76.6335 Y-2.5642
G01 X-76.6275 Y-2.5573
G01 X-76.6223 Y-2.5500
G01 X-76.6177 Y-2.5421
G01 X-76.6146 Y-2.5354
G01 X-76.6116 Y-2.5268
G01 X-76.6094 Y-2.5180
G01 X-76.6080 Y-2.5091
G01 X-76.6076 Y-2.5000
G01 X-76.6076 Y-1.7546
G01 X-76.5321 Y-1.7509
G01 X-76.5247 Y-1.7503
G01 X-76.3613 Y-1.7261
G01 X-76.3540 Y-1.7247
G01 X-76.1882 Y-1.6829
G01 X-76.0311 Y-1.6268
G01 X-76.0242 Y-1.6240
G01 X-75.8697 Y-1.5508
G01 X-75.7217 Y-1.4619
G01 X-75.5831 Y-1.3590
G01 X-75.4553 Y-1.2430
G01 X-75.3395 Y-1.1150
G01 X-75.2381 Y-0.9783
G01 X-75.1492 Y-0.8303
G01 X-75.0760 Y-0.6758
G01 X-75.0732 Y-0.6689
G01 X-75.0171 Y-0.5118
G01 X-74.9753 Y-0.3460
G01 X-74.9739 Y-0.3387
G01 X-74.9497 Y-0.1753
G01 X-74.9491 Y-0.1679
G01 X-74.9454 Y-0.0924
G01 X-74.1983 Y-0.0924
G01 X-74.1909 Y-0.0920
G01 X-74.1820 Y-0.0906
G01 X-74.1732 Y-0.0884
G01 X-74.1646 Y-0.0854
G01 X-74.1564 Y-0.0815
G01 X-74.1500 Y-0.0777
G01 X-74.1427 Y-0.0725
G01 X-74.1368 Y-0.0674
G00 Z2.0000
G00 X-75.1304 Y-0.0924
G01 F60.00
G01 Z-2.4000
G01 F120.00
G01 X-76.6076 Y-0.0924
G01 X-76.6076 Y-1.5696
G01 X-76.5457 Y-1.5666
G01 X-76.3929 Y-1.5439
G01 X-76.2431 Y-1.5064
G01 X-76.0976 Y-1.4543
G01 X-75.9580 Y-1.3883
G01 X-75.8255 Y-1.3089
G01 X-75.7014 Y-1.2168
G01 X-75.5869 Y-1.1131
G01 X-75.4832 Y-0.9986
G01 X-75.3911 Y-0.8745
G01 X-75.3117 Y-0.7420
G01 X-75.2457 Y-0.6024
G01 X-75.1936 Y-0.4569
G01 X-75.1561 Y-0.3071
G01 X-75.1334 Y-0.1543
G01 X-75.1304 Y-0.0924
G00 Z2.0000
G00 X-75.1316 Y0.1178
G01 F60.00
G01 Z-2.4000
G01 F120.00
G01 X-75.1334 Y0.1543
G01 X-75.1561 Y0.3071
G01 X-75.1936 Y0.4569
G01 X-75.2457 Y0.6024
G01 X-75.3117 Y0.7420
G01 X-75.3911 Y0.8745
G01 X-75.4832 Y0.9986
G01 X-75.5869 Y1.1131
G01 X-75.7014 Y1.2168
G01 X-75.8255 Y1.3089
G01 X-75.9580 Y1.3883
G01 X-76.0976 Y1.4543
G01 X-76.2431 Y1.5064
G01 X-76.3929 Y1.5439
G01 X-76.5457 Y1.5666
G01 X-76.6076 Y1.5696
G01 X-76.6076 Y0.1178
G01 X-75.1316 Y0.1178
G00 Z2.0000
G00 X-76.7924 Y0.0924
G01 F60.00
G01 Z-2.4000
G01 F120.00
G01 X-76.7924 Y1.5696
G01 X-76.8543 Y1.5666
G01 X-77.0071 Y1.5439
G01 X-77.1569 Y1.5064
G01 X-77.3024 Y1.4543
G01 X-77.4420 Y1.3883
G01 X-77.5745 Y1.3089
G01 X-77.6986 Y1.2168
G01 X-77.8131 Y1.1131
G01 X-77.9168 Y0.9986
G01 X-78.0089 Y0.8745
G01 X-78.0883 Y0.7420
G01 X-78.1543 Y0.6024
G01 X-78.2064 Y0.4569
G01 X-78.2439 Y0.3071
G01 X-78.2666 Y0.1543
G01 X-78.2696 Y0.0924
G01 X-76.7924 Y0.0924
G00 Z2.0000
G00 X-76.7924 Y-1.5696
G01 F60.00
G01 Z-2.4000
G01 F120.00
G01 X-76.7924 Y-0.0924
G01 X-78.2696 Y-0.0924
G01 X-78.2666 Y-0.1543
G01 X-78.2439 Y-0.3071
G01 X-78.2064 Y-0.4569
G01 X-78.1543 Y-0.6024
G01 X-78.0883 Y-0.7420
G01 X-78.0089 Y-0.8745
G01 X-77.9168 Y-0.9986
G01 X-77.8131 Y-1.1131
G01 X-77.6986 Y-1.2168
G01 X-77.5745 Y-1.3089
G01 X-77.4420 Y-1.3883
G01 X-77.3024 Y-1.4543
G01 X-77.1569 Y-1.5064
G01 X-77.0071 Y-1.5439
G01 X-76.8543 Y-1.5666
G01 X-76.7924 Y-1.5696
G00 Z2.0000
G00 X-76.7924 Y76.5608
G01 F60.00
G01 Z-2.4000
G01 F120.00
G01 X-76.7924 Y78.0380
G01 X-78.2696 Y78.0380
G01 X-78.2666 Y77.9761
G01 X-78.2439 Y77.8233
G01 X-78.2064 Y77.6735
G01 X-78.1543 Y77.5280
G01 X-78.0883 Y77.3884
G01 X-78.0089 Y77.2559
G01 X-77.9168 Y77.1318
G01 X-77.8131 Y77.0173
G01 X-77.6986 Y76.9136
G01 X-77.5745 Y76.8215
G01 X-77.4420 Y76.7421
G01 X-77.3024 Y76.6761
G01 X-77.1569 Y76.6240
G01 X-77.0071 Y76.5865
G01 X-76.8543 Y76.5638
G01 X-76.7924 Y76.5608
G00 Z2.0000
G00 X-76.6076 Y76.5608
G01 F60.00
G01 Z-2.4000
G01 F120.00
G01 X-76.5457 Y76.5638
G01 X-76.3929 Y76.5865
G01 X-76.2431 Y76.6240
G01 X-76.0976 Y76.6761
G01 X-75.9580 Y76.7421
G01 X-75.8255 Y76.8215
G01 X-75.7014 Y76.9136
G01 X-75.5869 Y77.0173
G01 X-75.4832 Y77.1318
G01 X-75.3911 Y77.2559
G01 X-75.3117 Y77.3884
G01 X-75.2457 Y77.5280
G01 X-75.1936 Y77.6735
G01 X-75.1561 Y77.8233
G01 X-75.1334 Y77.9761
G01 X-75.1304 Y78.0380
G01 X-76.6076 Y78.0380
G01 X-76.6076 Y76.5608
G00 Z2.0000
G00 X-75.1304 Y78.2228
G01 F60.00
G01 Z-2.4000
G01 F120.00
G01 X-75.1334 Y78.2847
G01 X-75.1561 Y78.4375
G01 X-75.1936 Y78.5873
G01 X-75.2457 Y78.7328
G01 X-75.3117 Y78.8724
G01 X-75.3911 Y79.0049
G01 X-75.4832 Y79.1290
G01 X-75.5869 Y79.2435
G01 X-75.7014 Y79.3472
G01 X-75.8255 Y79.4393
G01 X-75.9580 Y79.5187
G01 X-76.0976 Y79.5847
G01 X-76.2431 Y79.6368
G01 X-76.3929 Y79.6743
G01 X-76.5457 Y79.6970
G01 X-76.6076 Y79.7000
G01 X-76.6076 Y78.2228
G01 X-75.1304 Y78.2228
G00 Z2.0000
G00 X-78.2696 Y78.2228
G01 F60.00
G01 Z-2.4000
G01 F120.00
G01 X-76.7924 Y78.2228
G01 X-76.7924 Y79.7000
G01 X-76.8543 Y79.6970
G01 X-77.0071 Y79.6743
G01 X-77.1569 Y79.6368
G01 X-77.3024 Y79.5847
G01 X-77.4420 Y79.5187
G01 X-77.5745 Y79.4393
G01 X-77.6986 Y79.3472
G01 X-77.8131 Y79.2435
G01 X-77.9168 Y79.1290
G01 X-78.0089 Y79.0049
G01 X-78.0883 Y78.8724
G01 X-78.1543 Y78.7328
G01 X-78.2064 Y78.5873
G01 X-78.2439 Y78.4375
G01 X-78.2666 Y78.2847
G01 X-78.2696 Y78.2228
G00 Z2.0000
M05
G00 Z2.0000
G00 Z15.00

