(G-CODE GENERATED BY FLATCAM v8.993 - www.flatcam.org - Version Date: 2020/08/01)

(Name: Wasserhahn-B_Cu.gbl_ncc_cnc)
(Type: G-code from Geometry)
(Units: MM)

(Created on Montag, 18 Mai 2020 at 22:25)

(This preprocessor is the default preprocessor used by FlatCAM.)
(It is made to work with MACH3 compatible motion controllers.)

(TOOL DIAMETER: 0.2 mm)
(Feedrate_XY: 100.0 mm/min)
(Feedrate_Z: 60.0 mm/min)
(Feedrate rapids 1500.0 mm/min)

(Z_Cut: -0.1149 mm)
(Z_Move: 1.5 mm)
(Z Start: None mm)
(Z End: 15.0 mm)
(Steps per circle: 64)
(Preprocessor Geometry: default)

(X range:    9.1000 ...   35.9000  mm)
(Y range:   36.1000 ...   59.9000  mm)

(Spindle Speed: None RPM)
G21
G90
G94



G01 F100.00
G00 Z1.5000

M03
G00 X9.1000 Y36.1500
G01 F60.00
G01 Z-0.1149
G01 F100.00
G01 X20.1099 Y36.1500
G01 X20.1698 Y36.3400
G01 X9.2177 Y36.3400
G00 Z1.5000
G00 X9.2972 Y36.5300
G01 F60.00
G01 Z-0.1149
G01 F100.00
G01 X20.1698 Y36.5300
G01 X20.1698 Y36.7200
G01 X9.3300 Y36.7200
G00 Z1.5000
G00 X9.3223 Y36.9100
G01 F60.00
G01 Z-0.1149
G01 F100.00
G01 X20.1698 Y36.9100
G01 X20.1698 Y37.1000
G01 X9.2729 Y37.1000
G00 Z1.5000
G00 X9.1837 Y37.2751
G01 F60.00
G01 Z-0.1149
G01 F100.00
G01 X9.1783 Y37.2832
G01 X9.1295 Y37.3490
G01 X9.1000 Y37.3818
G01 X9.1000 Y59.9000
G01 X20.1698 Y59.9000
G01 X20.1698 Y56.9027
G01 X20.1639 Y56.8996
G01 X20.1566 Y56.8950
G01 X20.1469 Y56.8872
G01 X20.1381 Y56.8783
G01 X20.1300 Y56.8676
G01 X20.1232 Y56.8553
G01 X20.1186 Y56.8435
G01 X20.1153 Y56.8304
G01 X20.1139 Y56.8188
G01 X20.1138 Y55.9629
G01 X20.1146 Y55.9500
G01 X20.1173 Y55.9365
G01 X20.1193 Y55.9302
G01 X20.1221 Y55.9229
G01 X20.1253 Y55.9163
G01 X20.1287 Y55.9104
G01 X20.1363 Y55.8997
G01 X20.1414 Y55.8938
G01 X20.1469 Y55.8886
G01 X20.1566 Y55.8808
G01 X20.1639 Y55.8762
G01 X20.1698 Y55.8731
G01 X20.1698 Y54.2829
G01 X20.1723 Y54.2355
G01 X20.1793 Y54.1884
G01 X20.1915 Y54.1398
G01 X20.2056 Y54.1000
G01 X19.9976 Y54.1000
G01 X19.9904 Y54.0995
G01 X19.9830 Y54.0985
G01 X19.9759 Y54.0971
G01 X19.9688 Y54.0950
G01 X19.9616 Y54.0923
G01 X19.9545 Y54.0891
G01 X19.9480 Y54.0854
G01 X19.9409 Y54.0806
G01 X19.9350 Y54.0760
G01 X19.9295 Y54.0709
G01 X19.9243 Y54.0654
G01 X19.9191 Y54.0588
G01 X19.9149 Y54.0525
G01 X19.9106 Y54.0447
G01 X19.9073 Y54.0376
G01 X19.9048 Y54.0306
G01 X19.9025 Y54.0220
G01 X19.9012 Y54.0152
G01 X19.9003 Y54.0082
G01 X19.9000 Y54.0000
G01 X19.9000 Y42.0000
G01 X19.9008 Y41.9871
G01 X19.9035 Y41.9736
G01 X19.9073 Y41.9624
G01 X19.9106 Y41.9553
G01 X19.9136 Y41.9496
G01 X19.9208 Y41.9390
G01 X19.9295 Y41.9291
G01 X19.9389 Y41.9209
G01 X19.9501 Y41.9133
G01 X19.9616 Y41.9077
G01 X19.9735 Y41.9036
G01 X19.9806 Y41.9019
G01 X19.9878 Y41.9007
G01 X20.0000 Y41.9000
G01 X32.1698 Y41.9000
G01 X32.1698 Y39.4277
G01 X32.1591 Y39.4216
G01 X32.1485 Y39.4137
G01 X32.1396 Y39.4050
G01 X32.1314 Y39.3947
G01 X32.1243 Y39.3826
G01 X32.1195 Y39.3714
G01 X32.1160 Y39.3589
G01 X32.1140 Y39.3450
G01 X32.1138 Y39.3379
G01 X32.1138 Y38.4879
G01 X32.1140 Y38.4808
G01 X32.1149 Y38.4727
G01 X32.1179 Y38.4594
G01 X32.1223 Y38.4475
G01 X32.1287 Y38.4354
G01 X32.1364 Y38.4246
G01 X32.1413 Y38.4190
G01 X32.1466 Y38.4138
G01 X32.1570 Y38.4056
G01 X32.1634 Y38.4015
G01 X32.1698 Y38.3981
G01 X32.1698 Y38.2379
G01 X32.1720 Y38.1915
G01 X32.1727 Y38.1845
G01 X32.1795 Y38.1401
G01 X32.1900 Y38.0974
G01 X32.1921 Y38.0902
G01 X32.2061 Y38.0511
G01 X32.2099 Y38.0420
G01 X32.2288 Y38.0023
G01 X32.2515 Y37.9642
G01 X32.2569 Y37.9560
G01 X32.2832 Y37.9207
G01 X32.3148 Y37.8858
G01 X34.0992 Y36.1013
G01 X34.0995 Y36.1000
G01 X33.0858 Y36.1000
G01 X31.6702 Y37.5156
G01 X31.6702 Y38.3981
G01 X31.6761 Y38.4012
G01 X31.6834 Y38.4058
G01 X31.6931 Y38.4136
G01 X31.7019 Y38.4225
G01 X31.7100 Y38.4332
G01 X31.7168 Y38.4455
G01 X31.7214 Y38.4573
G01 X31.7247 Y38.4704
G01 X31.7261 Y38.4820
G01 X31.7262 Y39.3415
G01 X31.7254 Y39.3508
G01 X31.7238 Y39.3599
G01 X31.7214 Y39.3685
G01 X31.7179 Y39.3779
G01 X31.7137 Y39.3864
G01 X31.7086 Y39.3947
G01 X31.7037 Y39.4011
G01 X31.6968 Y39.4088
G01 X31.6913 Y39.4139
G01 X31.6834 Y39.4200
G01 X31.6761 Y39.4246
G01 X31.6671 Y39.4292
G01 X31.6598 Y39.4321
G01 X31.6504 Y39.4350
G01 X31.6409 Y39.4368
G01 X31.6310 Y39.4378
G01 X30.7114 Y39.4379
G01 X30.7016 Y39.4372
G01 X30.6921 Y39.4355
G01 X30.6825 Y39.4329
G01 X30.6754 Y39.4302
G01 X30.6661 Y39.4258
G01 X30.6592 Y39.4217
G01 X30.6526 Y39.4170
G01 X30.6450 Y39.4105
G01 X30.6381 Y39.4033
G01 X30.6314 Y39.3947
G01 X30.6263 Y39.3864
G01 X30.6221 Y39.3779
G01 X30.6186 Y39.3685
G01 X30.6162 Y39.3599
G01 X30.6146 Y39.3508
G01 X30.6138 Y39.3415
G01 X30.6138 Y38.4879
G01 X30.6146 Y38.4750
G01 X30.6173 Y38.4615
G01 X30.6193 Y38.4552
G01 X30.6221 Y38.4479
G01 X30.6253 Y38.4413
G01 X30.6287 Y38.4354
G01 X30.6363 Y38.4247
G01 X30.6414 Y38.4188
G01 X30.6469 Y38.4136
G01 X30.6566 Y38.4058
G01 X30.6639 Y38.4012
G01 X30.6698 Y38.3981
G01 X30.6698 Y37.3059
G01 X30.6723 Y37.2585
G01 X30.6793 Y37.2114
G01 X30.6915 Y37.1628
G01 X30.7061 Y37.1216
G01 X30.7090 Y37.1144
G01 X30.7295 Y37.0715
G01 X30.7540 Y37.0306
G01 X30.7831 Y36.9913
G01 X30.8146 Y36.9565
G01 X31.6710 Y36.1000
G01 X30.2630 Y36.1000
G01 X30.2344 Y36.1040
G01 X30.1829 Y36.1065
G01 X30.1702 Y36.1067
G01 X30.1702 Y38.3981
G01 X30.1761 Y38.4012
G01 X30.1834 Y38.4058
G01 X30.1931 Y38.4136
G01 X30.2019 Y38.4225
G01 X30.2100 Y38.4332
G01 X30.2168 Y38.4455
G01 X30.2214 Y38.4573
G01 X30.2247 Y38.4704
G01 X30.2261 Y38.4820
G01 X30.2262 Y39.3379
G01 X30.2257 Y39.3485
G01 X30.2243 Y39.3577
G01 X30.2221 Y39.3664
G01 X30.2189 Y39.3755
G01 X30.2147 Y39.3845
G01 X30.2100 Y39.3926
G01 X30.2055 Y39.3989
G01 X30.1986 Y39.4070
G01 X30.1913 Y39.4139
G01 X30.1834 Y39.4200
G01 X30.1761 Y39.4246
G01 X30.1671 Y39.4292
G01 X30.1598 Y39.4321
G01 X30.1504 Y39.4350
G01 X30.1409 Y39.4368
G01 X30.1310 Y39.4378
G01 X29.2138 Y39.4379
G01 X29.2066 Y39.4376
G01 X29.1991 Y39.4368
G01 X29.1921 Y39.4355
G01 X29.1849 Y39.4336
G01 X29.1779 Y39.4312
G01 X29.1705 Y39.4281
G01 X29.1639 Y39.4246
G01 X29.1566 Y39.4200
G01 X29.1507 Y39.4155
G01 X29.1450 Y39.4105
G01 X29.1397 Y39.4051
G01 X29.1345 Y39.3989
G01 X29.1300 Y39.3926
G01 X29.1232 Y39.3803
G01 X29.1201 Y39.3731
G01 X29.1179 Y39.3664
G01 X29.1149 Y39.3531
G01 X29.1141 Y39.3461
G01 X29.1138 Y39.3379
G01 X29.1139 Y38.4820
G01 X29.1153 Y38.4704
G01 X29.1186 Y38.4573
G01 X29.1232 Y38.4455
G01 X29.1300 Y38.4332
G01 X29.1381 Y38.4225
G01 X29.1469 Y38.4136
G01 X29.1566 Y38.4058
G01 X29.1639 Y38.4012
G01 X29.1698 Y38.3981
G01 X29.1698 Y36.1000
G01 X27.1702 Y36.1000
G01 X27.1702 Y38.3981
G01 X27.1761 Y38.4012
G01 X27.1834 Y38.4058
G01 X27.1931 Y38.4136
G01 X27.2019 Y38.4225
G01 X27.2100 Y38.4332
G01 X27.2168 Y38.4455
G01 X27.2214 Y38.4573
G01 X27.2247 Y38.4704
G01 X27.2261 Y38.4820
G01 X27.2262 Y39.3379
G01 X27.2257 Y39.3485
G01 X27.2243 Y39.3577
G01 X27.2221 Y39.3664
G01 X27.2189 Y39.3755
G01 X27.2147 Y39.3845
G01 X27.2100 Y39.3926
G01 X27.2055 Y39.3989
G01 X27.1986 Y39.4070
G01 X27.1913 Y39.4139
G01 X27.1834 Y39.4200
G01 X27.1761 Y39.4246
G01 X27.1671 Y39.4292
G01 X27.1598 Y39.4321
G01 X27.1504 Y39.4350
G01 X27.1409 Y39.4368
G01 X27.1310 Y39.4378
G01 X26.2138 Y39.4379
G01 X26.2066 Y39.4376
G01 X26.1991 Y39.4368
G01 X26.1921 Y39.4355
G01 X26.1849 Y39.4336
G01 X26.1779 Y39.4312
G01 X26.1705 Y39.4281
G01 X26.1639 Y39.4246
G01 X26.1566 Y39.4200
G01 X26.1507 Y39.4155
G01 X26.1450 Y39.4105
G01 X26.1397 Y39.4051
G01 X26.1345 Y39.3989
G01 X26.1300 Y39.3926
G01 X26.1232 Y39.3803
G01 X26.1201 Y39.3731
G01 X26.1179 Y39.3664
G01 X26.1149 Y39.3531
G01 X26.1141 Y39.3461
G01 X26.1138 Y39.3379
G01 X26.1139 Y38.4820
G01 X26.1153 Y38.4704
G01 X26.1186 Y38.4573
G01 X26.1232 Y38.4455
G01 X26.1300 Y38.4332
G01 X26.1381 Y38.4225
G01 X26.1469 Y38.4136
G01 X26.1566 Y38.4058
G01 X26.1639 Y38.4012
G01 X26.1698 Y38.3981
G01 X26.1698 Y36.1000
G01 X25.6702 Y36.1000
G01 X25.6702 Y38.3981
G01 X25.6761 Y38.4012
G01 X25.6834 Y38.4058
G01 X25.6931 Y38.4136
G01 X25.7019 Y38.4225
G01 X25.7100 Y38.4332
G01 X25.7168 Y38.4455
G01 X25.7214 Y38.4573
G01 X25.7247 Y38.4704
G01 X25.7261 Y38.4820
G01 X25.7262 Y39.3379
G01 X25.7259 Y39.3461
G01 X25.7247 Y39.3554
G01 X25.7227 Y39.3643
G01 X25.7199 Y39.3731
G01 X25.7157 Y39.3826
G01 X25.7113 Y39.3904
G01 X25.7055 Y39.3989
G01 X25.7003 Y39.4051
G01 X25.6931 Y39.4122
G01 X25.6854 Y39.4185
G01 X25.6782 Y39.4233
G01 X25.6695 Y39.4281
G01 X25.6621 Y39.4312
G01 X25.6527 Y39.4343
G01 X25.6433 Y39.4364
G01 X25.6334 Y39.4376
G01 X25.6262 Y39.4379
G01 X24.7138 Y39.4379
G01 X24.7066 Y39.4376
G01 X24.6991 Y39.4368
G01 X24.6921 Y39.4355
G01 X24.6849 Y39.4336
G01 X24.6779 Y39.4312
G01 X24.6705 Y39.4281
G01 X24.6639 Y39.4246
G01 X24.6566 Y39.4200
G01 X24.6507 Y39.4155
G01 X24.6450 Y39.4105
G01 X24.6397 Y39.4051
G01 X24.6345 Y39.3989
G01 X24.6300 Y39.3926
G01 X24.6232 Y39.3803
G01 X24.6201 Y39.3731
G01 X24.6179 Y39.3664
G01 X24.6149 Y39.3531
G01 X24.6141 Y39.3461
G01 X24.6138 Y39.3379
G01 X24.6139 Y38.4820
G01 X24.6153 Y38.4704
G01 X24.6186 Y38.4573
G01 X24.6232 Y38.4455
G01 X24.6300 Y38.4332
G01 X24.6381 Y38.4225
G01 X24.6469 Y38.4136
G01 X24.6566 Y38.4058
G01 X24.6639 Y38.4012
G01 X24.6698 Y38.3981
G01 X24.6698 Y36.1000
G01 X23.8682 Y36.1000
G01 X23.8682 Y36.9824
G01 X23.8662 Y37.0265
G01 X23.8652 Y37.0363
G01 X23.8587 Y37.0794
G01 X23.8465 Y37.1280
G01 X23.8298 Y37.1745
G01 X23.8113 Y37.2138
G01 X23.8073 Y37.2214
G01 X23.7840 Y37.2602
G01 X23.7577 Y37.2959
G01 X23.7515 Y37.3034
G01 X23.7234 Y37.3343
G01 X23.2137 Y37.8441
G01 X23.1772 Y37.8772
G01 X23.1376 Y37.9065
G01 X23.0960 Y37.9314
G01 X23.0517 Y37.9524
G01 X23.0072 Y37.9684
G01 X22.9576 Y37.9810
G01 X22.9115 Y37.9879
G01 X22.8625 Y37.9906
G01 X22.8132 Y37.9906
G01 X22.6702 Y38.1336
G01 X22.6702 Y38.3981
G01 X22.6761 Y38.4012
G01 X22.6834 Y38.4058
G01 X22.6931 Y38.4136
G01 X22.7019 Y38.4225
G01 X22.7100 Y38.4332
G01 X22.7168 Y38.4455
G01 X22.7214 Y38.4573
G01 X22.7247 Y38.4704
G01 X22.7262 Y38.4843
G01 X22.7262 Y39.3415
G01 X22.7254 Y39.3508
G01 X22.7238 Y39.3599
G01 X22.7214 Y39.3685
G01 X22.7179 Y39.3779
G01 X22.7147 Y39.3845
G01 X22.7100 Y39.3926
G01 X22.7055 Y39.3989
G01 X22.6986 Y39.4070
G01 X22.6931 Y39.4122
G01 X22.6854 Y39.4185
G01 X22.6782 Y39.4233
G01 X22.6695 Y39.4281
G01 X22.6621 Y39.4312
G01 X22.6527 Y39.4343
G01 X22.6433 Y39.4364
G01 X22.6334 Y39.4376
G01 X22.6262 Y39.4379
G01 X21.7114 Y39.4379
G01 X21.7016 Y39.4372
G01 X21.6921 Y39.4355
G01 X21.6825 Y39.4329
G01 X21.6754 Y39.4302
G01 X21.6661 Y39.4258
G01 X21.6592 Y39.4217
G01 X21.6526 Y39.4170
G01 X21.6450 Y39.4105
G01 X21.6381 Y39.4033
G01 X21.6314 Y39.3947
G01 X21.6263 Y39.3864
G01 X21.6221 Y39.3779
G01 X21.6186 Y39.3685
G01 X21.6162 Y39.3599
G01 X21.6146 Y39.3508
G01 X21.6138 Y39.3415
G01 X21.6139 Y38.4820
G01 X21.6153 Y38.4704
G01 X21.6186 Y38.4573
G01 X21.6232 Y38.4455
G01 X21.6300 Y38.4332
G01 X21.6381 Y38.4225
G01 X21.6469 Y38.4136
G01 X21.6566 Y38.4058
G01 X21.6639 Y38.4012
G01 X21.6698 Y38.3981
G01 X21.6698 Y37.9239
G01 X21.6723 Y37.8765
G01 X21.6789 Y37.8315
G01 X21.6805 Y37.8240
G01 X21.6915 Y37.7808
G01 X21.7082 Y37.7343
G01 X21.7295 Y37.6895
G01 X21.7515 Y37.6527
G01 X21.7569 Y37.6445
G01 X21.7831 Y37.6093
G01 X21.8163 Y37.5727
G01 X22.2523 Y37.1367
G01 X22.2850 Y37.1069
G01 X22.2907 Y37.1021
G01 X22.3284 Y37.0743
G01 X22.3700 Y37.0494
G01 X22.4143 Y37.0284
G01 X22.4614 Y37.0116
G01 X22.5084 Y36.9998
G01 X22.5545 Y36.9929
G01 X22.6035 Y36.9902
G01 X22.6528 Y36.9902
G01 X22.8678 Y36.7752
G01 X22.8678 Y36.1000
G01 X22.4810 Y36.1000
G01 X22.4858 Y36.1342
G01 X22.4899 Y36.2155
G01 X22.4900 Y36.2229
G01 X22.4856 Y36.3095
G01 X22.4732 Y36.3933
G01 X22.4716 Y36.4008
G01 X22.4526 Y36.4769
G01 X22.4497 Y36.4863
G01 X22.4212 Y36.5655
G01 X22.3843 Y36.6436
G01 X22.3409 Y36.7163
G01 X22.3355 Y36.7244
G01 X22.2859 Y36.7911
G01 X22.2264 Y36.8568
G01 X22.1647 Y36.9129
G01 X22.1571 Y36.9191
G01 X22.0897 Y36.9689
G01 X22.0145 Y37.0140
G01 X21.9347 Y37.0518
G01 X21.8559 Y37.0801
G01 X21.8465 Y37.0830
G01 X21.7656 Y37.1031
G01 X21.6831 Y37.1155
G01 X21.6733 Y37.1164
G01 X21.5900 Y37.1204
G01 X21.5018 Y37.1161
G01 X21.4969 Y37.1155
G01 X21.4193 Y37.1039
G01 X21.4096 Y37.1020
G01 X21.3335 Y37.0830
G01 X21.3241 Y37.0801
G01 X21.2456 Y37.0519
G01 X21.1702 Y37.0164
G01 X21.1702 Y38.2404
G01 X21.1677 Y38.2878
G01 X21.1611 Y38.3328
G01 X21.1500 Y38.3784
G01 X21.1463 Y38.3899
G01 X21.1551 Y38.3922
G01 X21.1621 Y38.3946
G01 X21.1695 Y38.3977
G01 X21.1761 Y38.4012
G01 X21.1834 Y38.4058
G01 X21.1893 Y38.4103
G01 X21.1950 Y38.4153
G01 X21.2003 Y38.4207
G01 X21.2055 Y38.4269
G01 X21.2100 Y38.4332
G01 X21.2147 Y38.4413
G01 X21.2179 Y38.4479
G01 X21.2207 Y38.4552
G01 X21.2233 Y38.4636
G01 X21.2251 Y38.4727
G01 X21.2259 Y38.4797
G01 X21.2262 Y38.4879
G01 X21.2262 Y39.3379
G01 X21.2259 Y39.3461
G01 X21.2247 Y39.3554
G01 X21.2227 Y39.3643
G01 X21.2199 Y39.3731
G01 X21.2157 Y39.3826
G01 X21.2113 Y39.3904
G01 X21.2055 Y39.3989
G01 X21.2003 Y39.4051
G01 X21.1950 Y39.4105
G01 X21.1874 Y39.4170
G01 X21.1808 Y39.4217
G01 X21.1717 Y39.4270
G01 X21.1646 Y39.4302
G01 X21.1551 Y39.4336
G01 X21.1456 Y39.4360
G01 X21.1359 Y39.4374
G01 X21.1262 Y39.4379
G01 X20.2138 Y39.4379
G01 X20.2066 Y39.4376
G01 X20.1991 Y39.4368
G01 X20.1921 Y39.4355
G01 X20.1849 Y39.4336
G01 X20.1779 Y39.4312
G01 X20.1705 Y39.4281
G01 X20.1639 Y39.4246
G01 X20.1526 Y39.4170
G01 X20.1469 Y39.4122
G01 X20.1414 Y39.4070
G01 X20.1363 Y39.4011
G01 X20.1314 Y39.3947
G01 X20.1243 Y39.3826
G01 X20.1211 Y39.3755
G01 X20.1186 Y39.3685
G01 X20.1162 Y39.3599
G01 X20.1149 Y39.3531
G01 X20.1141 Y39.3461
G01 X20.1138 Y39.3379
G01 X20.1138 Y38.4879
G01 X20.1141 Y38.4797
G01 X20.1149 Y38.4727
G01 X20.1167 Y38.4636
G01 X20.1193 Y38.4552
G01 X20.1221 Y38.4479
G01 X20.1253 Y38.4413
G01 X20.1300 Y38.4332
G01 X20.1345 Y38.4269
G01 X20.1397 Y38.4207
G01 X20.1450 Y38.4153
G01 X20.1507 Y38.4103
G01 X20.1566 Y38.4058
G01 X20.1639 Y38.4012
G01 X20.1705 Y38.3977
G01 X20.1779 Y38.3946
G01 X20.1849 Y38.3922
G01 X20.1937 Y38.3899
G01 X20.1900 Y38.3784
G01 X20.1805 Y38.3403
G01 X20.1786 Y38.3306
G01 X20.1723 Y38.2878
G01 X20.1698 Y38.2379
G01 X20.1698 Y36.2672
G01 X20.1405 Y36.2181
G01 X20.1174 Y36.1695
G01 X20.1137 Y36.1605
G01 X20.0971 Y36.1143
G01 X20.0931 Y36.1000
G01 X9.1000 Y36.1000
G01 X9.1000 Y36.1766
G01 X9.1295 Y36.2094
G01 X9.1820 Y36.2805
G01 X9.2270 Y36.3559
G01 X9.2623 Y36.4303
G01 X9.2654 Y36.4375
G01 X9.2937 Y36.5169
G01 X9.3144 Y36.5988
G01 X9.3163 Y36.6085
G01 X9.3279 Y36.6861
G01 X9.3287 Y36.6939
G01 X9.3328 Y36.7792
G01 X9.3288 Y36.8625
G01 X9.3279 Y36.8723
G01 X9.3163 Y36.9499
G01 X9.3144 Y36.9596
G01 X9.2939 Y37.0408
G01 X9.2640 Y37.1243
G01 X9.2263 Y37.2039
G01 X9.1837 Y37.2751
G00 Z1.5000
G00 X9.1733 Y37.2900
G01 F60.00
G01 Z-0.1149
G01 F100.00
G01 X20.1698 Y37.2900
G01 X20.1698 Y37.4800
G01 X9.1000 Y37.4800
G01 X9.1000 Y37.6700
G01 X20.1698 Y37.6700
G01 X20.1698 Y37.8600
G01 X9.1000 Y37.8600
G01 X9.1000 Y38.0500
G01 X20.1698 Y38.0500
G00 Z1.5000
G00 X20.1698 Y38.2400
G01 F60.00
G01 Z-0.1149
G01 F100.00
G01 X9.1000 Y38.2400
G01 X9.1000 Y38.4300
G01 X20.1322 Y38.4300
G00 Z1.5000
G00 X20.1138 Y38.6200
G01 F60.00
G01 Z-0.1149
G01 F100.00
G01 X9.1000 Y38.6200
G01 X9.1000 Y38.8100
G01 X20.1138 Y38.8100
G01 X20.1138 Y39.0000
G01 X9.1000 Y39.0000
G01 X9.1000 Y39.1900
G01 X20.1138 Y39.1900
G00 Z1.5000
G00 X20.1230 Y39.3800
G01 F60.00
G01 Z-0.1149
G01 F100.00
G01 X9.1000 Y39.3800
G01 X9.1000 Y39.5700
G01 X32.1698 Y39.5700
G01 X32.1698 Y39.7600
G01 X9.1000 Y39.7600
G01 X9.1000 Y39.9500
G01 X32.1698 Y39.9500
G01 X32.1698 Y40.1400
G01 X9.1000 Y40.1400
G01 X9.1000 Y40.3300
G01 X32.1698 Y40.3300
G01 X32.1698 Y40.5200
G01 X9.1000 Y40.5200
G01 X9.1000 Y40.7100
G01 X32.1698 Y40.7100
G01 X32.1698 Y40.9000
G01 X9.1000 Y40.9000
G01 X9.1000 Y41.0900
G01 X32.1698 Y41.0900
G01 X32.1698 Y41.2800
G01 X9.1000 Y41.2800
G01 X9.1000 Y41.4700
G01 X32.1698 Y41.4700
G01 X32.1698 Y41.6600
G01 X9.1000 Y41.6600
G01 X9.1000 Y41.8500
G01 X32.1698 Y41.8500
G00 Z1.5000
G00 X33.1702 Y41.9000
G01 F60.00
G01 Z-0.1149
G01 F100.00
G01 X33.1702 Y39.4277
G01 X33.1766 Y39.4243
G01 X33.1830 Y39.4202
G01 X33.1934 Y39.4120
G01 X33.1987 Y39.4068
G01 X33.2036 Y39.4012
G01 X33.2113 Y39.3904
G01 X33.2177 Y39.3783
G01 X33.2221 Y39.3664
G01 X33.2251 Y39.3531
G01 X33.2260 Y39.3450
G01 X33.2262 Y39.3379
G01 X33.2262 Y38.4855
G01 X33.2255 Y38.4754
G01 X33.2240 Y38.4669
G01 X33.2221 Y38.4594
G01 X33.2187 Y38.4498
G01 X33.2147 Y38.4413
G01 X33.2100 Y38.4332
G01 X33.2036 Y38.4246
G01 X33.1975 Y38.4178
G01 X34.7946 Y36.8207
G01 X35.9000 Y36.8207
G01 X35.9000 Y41.9000
G01 X33.1702 Y41.9000
G01 X33.3602 Y41.9000
G01 X33.3602 Y38.2551
G01 X33.5502 Y38.0651
G01 X33.5502 Y41.9000
G01 X33.7402 Y41.9000
G01 X33.7402 Y37.8751
G01 X33.9302 Y37.6851
G01 X33.9302 Y41.9000
G01 X34.1202 Y41.9000
G01 X34.1202 Y37.4951
G01 X34.3102 Y37.3051
G01 X34.3102 Y41.9000
G01 X34.5002 Y41.9000
G01 X34.5002 Y37.1151
G01 X35.8302 Y36.8207
G01 X35.8302 Y41.9000
G01 X35.6402 Y41.9000
G01 X35.6402 Y36.8207
G01 X35.4502 Y36.8207
G01 X35.4502 Y41.9000
G01 X35.2602 Y41.9000
G01 X35.2602 Y36.8207
G01 X35.0702 Y36.8207
G01 X35.0702 Y41.9000
G01 X34.8802 Y41.9000
G01 X34.8802 Y36.8207
G01 X34.6902 Y36.9251
G01 X34.6902 Y41.9000
G00 Z1.5000
G00 X32.1230 Y39.3800
G01 F60.00
G01 Z-0.1149
G01 F100.00
G01 X31.7170 Y39.3800
G00 Z1.5000
G00 X31.7262 Y39.1900
G01 F60.00
G01 Z-0.1149
G01 F100.00
G01 X32.1138 Y39.1900
G01 X32.1138 Y39.0000
G01 X31.7262 Y39.0000
G01 X31.7262 Y38.8100
G01 X32.1138 Y38.8100
G01 X32.1138 Y38.6200
G01 X31.7262 Y38.6200
G00 Z1.5000
G00 X31.7078 Y38.4300
G01 F60.00
G01 Z-0.1149
G01 F100.00
G01 X32.1322 Y38.4300
G00 Z1.5000
G00 X32.1698 Y38.2400
G01 F60.00
G01 Z-0.1149
G01 F100.00
G01 X31.6702 Y38.2400
G01 X31.6702 Y38.0500
G01 X32.2065 Y38.0500
G00 Z1.5000
G00 X32.3405 Y37.8600
G01 F60.00
G01 Z-0.1149
G01 F100.00
G01 X31.6702 Y37.8600
G01 X31.6702 Y37.6700
G01 X32.5305 Y37.6700
G01 X32.7205 Y37.4800
G01 X31.7058 Y37.4800
G01 X31.8958 Y37.2900
G01 X32.9105 Y37.2900
G01 X33.1005 Y37.1000
G01 X32.0858 Y37.1000
G01 X32.2758 Y36.9100
G01 X33.2905 Y36.9100
G01 X33.4805 Y36.7200
G01 X32.4658 Y36.7200
G01 X32.6558 Y36.5300
G01 X33.6705 Y36.5300
G01 X33.8605 Y36.3400
G01 X32.8458 Y36.3400
G01 X33.0358 Y36.1500
G01 X34.0505 Y36.1500
G00 Z1.5000
G00 X31.6210 Y36.1500
G01 F60.00
G01 Z-0.1149
G01 F100.00
G01 X30.1702 Y36.1500
G01 X30.1702 Y36.3400
G01 X31.4310 Y36.3400
G01 X31.2410 Y36.5300
G01 X30.1702 Y36.5300
G01 X30.1702 Y36.7200
G01 X31.0510 Y36.7200
G01 X30.8610 Y36.9100
G01 X30.1702 Y36.9100
G01 X30.1702 Y37.1000
G01 X30.7158 Y37.1000
G00 Z1.5000
G00 X30.6706 Y37.2900
G01 F60.00
G01 Z-0.1149
G01 F100.00
G01 X30.1702 Y37.2900
G01 X30.1702 Y37.4800
G01 X30.6698 Y37.4800
G01 X30.6698 Y37.6700
G01 X30.1702 Y37.6700
G01 X30.1702 Y37.8600
G01 X30.6698 Y37.8600
G01 X30.6698 Y38.0500
G01 X30.1702 Y38.0500
G01 X30.1702 Y38.2400
G01 X30.6698 Y38.2400
G00 Z1.5000
G00 X30.6322 Y38.4300
G01 F60.00
G01 Z-0.1149
G01 F100.00
G01 X30.2078 Y38.4300
G00 Z1.5000
G00 X30.2262 Y38.6200
G01 F60.00
G01 Z-0.1149
G01 F100.00
G01 X30.6138 Y38.6200
G01 X30.6138 Y38.8100
G01 X30.2262 Y38.8100
G01 X30.2262 Y39.0000
G01 X30.6138 Y39.0000
G01 X30.6138 Y39.1900
G01 X30.2262 Y39.1900
G00 Z1.5000
G00 X30.2170 Y39.3800
G01 F60.00
G01 Z-0.1149
G01 F100.00
G01 X30.6230 Y39.3800
G00 Z1.5000
G00 X29.1230 Y39.3800
G01 F60.00
G01 Z-0.1149
G01 F100.00
G01 X28.7170 Y39.3800
G00 Z1.5000
G00 X28.7262 Y39.1900
G01 F60.00
G01 Z-0.1149
G01 F100.00
G01 X29.1138 Y39.1900
G01 X29.1138 Y39.0000
G01 X28.7262 Y39.0000
G01 X28.7262 Y38.8100
G01 X29.1138 Y38.8100
G01 X29.1138 Y38.6200
G01 X28.7262 Y38.6200
G00 Z1.5000
G00 X28.7078 Y38.4300
G01 F60.00
G01 Z-0.1149
G01 F100.00
G01 X29.1322 Y38.4300
G00 Z1.5000
G00 X29.1698 Y38.2400
G01 F60.00
G01 Z-0.1149
G01 F100.00
G01 X27.1702 Y38.2400
G01 X27.1702 Y38.0500
G01 X29.1698 Y38.0500
G01 X29.1698 Y37.8600
G01 X27.1702 Y37.8600
G01 X27.1702 Y37.6700
G01 X29.1698 Y37.6700
G01 X29.1698 Y37.4800
G01 X27.1702 Y37.4800
G01 X27.1702 Y37.2900
G01 X29.1698 Y37.2900
G01 X29.1698 Y37.1000
G01 X27.1702 Y37.1000
G01 X27.1702 Y36.9100
G01 X29.1698 Y36.9100
G01 X29.1698 Y36.7200
G01 X27.1702 Y36.7200
G01 X27.1702 Y36.5300
G01 X29.1698 Y36.5300
G01 X29.1698 Y36.3400
G01 X27.1702 Y36.3400
G01 X27.1702 Y36.1500
G01 X29.1698 Y36.1500
G00 Z1.5000
G00 X28.6262 Y38.3879
G01 F60.00
G01 Z-0.1149
G01 F100.00
G01 X28.6359 Y38.3884
G01 X28.6456 Y38.3898
G01 X28.6551 Y38.3922
G01 X28.6621 Y38.3946
G01 X28.6695 Y38.3977
G01 X28.6782 Y38.4025
G01 X28.6854 Y38.4073
G01 X28.6931 Y38.4136
G01 X28.7003 Y38.4207
G01 X28.7055 Y38.4269
G01 X28.7113 Y38.4354
G01 X28.7157 Y38.4432
G01 X28.7199 Y38.4527
G01 X28.7227 Y38.4615
G01 X28.7247 Y38.4704
G01 X28.7259 Y38.4797
G01 X28.7262 Y38.4879
G01 X28.7262 Y39.3415
G01 X28.7254 Y39.3508
G01 X28.7238 Y39.3599
G01 X28.7214 Y39.3685
G01 X28.7179 Y39.3779
G01 X28.7147 Y39.3845
G01 X28.7100 Y39.3926
G01 X28.7055 Y39.3989
G01 X28.6986 Y39.4070
G01 X28.6913 Y39.4139
G01 X28.6834 Y39.4200
G01 X28.6739 Y39.4258
G01 X28.6646 Y39.4302
G01 X28.6551 Y39.4336
G01 X28.6456 Y39.4360
G01 X28.6359 Y39.4374
G01 X28.6262 Y39.4379
G01 X27.7114 Y39.4379
G01 X27.7016 Y39.4372
G01 X27.6921 Y39.4355
G01 X27.6825 Y39.4329
G01 X27.6754 Y39.4302
G01 X27.6661 Y39.4258
G01 X27.6592 Y39.4217
G01 X27.6526 Y39.4170
G01 X27.6450 Y39.4105
G01 X27.6381 Y39.4033
G01 X27.6314 Y39.3947
G01 X27.6263 Y39.3864
G01 X27.6221 Y39.3779
G01 X27.6186 Y39.3685
G01 X27.6157 Y39.3577
G01 X27.6143 Y39.3485
G01 X27.6138 Y39.3379
G01 X27.6138 Y38.4843
G01 X27.6146 Y38.4750
G01 X27.6162 Y38.4659
G01 X27.6186 Y38.4573
G01 X27.6221 Y38.4479
G01 X27.6253 Y38.4413
G01 X27.6300 Y38.4332
G01 X27.6345 Y38.4269
G01 X27.6414 Y38.4188
G01 X27.6487 Y38.4119
G01 X27.6566 Y38.4058
G01 X27.6639 Y38.4012
G01 X27.6729 Y38.3966
G01 X27.6825 Y38.3929
G01 X27.6921 Y38.3903
G01 X27.7016 Y38.3886
G01 X27.7114 Y38.3879
G01 X28.6262 Y38.3879
G00 Z1.5000
G00 X27.6322 Y38.4300
G01 F60.00
G01 Z-0.1149
G01 F100.00
G01 X27.2078 Y38.4300
G00 Z1.5000
G00 X27.2262 Y38.6200
G01 F60.00
G01 Z-0.1149
G01 F100.00
G01 X27.6138 Y38.6200
G01 X27.6138 Y38.8100
G01 X27.2262 Y38.8100
G01 X27.2262 Y39.0000
G01 X27.6138 Y39.0000
G01 X27.6138 Y39.1900
G01 X27.2262 Y39.1900
G00 Z1.5000
G00 X27.2170 Y39.3800
G01 F60.00
G01 Z-0.1149
G01 F100.00
G01 X27.6230 Y39.3800
G00 Z1.5000
G00 X26.1230 Y39.3800
G01 F60.00
G01 Z-0.1149
G01 F100.00
G01 X25.7170 Y39.3800
G00 Z1.5000
G00 X25.7262 Y39.1900
G01 F60.00
G01 Z-0.1149
G01 F100.00
G01 X26.1138 Y39.1900
G01 X26.1138 Y39.0000
G01 X25.7262 Y39.0000
G01 X25.7262 Y38.8100
G01 X26.1138 Y38.8100
G01 X26.1138 Y38.6200
G01 X25.7262 Y38.6200
G00 Z1.5000
G00 X25.7078 Y38.4300
G01 F60.00
G01 Z-0.1149
G01 F100.00
G01 X26.1322 Y38.4300
G00 Z1.5000
G00 X26.1698 Y38.2400
G01 F60.00
G01 Z-0.1149
G01 F100.00
G01 X25.6702 Y38.2400
G01 X25.6702 Y38.0500
G01 X26.1698 Y38.0500
G01 X26.1698 Y37.8600
G01 X25.6702 Y37.8600
G01 X25.6702 Y37.6700
G01 X26.1698 Y37.6700
G01 X26.1698 Y37.4800
G01 X25.6702 Y37.4800
G01 X25.6702 Y37.2900
G01 X26.1698 Y37.2900
G01 X26.1698 Y37.1000
G01 X25.6702 Y37.1000
G01 X25.6702 Y36.9100
G01 X26.1698 Y36.9100
G01 X26.1698 Y36.7200
G01 X25.6702 Y36.7200
G01 X25.6702 Y36.5300
G01 X26.1698 Y36.5300
G01 X26.1698 Y36.3400
G01 X25.6702 Y36.3400
G01 X25.6702 Y36.1500
G01 X26.1698 Y36.1500
G00 Z1.5000
G00 X24.6698 Y36.1500
G01 F60.00
G01 Z-0.1149
G01 F100.00
G01 X23.8682 Y36.1500
G01 X23.8682 Y36.3400
G01 X24.6698 Y36.3400
G01 X24.6698 Y36.5300
G01 X23.8682 Y36.5300
G01 X23.8682 Y36.7200
G01 X24.6698 Y36.7200
G01 X24.6698 Y36.9100
G01 X23.8682 Y36.9100
G00 Z1.5000
G00 X23.8537 Y37.1000
G01 F60.00
G01 Z-0.1149
G01 F100.00
G01 X24.6698 Y37.1000
G01 X24.6698 Y37.2900
G01 X23.7620 Y37.2900
G00 Z1.5000
G00 X23.5778 Y37.4800
G01 F60.00
G01 Z-0.1149
G01 F100.00
G01 X24.6698 Y37.4800
G01 X24.6698 Y37.6700
G01 X23.3878 Y37.6700
G00 Z1.5000
G00 X23.1963 Y37.8600
G01 F60.00
G01 Z-0.1149
G01 F100.00
G01 X24.6698 Y37.8600
G01 X24.6698 Y38.0500
G01 X22.7538 Y38.0500
G01 X22.6702 Y38.2400
G01 X24.6698 Y38.2400
G00 Z1.5000
G00 X24.6322 Y38.4300
G01 F60.00
G01 Z-0.1149
G01 F100.00
G01 X24.2078 Y38.4300
G00 Z1.5000
G00 X24.1262 Y38.3879
G01 F60.00
G01 Z-0.1149
G01 F100.00
G01 X24.1359 Y38.3884
G01 X24.1456 Y38.3898
G01 X24.1551 Y38.3922
G01 X24.1621 Y38.3946
G01 X24.1695 Y38.3977
G01 X24.1782 Y38.4025
G01 X24.1854 Y38.4073
G01 X24.1931 Y38.4136
G01 X24.2003 Y38.4207
G01 X24.2055 Y38.4269
G01 X24.2113 Y38.4354
G01 X24.2157 Y38.4432
G01 X24.2199 Y38.4527
G01 X24.2227 Y38.4615
G01 X24.2247 Y38.4704
G01 X24.2259 Y38.4797
G01 X24.2262 Y38.4879
G01 X24.2262 Y39.3415
G01 X24.2254 Y39.3508
G01 X24.2238 Y39.3599
G01 X24.2214 Y39.3685
G01 X24.2179 Y39.3779
G01 X24.2147 Y39.3845
G01 X24.2100 Y39.3926
G01 X24.2055 Y39.3989
G01 X24.1986 Y39.4070
G01 X24.1913 Y39.4139
G01 X24.1834 Y39.4200
G01 X24.1739 Y39.4258
G01 X24.1646 Y39.4302
G01 X24.1551 Y39.4336
G01 X24.1456 Y39.4360
G01 X24.1359 Y39.4374
G01 X24.1262 Y39.4379
G01 X23.2114 Y39.4379
G01 X23.2016 Y39.4372
G01 X23.1921 Y39.4355
G01 X23.1825 Y39.4329
G01 X23.1754 Y39.4302
G01 X23.1661 Y39.4258
G01 X23.1592 Y39.4217
G01 X23.1526 Y39.4170
G01 X23.1450 Y39.4105
G01 X23.1381 Y39.4033
G01 X23.1314 Y39.3947
G01 X23.1263 Y39.3864
G01 X23.1221 Y39.3779
G01 X23.1186 Y39.3685
G01 X23.1157 Y39.3577
G01 X23.1143 Y39.3485
G01 X23.1138 Y39.3379
G01 X23.1138 Y38.4843
G01 X23.1146 Y38.4750
G01 X23.1162 Y38.4659
G01 X23.1186 Y38.4573
G01 X23.1221 Y38.4479
G01 X23.1253 Y38.4413
G01 X23.1300 Y38.4332
G01 X23.1345 Y38.4269
G01 X23.1414 Y38.4188
G01 X23.1487 Y38.4119
G01 X23.1566 Y38.4058
G01 X23.1639 Y38.4012
G01 X23.1729 Y38.3966
G01 X23.1825 Y38.3929
G01 X23.1921 Y38.3903
G01 X23.2016 Y38.3886
G01 X23.2114 Y38.3879
G01 X24.1262 Y38.3879
G00 Z1.5000
G00 X24.2262 Y38.6200
G01 F60.00
G01 Z-0.1149
G01 F100.00
G01 X24.6138 Y38.6200
G01 X24.6138 Y38.8100
G01 X24.2262 Y38.8100
G01 X24.2262 Y39.0000
G01 X24.6138 Y39.0000
G01 X24.6138 Y39.1900
G01 X24.2262 Y39.1900
G00 Z1.5000
G00 X24.2170 Y39.3800
G01 F60.00
G01 Z-0.1149
G01 F100.00
G01 X24.6230 Y39.3800
G00 Z1.5000
G00 X23.1230 Y39.3800
G01 F60.00
G01 Z-0.1149
G01 F100.00
G01 X22.7170 Y39.3800
G00 Z1.5000
G00 X22.7262 Y39.1900
G01 F60.00
G01 Z-0.1149
G01 F100.00
G01 X23.1138 Y39.1900
G01 X23.1138 Y39.0000
G01 X22.7262 Y39.0000
G01 X22.7262 Y38.8100
G01 X23.1138 Y38.8100
G01 X23.1138 Y38.6200
G01 X22.7262 Y38.6200
G00 Z1.5000
G00 X22.7078 Y38.4300
G01 F60.00
G01 Z-0.1149
G01 F100.00
G01 X23.1322 Y38.4300
G00 Z1.5000
G00 X21.6698 Y38.2400
G01 F60.00
G01 Z-0.1149
G01 F100.00
G01 X21.1702 Y38.2400
G00 Z1.5000
G00 X21.1702 Y38.0500
G01 F60.00
G01 Z-0.1149
G01 F100.00
G01 X21.6698 Y38.0500
G00 Z1.5000
G00 X21.6747 Y37.8600
G01 F60.00
G01 Z-0.1149
G01 F100.00
G01 X21.1702 Y37.8600
G01 X21.1702 Y37.6700
G01 X21.7411 Y37.6700
G00 Z1.5000
G00 X21.9090 Y37.4800
G01 F60.00
G01 Z-0.1149
G01 F100.00
G01 X21.1702 Y37.4800
G01 X21.1702 Y37.2900
G01 X22.0990 Y37.2900
G00 Z1.5000
G00 X22.2935 Y37.1000
G01 F60.00
G01 Z-0.1149
G01 F100.00
G01 X21.7785 Y37.1000
G00 Z1.5000
G00 X21.4015 Y37.1000
G01 F60.00
G01 Z-0.1149
G01 F100.00
G01 X21.1702 Y37.1000
G00 Z1.5000
G00 X22.1679 Y36.9100
G01 F60.00
G01 Z-0.1149
G01 F100.00
G01 X22.7330 Y36.9100
G01 X22.8678 Y36.7200
G01 X22.3386 Y36.7200
G00 Z1.5000
G00 X22.4341 Y36.5300
G01 F60.00
G01 Z-0.1149
G01 F100.00
G01 X22.8678 Y36.5300
G01 X22.8678 Y36.3400
G01 X22.4811 Y36.3400
G00 Z1.5000
G00 X22.4867 Y36.1500
G01 F60.00
G01 Z-0.1149
G01 F100.00
G01 X22.8678 Y36.1500
G00 Z1.5000
G00 X21.6322 Y38.4300
G01 F60.00
G01 Z-0.1149
G01 F100.00
G01 X21.2078 Y38.4300
G00 Z1.5000
G00 X21.2262 Y38.6200
G01 F60.00
G01 Z-0.1149
G01 F100.00
G01 X21.6138 Y38.6200
G01 X21.6138 Y38.8100
G01 X21.2262 Y38.8100
G01 X21.2262 Y39.0000
G01 X21.6138 Y39.0000
G01 X21.6138 Y39.1900
G01 X21.2262 Y39.1900
G00 Z1.5000
G00 X21.2170 Y39.3800
G01 F60.00
G01 Z-0.1149
G01 F100.00
G01 X21.6230 Y39.3800
G00 Z1.5000
G00 X19.9000 Y42.0400
G01 F60.00
G01 Z-0.1149
G01 F100.00
G01 X9.1000 Y42.0400
G01 X9.1000 Y42.2300
G01 X19.9000 Y42.2300
G01 X19.9000 Y42.4200
G01 X9.1000 Y42.4200
G01 X9.1000 Y42.6100
G01 X19.9000 Y42.6100
G01 X19.9000 Y42.8000
G01 X9.1000 Y42.8000
G01 X9.1000 Y42.9900
G01 X19.9000 Y42.9900
G01 X19.9000 Y43.1800
G01 X9.1000 Y43.1800
G01 X9.1000 Y43.3700
G01 X19.9000 Y43.3700
G01 X19.9000 Y43.5600
G01 X9.1000 Y43.5600
G01 X9.1000 Y43.7500
G01 X19.9000 Y43.7500
G01 X19.9000 Y43.9400
G01 X9.1000 Y43.9400
G01 X9.1000 Y44.1300
G01 X19.9000 Y44.1300
G01 X19.9000 Y44.3200
G01 X9.1000 Y44.3200
G01 X9.1000 Y44.5100
G01 X19.9000 Y44.5100
G01 X19.9000 Y44.7000
G01 X9.1000 Y44.7000
G01 X9.1000 Y44.8900
G01 X19.9000 Y44.8900
G01 X19.9000 Y45.0800
G01 X9.1000 Y45.0800
G01 X9.1000 Y45.2700
G01 X19.9000 Y45.2700
G01 X19.9000 Y45.4600
G01 X9.1000 Y45.4600
G01 X9.1000 Y45.6500
G01 X19.9000 Y45.6500
G01 X19.9000 Y45.8400
G01 X9.1000 Y45.8400
G01 X9.1000 Y46.0300
G01 X19.9000 Y46.0300
G01 X19.9000 Y46.2200
G01 X9.1000 Y46.2200
G01 X9.1000 Y46.4100
G01 X19.9000 Y46.4100
G01 X19.9000 Y46.6000
G01 X9.1000 Y46.6000
G01 X9.1000 Y46.7900
G01 X19.9000 Y46.7900
G01 X19.9000 Y46.9800
G01 X9.1000 Y46.9800
G01 X9.1000 Y47.1700
G01 X19.9000 Y47.1700
G01 X19.9000 Y47.3600
G01 X9.1000 Y47.3600
G01 X9.1000 Y47.5500
G01 X19.9000 Y47.5500
G01 X19.9000 Y47.7400
G01 X9.1000 Y47.7400
G01 X9.1000 Y47.9300
G01 X19.9000 Y47.9300
G01 X19.9000 Y48.1200
G01 X9.1000 Y48.1200
G01 X9.1000 Y48.3100
G01 X19.9000 Y48.3100
G01 X19.9000 Y48.5000
G01 X9.1000 Y48.5000
G01 X9.1000 Y48.6900
G01 X19.9000 Y48.6900
G01 X19.9000 Y48.8800
G01 X9.1000 Y48.8800
G01 X9.1000 Y49.0700
G01 X19.9000 Y49.0700
G01 X19.9000 Y49.2600
G01 X9.1000 Y49.2600
G01 X9.1000 Y49.4500
G01 X19.9000 Y49.4500
G01 X19.9000 Y49.6400
G01 X9.1000 Y49.6400
G01 X9.1000 Y49.8300
G01 X19.9000 Y49.8300
G01 X19.9000 Y50.0200
G01 X9.1000 Y50.0200
G01 X9.1000 Y50.2100
G01 X19.9000 Y50.2100
G01 X19.9000 Y50.4000
G01 X9.1000 Y50.4000
G01 X9.1000 Y50.5900
G01 X19.9000 Y50.5900
G01 X19.9000 Y50.7800
G01 X9.1000 Y50.7800
G01 X9.1000 Y50.9700
G01 X19.9000 Y50.9700
G01 X19.9000 Y51.1600
G01 X9.1000 Y51.1600
G01 X9.1000 Y51.3500
G01 X19.9000 Y51.3500
G01 X19.9000 Y51.5400
G01 X9.1000 Y51.5400
G01 X9.1000 Y51.7300
G01 X19.9000 Y51.7300
G01 X19.9000 Y51.9200
G01 X9.1000 Y51.9200
G01 X9.1000 Y52.1100
G01 X19.9000 Y52.1100
G01 X19.9000 Y52.3000
G01 X9.1000 Y52.3000
G01 X9.1000 Y52.4900
G01 X19.9000 Y52.4900
G01 X19.9000 Y52.6800
G01 X9.1000 Y52.6800
G01 X9.1000 Y52.8700
G01 X19.9000 Y52.8700
G01 X19.9000 Y53.0600
G01 X9.1000 Y53.0600
G01 X9.1000 Y53.2500
G01 X19.9000 Y53.2500
G01 X19.9000 Y53.4400
G01 X9.1000 Y53.4400
G01 X9.1000 Y53.6300
G01 X19.9000 Y53.6300
G01 X19.9000 Y53.8200
G01 X9.1000 Y53.8200
G01 X9.1000 Y54.0100
G01 X19.9005 Y54.0100
G00 Z1.5000
G00 X20.1775 Y54.2000
G01 F60.00
G01 Z-0.1149
G01 F100.00
G01 X9.1000 Y54.2000
G01 X9.1000 Y54.3900
G01 X20.1698 Y54.3900
G01 X20.1698 Y54.5800
G01 X9.1000 Y54.5800
G01 X9.1000 Y54.7700
G01 X20.1698 Y54.7700
G01 X20.1698 Y54.9600
G01 X9.1000 Y54.9600
G01 X9.1000 Y55.1500
G01 X20.1698 Y55.1500
G01 X20.1698 Y55.3400
G01 X9.1000 Y55.3400
G01 X9.1000 Y55.5300
G01 X20.1698 Y55.5300
G01 X20.1698 Y55.7200
G01 X9.1000 Y55.7200
G01 X9.1000 Y55.9100
G01 X20.1289 Y55.9100
G00 Z1.5000
G00 X20.1138 Y56.1000
G01 F60.00
G01 Z-0.1149
G01 F100.00
G01 X9.1000 Y56.1000
G01 X9.1000 Y56.2900
G01 X20.1138 Y56.2900
G01 X20.1138 Y56.4800
G01 X9.1000 Y56.4800
G01 X9.1000 Y56.6700
G01 X20.1138 Y56.6700
G00 Z1.5000
G00 X20.1255 Y56.8600
G01 F60.00
G01 Z-0.1149
G01 F100.00
G01 X9.1000 Y56.8600
G01 X9.1000 Y57.0500
G01 X20.1698 Y57.0500
G01 X20.1698 Y57.2400
G01 X9.1000 Y57.2400
G01 X9.1000 Y57.4300
G01 X20.1698 Y57.4300
G01 X20.1698 Y57.6200
G01 X9.1000 Y57.6200
G01 X9.1000 Y57.8100
G01 X20.1698 Y57.8100
G01 X20.1698 Y58.0000
G01 X9.1000 Y58.0000
G01 X9.1000 Y58.1900
G01 X20.1698 Y58.1900
G01 X20.1698 Y58.3800
G01 X9.1000 Y58.3800
G01 X9.1000 Y58.5700
G01 X20.1698 Y58.5700
G01 X20.1698 Y58.7600
G01 X9.1000 Y58.7600
G01 X9.1000 Y58.9500
G01 X20.1698 Y58.9500
G01 X20.1698 Y59.1400
G01 X9.1000 Y59.1400
G01 X9.1000 Y59.3300
G01 X20.1698 Y59.3300
G01 X20.1698 Y59.5200
G01 X9.1000 Y59.5200
G01 X9.1000 Y59.7100
G01 X20.1698 Y59.7100
G01 X20.1698 Y59.9000
G01 X9.1000 Y59.9000
G00 Z1.5000
G00 X21.1702 Y59.9000
G01 F60.00
G01 Z-0.1149
G01 F100.00
G01 X21.1702 Y56.9027
G01 X21.1761 Y56.8996
G01 X21.1834 Y56.8950
G01 X21.1931 Y56.8872
G01 X21.1986 Y56.8820
G01 X21.2037 Y56.8761
G01 X21.2113 Y56.8654
G01 X21.2147 Y56.8595
G01 X21.2179 Y56.8529
G01 X21.2207 Y56.8456
G01 X21.2227 Y56.8393
G01 X21.2254 Y56.8258
G01 X21.2262 Y56.8129
G01 X21.2261 Y55.9570
G01 X21.2247 Y55.9454
G01 X21.2214 Y55.9323
G01 X21.2168 Y55.9205
G01 X21.2100 Y55.9082
G01 X21.2019 Y55.8975
G01 X21.1931 Y55.8886
G01 X21.1834 Y55.8808
G01 X21.1761 Y55.8762
G01 X21.1702 Y55.8731
G01 X21.1702 Y54.6007
G01 X27.0564 Y54.6007
G01 X27.6698 Y55.2141
G01 X27.6698 Y55.8731
G01 X27.6639 Y55.8762
G01 X27.6566 Y55.8808
G01 X27.6469 Y55.8886
G01 X27.6381 Y55.8975
G01 X27.6300 Y55.9082
G01 X27.6232 Y55.9205
G01 X27.6186 Y55.9323
G01 X27.6153 Y55.9454
G01 X27.6138 Y55.9593
G01 X27.6138 Y56.8165
G01 X27.6153 Y56.8304
G01 X27.6186 Y56.8435
G01 X27.6211 Y56.8505
G01 X27.6243 Y56.8576
G01 X27.6314 Y56.8697
G01 X27.6381 Y56.8783
G01 X27.6469 Y56.8872
G01 X27.6566 Y56.8950
G01 X27.6661 Y56.9008
G01 X27.6754 Y56.9052
G01 X27.6873 Y56.9093
G01 X27.6991 Y56.9118
G01 X27.7090 Y56.9128
G01 X28.6286 Y56.9129
G01 X28.6384 Y56.9122
G01 X28.6479 Y56.9105
G01 X28.6575 Y56.9079
G01 X28.6646 Y56.9052
G01 X28.6739 Y56.9008
G01 X28.6808 Y56.8967
G01 X28.6893 Y56.8905
G01 X28.6968 Y56.8838
G01 X28.7037 Y56.8761
G01 X28.7086 Y56.8697
G01 X28.7137 Y56.8614
G01 X28.7179 Y56.8529
G01 X28.7214 Y56.8435
G01 X28.7238 Y56.8349
G01 X28.7254 Y56.8258
G01 X28.7262 Y56.8165
G01 X28.7262 Y55.9593
G01 X28.7247 Y55.9454
G01 X28.7214 Y55.9323
G01 X28.7168 Y55.9205
G01 X28.7100 Y55.9082
G01 X28.7019 Y55.8975
G01 X28.6931 Y55.8886
G01 X28.6834 Y55.8808
G01 X28.6761 Y55.8762
G01 X28.6702 Y55.8731
G01 X28.6702 Y55.1972
G01 X28.6988 Y55.1495
G01 X28.7226 Y55.0996
G01 X28.7263 Y55.0905
G01 X28.7443 Y55.0400
G01 X28.7576 Y54.9873
G01 X28.7596 Y54.9777
G01 X28.7673 Y54.9251
G01 X28.7703 Y54.8654
G01 X28.7673 Y54.8057
G01 X28.7583 Y54.7462
G01 X28.7457 Y54.6959
G01 X28.7436 Y54.6886
G01 X28.7246 Y54.6358
G01 X28.7081 Y54.6007
G01 X30.4800 Y54.6007
G01 X30.5388 Y54.5978
G01 X30.5971 Y54.5891
G01 X30.6536 Y54.5750
G01 X30.7051 Y54.5567
G01 X30.7142 Y54.5530
G01 X30.7632 Y54.5296
G01 X30.8093 Y54.5021
G01 X30.8175 Y54.4967
G01 X30.8588 Y54.4660
G01 X30.8645 Y54.4612
G01 X30.9044 Y54.4248
G01 X31.2293 Y54.1000
G01 X35.9000 Y54.1000
G01 X35.9000 Y55.8877
G01 X33.1922 Y55.8877
G01 X33.1851 Y55.8820
G01 X33.1788 Y55.8778
G01 X33.1710 Y55.8735
G01 X33.1621 Y55.8696
G01 X33.1523 Y55.8663
G01 X33.1443 Y55.8645
G01 X33.1361 Y55.8634
G01 X33.1286 Y55.8629
G01 X32.2114 Y55.8629
G01 X32.2012 Y55.8637
G01 X32.1928 Y55.8651
G01 X32.1828 Y55.8678
G01 X32.1734 Y55.8714
G01 X32.1652 Y55.8755
G01 X32.1570 Y55.8806
G01 X32.1504 Y55.8855
G01 X32.1430 Y55.8922
G01 X32.1364 Y55.8996
G01 X32.1300 Y55.9082
G01 X32.1253 Y55.9163
G01 X32.1213 Y55.9248
G01 X32.1179 Y55.9344
G01 X32.1154 Y55.9448
G01 X32.1142 Y55.9531
G01 X32.1138 Y55.9629
G01 X32.1138 Y56.8129
G01 X32.1140 Y56.8200
G01 X32.1149 Y56.8281
G01 X32.1165 Y56.8364
G01 X32.1187 Y56.8439
G01 X32.1213 Y56.8510
G01 X32.1243 Y56.8576
G01 X32.1287 Y56.8654
G01 X32.1329 Y56.8717
G01 X32.1380 Y56.8781
G01 X32.1430 Y56.8836
G01 X32.1485 Y56.8887
G01 X32.1549 Y56.8938
G01 X32.1612 Y56.8980
G01 X32.1690 Y56.9023
G01 X32.1756 Y56.9053
G01 X32.1828 Y56.9080
G01 X32.1903 Y56.9101
G01 X32.2012 Y56.9121
G01 X32.2138 Y56.9129
G01 X33.1286 Y56.9129
G01 X33.1361 Y56.9124
G01 X33.1443 Y56.9113
G01 X33.1523 Y56.9095
G01 X33.1621 Y56.9062
G01 X33.1710 Y56.9023
G01 X33.1788 Y56.8980
G01 X33.1851 Y56.8938
G01 X33.1922 Y56.8881
G01 X35.9000 Y56.8881
G01 X35.9000 Y59.9000
G01 X31.6702 Y59.9000
G01 X31.6702 Y56.9027
G01 X31.6761 Y56.8996
G01 X31.6834 Y56.8950
G01 X31.6931 Y56.8872
G01 X31.7019 Y56.8783
G01 X31.7100 Y56.8676
G01 X31.7168 Y56.8553
G01 X31.7214 Y56.8435
G01 X31.7247 Y56.8304
G01 X31.7261 Y56.8188
G01 X31.7262 Y55.9629
G01 X31.7257 Y55.9523
G01 X31.7243 Y55.9431
G01 X31.7221 Y55.9344
G01 X31.7189 Y55.9253
G01 X31.7147 Y55.9163
G01 X31.7100 Y55.9082
G01 X31.7055 Y55.9019
G01 X31.6986 Y55.8938
G01 X31.6913 Y55.8869
G01 X31.6834 Y55.8808
G01 X31.6761 Y55.8762
G01 X31.6671 Y55.8716
G01 X31.6575 Y55.8679
G01 X31.6479 Y55.8653
G01 X31.6384 Y55.8636
G01 X31.6286 Y55.8629
G01 X30.7138 Y55.8629
G01 X30.7066 Y55.8632
G01 X30.6991 Y55.8640
G01 X30.6896 Y55.8658
G01 X30.6825 Y55.8679
G01 X30.6754 Y55.8706
G01 X30.6683 Y55.8738
G01 X30.6618 Y55.8775
G01 X30.6546 Y55.8823
G01 X30.6487 Y55.8869
G01 X30.6432 Y55.8920
G01 X30.6381 Y55.8975
G01 X30.6329 Y55.9041
G01 X30.6287 Y55.9104
G01 X30.6243 Y55.9182
G01 X30.6211 Y55.9253
G01 X30.6186 Y55.9323
G01 X30.6162 Y55.9409
G01 X30.6143 Y55.9523
G01 X30.6138 Y55.9629
G01 X30.6139 Y56.8188
G01 X30.6153 Y56.8304
G01 X30.6186 Y56.8435
G01 X30.6232 Y56.8553
G01 X30.6300 Y56.8676
G01 X30.6381 Y56.8783
G01 X30.6469 Y56.8872
G01 X30.6566 Y56.8950
G01 X30.6639 Y56.8996
G01 X30.6698 Y56.9027
G01 X30.6698 Y59.9000
G01 X30.1702 Y59.9000
G01 X30.1702 Y56.9027
G01 X30.1761 Y56.8996
G01 X30.1834 Y56.8950
G01 X30.1931 Y56.8872
G01 X30.2019 Y56.8783
G01 X30.2100 Y56.8676
G01 X30.2168 Y56.8553
G01 X30.2214 Y56.8435
G01 X30.2247 Y56.8304
G01 X30.2261 Y56.8188
G01 X30.2262 Y55.9629
G01 X30.2257 Y55.9523
G01 X30.2243 Y55.9431
G01 X30.2221 Y55.9344
G01 X30.2189 Y55.9253
G01 X30.2147 Y55.9163
G01 X30.2100 Y55.9082
G01 X30.2055 Y55.9019
G01 X30.1986 Y55.8938
G01 X30.1913 Y55.8869
G01 X30.1834 Y55.8808
G01 X30.1761 Y55.8762
G01 X30.1671 Y55.8716
G01 X30.1598 Y55.8687
G01 X30.1504 Y55.8658
G01 X30.1409 Y55.8640
G01 X30.1310 Y55.8630
G01 X29.2138 Y55.8629
G01 X29.2066 Y55.8632
G01 X29.1991 Y55.8640
G01 X29.1896 Y55.8658
G01 X29.1825 Y55.8679
G01 X29.1754 Y55.8706
G01 X29.1683 Y55.8738
G01 X29.1618 Y55.8775
G01 X29.1546 Y55.8823
G01 X29.1487 Y55.8869
G01 X29.1432 Y55.8920
G01 X29.1381 Y55.8975
G01 X29.1329 Y55.9041
G01 X29.1287 Y55.9104
G01 X29.1253 Y55.9163
G01 X29.1221 Y55.9229
G01 X29.1193 Y55.9302
G01 X29.1167 Y55.9386
G01 X29.1146 Y55.9500
G01 X29.1138 Y55.9629
G01 X29.1139 Y56.8188
G01 X29.1153 Y56.8304
G01 X29.1186 Y56.8435
G01 X29.1232 Y56.8553
G01 X29.1300 Y56.8676
G01 X29.1381 Y56.8783
G01 X29.1469 Y56.8872
G01 X29.1566 Y56.8950
G01 X29.1639 Y56.8996
G01 X29.1698 Y56.9027
G01 X29.1698 Y59.9000
G01 X27.1702 Y59.9000
G01 X27.1702 Y56.9027
G01 X27.1761 Y56.8996
G01 X27.1834 Y56.8950
G01 X27.1931 Y56.8872
G01 X27.2019 Y56.8783
G01 X27.2100 Y56.8676
G01 X27.2168 Y56.8553
G01 X27.2214 Y56.8435
G01 X27.2247 Y56.8304
G01 X27.2261 Y56.8188
G01 X27.2262 Y55.9629
G01 X27.2259 Y55.9547
G01 X27.2247 Y55.9454
G01 X27.2227 Y55.9365
G01 X27.2199 Y55.9277
G01 X27.2157 Y55.9182
G01 X27.2113 Y55.9104
G01 X27.2055 Y55.9019
G01 X27.2003 Y55.8957
G01 X27.1931 Y55.8886
G01 X27.1854 Y55.8823
G01 X27.1782 Y55.8775
G01 X27.1695 Y55.8727
G01 X27.1621 Y55.8696
G01 X27.1527 Y55.8665
G01 X27.1433 Y55.8644
G01 X27.1334 Y55.8632
G01 X27.1262 Y55.8629
G01 X26.2138 Y55.8629
G01 X26.2066 Y55.8632
G01 X26.1991 Y55.8640
G01 X26.1896 Y55.8658
G01 X26.1825 Y55.8679
G01 X26.1754 Y55.8706
G01 X26.1683 Y55.8738
G01 X26.1618 Y55.8775
G01 X26.1546 Y55.8823
G01 X26.1487 Y55.8869
G01 X26.1432 Y55.8920
G01 X26.1381 Y55.8975
G01 X26.1329 Y55.9041
G01 X26.1287 Y55.9104
G01 X26.1253 Y55.9163
G01 X26.1221 Y55.9229
G01 X26.1193 Y55.9302
G01 X26.1167 Y55.9386
G01 X26.1146 Y55.9500
G01 X26.1138 Y55.9629
G01 X26.1139 Y56.8188
G01 X26.1153 Y56.8304
G01 X26.1186 Y56.8435
G01 X26.1232 Y56.8553
G01 X26.1300 Y56.8676
G01 X26.1381 Y56.8783
G01 X26.1469 Y56.8872
G01 X26.1566 Y56.8950
G01 X26.1639 Y56.8996
G01 X26.1698 Y56.9027
G01 X26.1698 Y59.9000
G01 X25.1875 Y59.9000
G01 X25.1875 Y59.8370
G01 X25.5722 Y59.4523
G01 X25.6102 Y59.4101
G01 X25.6437 Y59.3651
G01 X25.6477 Y59.3589
G01 X25.6759 Y59.3115
G01 X25.6986 Y59.2638
G01 X25.7023 Y59.2547
G01 X25.7203 Y59.2042
G01 X25.7336 Y59.1515
G01 X25.7356 Y59.1419
G01 X25.7433 Y59.0893
G01 X25.7463 Y59.0296
G01 X25.7437 Y58.9757
G01 X25.7428 Y58.9659
G01 X25.7356 Y58.9173
G01 X25.7336 Y58.9077
G01 X25.7203 Y58.8550
G01 X25.7006 Y58.8000
G01 X25.6755 Y58.7469
G01 X25.6462 Y58.6978
G01 X25.6462 Y56.9109
G01 X25.6551 Y56.9086
G01 X25.6621 Y56.9062
G01 X25.6695 Y56.9031
G01 X25.6761 Y56.8996
G01 X25.6834 Y56.8950
G01 X25.6893 Y56.8905
G01 X25.6950 Y56.8855
G01 X25.7003 Y56.8801
G01 X25.7055 Y56.8739
G01 X25.7100 Y56.8676
G01 X25.7147 Y56.8595
G01 X25.7179 Y56.8529
G01 X25.7207 Y56.8456
G01 X25.7233 Y56.8372
G01 X25.7251 Y56.8281
G01 X25.7259 Y56.8211
G01 X25.7262 Y56.8129
G01 X25.7262 Y55.9593
G01 X25.7254 Y55.9500
G01 X25.7238 Y55.9409
G01 X25.7214 Y55.9323
G01 X25.7179 Y55.9229
G01 X25.7137 Y55.9144
G01 X25.7086 Y55.9061
G01 X25.7019 Y55.8975
G01 X25.6950 Y55.8903
G01 X25.6874 Y55.8838
G01 X25.6808 Y55.8791
G01 X25.6717 Y55.8738
G01 X25.6621 Y55.8696
G01 X25.6551 Y55.8672
G01 X25.6456 Y55.8648
G01 X25.6359 Y55.8634
G01 X25.6262 Y55.8629
G01 X24.7138 Y55.8629
G01 X24.7066 Y55.8632
G01 X24.6991 Y55.8640
G01 X24.6921 Y55.8653
G01 X24.6802 Y55.8687
G01 X24.6729 Y55.8716
G01 X24.6661 Y55.8750
G01 X24.6546 Y55.8823
G01 X24.6487 Y55.8869
G01 X24.6432 Y55.8920
G01 X24.6345 Y55.9019
G01 X24.6274 Y55.9125
G01 X24.6243 Y55.9182
G01 X24.6211 Y55.9253
G01 X24.6179 Y55.9344
G01 X24.6157 Y55.9431
G01 X24.6143 Y55.9523
G01 X24.6138 Y55.9629
G01 X24.6138 Y56.8165
G01 X24.6146 Y56.8258
G01 X24.6167 Y56.8372
G01 X24.6193 Y56.8456
G01 X24.6232 Y56.8553
G01 X24.6274 Y56.8633
G01 X24.6329 Y56.8717
G01 X24.6397 Y56.8801
G01 X24.6458 Y56.8863
G01 X24.6458 Y58.6809
G01 X24.1610 Y59.1657
G01 X24.1230 Y59.2079
G01 X24.0909 Y59.2509
G01 X24.0855 Y59.2591
G01 X24.0584 Y59.3043
G01 X24.0329 Y59.3580
G01 X24.0129 Y59.4138
G01 X23.9984 Y59.4719
G01 X23.9902 Y59.5267
G01 X23.9895 Y59.5345
G01 X23.9869 Y59.5884
G01 X23.9869 Y59.9000
G01 X21.1702 Y59.9000
G01 X23.9869 Y59.9000
G01 X23.9869 Y59.7100
G01 X21.1702 Y59.7100
G01 X21.1702 Y59.5200
G01 X23.9911 Y59.5200
G00 Z1.5000
G00 X24.0461 Y59.3300
G01 F60.00
G01 Z-0.1149
G01 F100.00
G01 X21.1702 Y59.3300
G01 X21.1702 Y59.1400
G01 X24.1867 Y59.1400
G01 X24.3767 Y58.9500
G01 X21.1702 Y58.9500
G01 X21.1702 Y58.7600
G01 X24.5667 Y58.7600
G01 X24.6458 Y58.5700
G01 X21.1702 Y58.5700
G01 X21.1702 Y58.3800
G01 X24.6458 Y58.3800
G01 X24.6458 Y58.1900
G01 X21.1702 Y58.1900
G01 X21.1702 Y58.0000
G01 X24.6458 Y58.0000
G01 X24.6458 Y57.8100
G01 X21.1702 Y57.8100
G01 X21.1702 Y57.6200
G01 X24.6458 Y57.6200
G01 X24.6458 Y57.4300
G01 X21.1702 Y57.4300
G01 X21.1702 Y57.2400
G01 X24.6458 Y57.2400
G01 X24.6458 Y57.0500
G01 X21.1702 Y57.0500
G01 X21.2145 Y56.8600
G01 X21.6255 Y56.8600
G00 Z1.5000
G00 X21.6138 Y56.6700
G01 F60.00
G01 Z-0.1149
G01 F100.00
G01 X21.2262 Y56.6700
G01 X21.2262 Y56.4800
G01 X21.6138 Y56.4800
G01 X21.6138 Y56.2900
G01 X21.2262 Y56.2900
G01 X21.2262 Y56.1000
G01 X21.6138 Y56.1000
G00 Z1.5000
G00 X21.6289 Y55.9100
G01 F60.00
G01 Z-0.1149
G01 F100.00
G01 X21.2111 Y55.9100
G00 Z1.5000
G00 X21.1702 Y55.7200
G01 F60.00
G01 Z-0.1149
G01 F100.00
G01 X27.6698 Y55.7200
G01 X27.6698 Y55.5300
G01 X21.1702 Y55.5300
G01 X21.1702 Y55.3400
G01 X27.6698 Y55.3400
G01 X27.6057 Y55.1500
G01 X21.1702 Y55.1500
G01 X21.1702 Y54.9600
G01 X27.4157 Y54.9600
G01 X27.2257 Y54.7700
G01 X21.1702 Y54.7700
G00 Z1.5000
G00 X22.6262 Y55.8629
G01 F60.00
G01 Z-0.1149
G01 F100.00
G01 X22.6359 Y55.8634
G01 X22.6456 Y55.8648
G01 X22.6551 Y55.8672
G01 X22.6621 Y55.8696
G01 X22.6695 Y55.8727
G01 X22.6782 Y55.8775
G01 X22.6854 Y55.8823
G01 X22.6931 Y55.8886
G01 X22.7003 Y55.8957
G01 X22.7055 Y55.9019
G01 X22.7113 Y55.9104
G01 X22.7157 Y55.9182
G01 X22.7199 Y55.9277
G01 X22.7227 Y55.9365
G01 X22.7247 Y55.9454
G01 X22.7259 Y55.9547
G01 X22.7262 Y55.9629
G01 X22.7262 Y56.8165
G01 X22.7254 Y56.8258
G01 X22.7238 Y56.8349
G01 X22.7214 Y56.8435
G01 X22.7179 Y56.8529
G01 X22.7147 Y56.8595
G01 X22.7100 Y56.8676
G01 X22.7055 Y56.8739
G01 X22.6986 Y56.8820
G01 X22.6913 Y56.8889
G01 X22.6834 Y56.8950
G01 X22.6739 Y56.9008
G01 X22.6646 Y56.9052
G01 X22.6551 Y56.9086
G01 X22.6456 Y56.9110
G01 X22.6359 Y56.9124
G01 X22.6262 Y56.9129
G01 X21.7114 Y56.9129
G01 X21.7016 Y56.9122
G01 X21.6921 Y56.9105
G01 X21.6825 Y56.9079
G01 X21.6754 Y56.9052
G01 X21.6661 Y56.9008
G01 X21.6592 Y56.8967
G01 X21.6526 Y56.8920
G01 X21.6450 Y56.8855
G01 X21.6381 Y56.8783
G01 X21.6314 Y56.8697
G01 X21.6263 Y56.8614
G01 X21.6221 Y56.8529
G01 X21.6186 Y56.8435
G01 X21.6162 Y56.8349
G01 X21.6146 Y56.8258
G01 X21.6138 Y56.8165
G01 X21.6138 Y55.9593
G01 X21.6153 Y55.9454
G01 X21.6186 Y55.9323
G01 X21.6211 Y55.9253
G01 X21.6243 Y55.9182
G01 X21.6314 Y55.9061
G01 X21.6397 Y55.8957
G01 X21.6450 Y55.8903
G01 X21.6507 Y55.8853
G01 X21.6618 Y55.8775
G01 X21.6683 Y55.8738
G01 X21.6754 Y55.8706
G01 X21.6849 Y55.8672
G01 X21.6944 Y55.8648
G01 X21.7041 Y55.8634
G01 X21.7138 Y55.8629
G01 X22.6262 Y55.8629
G01 X24.1262 Y55.8629
G01 X24.1359 Y55.8634
G01 X24.1456 Y55.8648
G01 X24.1551 Y55.8672
G01 X24.1621 Y55.8696
G01 X24.1717 Y55.8738
G01 X24.1808 Y55.8791
G01 X24.1874 Y55.8838
G01 X24.1950 Y55.8903
G01 X24.2019 Y55.8975
G01 X24.2086 Y55.9061
G01 X24.2137 Y55.9144
G01 X24.2179 Y55.9229
G01 X24.2214 Y55.9323
G01 X24.2238 Y55.9409
G01 X24.2254 Y55.9500
G01 X24.2262 Y55.9593
G01 X24.2261 Y56.8188
G01 X24.2243 Y56.8327
G01 X24.2207 Y56.8456
G01 X24.2179 Y56.8529
G01 X24.2147 Y56.8595
G01 X24.2113 Y56.8654
G01 X24.2071 Y56.8717
G01 X24.1986 Y56.8820
G01 X24.1931 Y56.8872
G01 X24.1874 Y56.8920
G01 X24.1761 Y56.8996
G01 X24.1646 Y56.9052
G01 X24.1551 Y56.9086
G01 X24.1456 Y56.9110
G01 X24.1359 Y56.9124
G01 X24.1262 Y56.9129
G01 X23.2138 Y56.9129
G01 X23.2041 Y56.9124
G01 X23.1967 Y56.9114
G01 X23.1873 Y56.9093
G01 X23.1779 Y56.9062
G01 X23.1705 Y56.9031
G01 X23.1618 Y56.8983
G01 X23.1546 Y56.8935
G01 X23.1469 Y56.8872
G01 X23.1414 Y56.8820
G01 X23.1345 Y56.8739
G01 X23.1300 Y56.8676
G01 X23.1253 Y56.8595
G01 X23.1221 Y56.8529
G01 X23.1186 Y56.8435
G01 X23.1162 Y56.8349
G01 X23.1146 Y56.8258
G01 X23.1138 Y56.8165
G01 X23.1138 Y55.9593
G01 X23.1146 Y55.9500
G01 X23.1162 Y55.9409
G01 X23.1186 Y55.9323
G01 X23.1221 Y55.9229
G01 X23.1263 Y55.9144
G01 X23.1314 Y55.9061
G01 X23.1381 Y55.8975
G01 X23.1450 Y55.8903
G01 X23.1526 Y55.8838
G01 X23.1592 Y55.8791
G01 X23.1661 Y55.8750
G01 X23.1754 Y55.8706
G01 X23.1825 Y55.8679
G01 X23.1921 Y55.8653
G01 X23.2016 Y55.8636
G01 X23.2114 Y55.8629
G01 X24.1262 Y55.8629
G00 Z1.5000
G00 X24.2111 Y55.9100
G01 F60.00
G01 Z-0.1149
G01 F100.00
G01 X24.6289 Y55.9100
G00 Z1.5000
G00 X24.6138 Y56.1000
G01 F60.00
G01 Z-0.1149
G01 F100.00
G01 X24.2262 Y56.1000
G01 X24.2262 Y56.2900
G01 X24.6138 Y56.2900
G01 X24.6138 Y56.4800
G01 X24.2262 Y56.4800
G01 X24.2262 Y56.6700
G01 X24.6138 Y56.6700
G00 Z1.5000
G00 X24.6255 Y56.8600
G01 F60.00
G01 Z-0.1149
G01 F100.00
G01 X24.2145 Y56.8600
G00 Z1.5000
G00 X23.1255 Y56.8600
G01 F60.00
G01 Z-0.1149
G01 F100.00
G01 X22.7145 Y56.8600
G00 Z1.5000
G00 X23.1138 Y56.6700
G01 F60.00
G01 Z-0.1149
G01 F100.00
G01 X22.7262 Y56.6700
G01 X22.7262 Y56.4800
G01 X23.1138 Y56.4800
G01 X23.1138 Y56.2900
G01 X22.7262 Y56.2900
G01 X22.7262 Y56.1000
G01 X23.1138 Y56.1000
G00 Z1.5000
G00 X23.1289 Y55.9100
G01 F60.00
G01 Z-0.1149
G01 F100.00
G01 X22.7111 Y55.9100
G00 Z1.5000
G00 X25.7111 Y55.9100
G01 F60.00
G01 Z-0.1149
G01 F100.00
G01 X26.1289 Y55.9100
G00 Z1.5000
G00 X25.7262 Y56.1000
G01 F60.00
G01 Z-0.1149
G01 F100.00
G01 X26.1138 Y56.1000
G01 X26.1138 Y56.2900
G01 X25.7262 Y56.2900
G01 X25.7262 Y56.4800
G01 X26.1138 Y56.4800
G01 X26.1138 Y56.6700
G01 X25.7262 Y56.6700
G00 Z1.5000
G00 X25.7145 Y56.8600
G01 F60.00
G01 Z-0.1149
G01 F100.00
G01 X26.1255 Y56.8600
G00 Z1.5000
G00 X25.6462 Y57.0500
G01 F60.00
G01 Z-0.1149
G01 F100.00
G01 X26.1698 Y57.0500
G01 X26.1698 Y57.2400
G01 X25.6462 Y57.2400
G01 X25.6462 Y57.4300
G01 X26.1698 Y57.4300
G01 X26.1698 Y57.6200
G01 X25.6462 Y57.6200
G01 X25.6462 Y57.8100
G01 X26.1698 Y57.8100
G01 X26.1698 Y58.0000
G01 X25.6462 Y58.0000
G01 X25.6462 Y58.1900
G01 X26.1698 Y58.1900
G01 X26.1698 Y58.3800
G01 X25.6462 Y58.3800
G01 X25.6462 Y58.5700
G01 X26.1698 Y58.5700
G01 X26.1698 Y58.7600
G01 X25.6818 Y58.7600
G00 Z1.5000
G00 X25.7404 Y58.9500
G01 F60.00
G01 Z-0.1149
G01 F100.00
G01 X26.1698 Y58.9500
G01 X26.1698 Y59.1400
G01 X25.7358 Y59.1400
G00 Z1.5000
G00 X25.6651 Y59.3300
G01 F60.00
G01 Z-0.1149
G01 F100.00
G01 X26.1698 Y59.3300
G01 X26.1698 Y59.5200
G01 X25.5045 Y59.5200
G01 X25.3145 Y59.7100
G01 X26.1698 Y59.7100
G01 X26.1698 Y59.9000
G01 X25.1875 Y59.9000
G00 Z1.5000
G00 X27.1702 Y59.9000
G01 F60.00
G01 Z-0.1149
G01 F100.00
G01 X29.1698 Y59.9000
G01 X29.1698 Y59.7100
G01 X27.1702 Y59.7100
G01 X27.1702 Y59.5200
G01 X29.1698 Y59.5200
G01 X29.1698 Y59.3300
G01 X27.1702 Y59.3300
G01 X27.1702 Y59.1400
G01 X29.1698 Y59.1400
G01 X29.1698 Y58.9500
G01 X27.1702 Y58.9500
G01 X27.1702 Y58.7600
G01 X29.1698 Y58.7600
G01 X29.1698 Y58.5700
G01 X27.1702 Y58.5700
G01 X27.1702 Y58.3800
G01 X29.1698 Y58.3800
G01 X29.1698 Y58.1900
G01 X27.1702 Y58.1900
G01 X27.1702 Y58.0000
G01 X29.1698 Y58.0000
G01 X29.1698 Y57.8100
G01 X27.1702 Y57.8100
G01 X27.1702 Y57.6200
G01 X29.1698 Y57.6200
G01 X29.1698 Y57.4300
G01 X27.1702 Y57.4300
G01 X27.1702 Y57.2400
G01 X29.1698 Y57.2400
G01 X29.1698 Y57.0500
G01 X27.1702 Y57.0500
G01 X27.2145 Y56.8600
G01 X27.6255 Y56.8600
G00 Z1.5000
G00 X27.6138 Y56.6700
G01 F60.00
G01 Z-0.1149
G01 F100.00
G01 X27.2262 Y56.6700
G01 X27.2262 Y56.4800
G01 X27.6138 Y56.4800
G01 X27.6138 Y56.2900
G01 X27.2262 Y56.2900
G01 X27.2262 Y56.1000
G01 X27.6138 Y56.1000
G00 Z1.5000
G00 X27.6289 Y55.9100
G01 F60.00
G01 Z-0.1149
G01 F100.00
G01 X27.2111 Y55.9100
G00 Z1.5000
G00 X28.6702 Y55.7200
G01 F60.00
G01 Z-0.1149
G01 F100.00
G01 X35.9000 Y55.7200
G01 X35.9000 Y55.5300
G01 X28.6702 Y55.5300
G01 X28.6702 Y55.3400
G01 X35.9000 Y55.3400
G01 X35.9000 Y55.1500
G01 X28.6985 Y55.1500
G00 Z1.5000
G00 X28.7622 Y54.9600
G01 F60.00
G01 Z-0.1149
G01 F100.00
G01 X35.9000 Y54.9600
G01 X35.9000 Y54.7700
G01 X28.7621 Y54.7700
G00 Z1.5000
G00 X28.7111 Y55.9100
G01 F60.00
G01 Z-0.1149
G01 F100.00
G01 X29.1289 Y55.9100
G00 Z1.5000
G00 X29.1138 Y56.1000
G01 F60.00
G01 Z-0.1149
G01 F100.00
G01 X28.7262 Y56.1000
G01 X28.7262 Y56.2900
G01 X29.1138 Y56.2900
G01 X29.1138 Y56.4800
G01 X28.7262 Y56.4800
G01 X28.7262 Y56.6700
G01 X29.1138 Y56.6700
G00 Z1.5000
G00 X29.1255 Y56.8600
G01 F60.00
G01 Z-0.1149
G01 F100.00
G01 X28.7145 Y56.8600
G00 Z1.5000
G00 X30.2111 Y55.9100
G01 F60.00
G01 Z-0.1149
G01 F100.00
G01 X30.6289 Y55.9100
G00 Z1.5000
G00 X30.6138 Y56.1000
G01 F60.00
G01 Z-0.1149
G01 F100.00
G01 X30.2262 Y56.1000
G01 X30.2262 Y56.2900
G01 X30.6138 Y56.2900
G01 X30.6138 Y56.4800
G01 X30.2262 Y56.4800
G01 X30.2262 Y56.6700
G01 X30.6138 Y56.6700
G00 Z1.5000
G00 X30.6255 Y56.8600
G01 F60.00
G01 Z-0.1149
G01 F100.00
G01 X30.2145 Y56.8600
G01 X30.1702 Y57.0500
G01 X30.6698 Y57.0500
G01 X30.6698 Y57.2400
G01 X30.1702 Y57.2400
G01 X30.1702 Y57.4300
G01 X30.6698 Y57.4300
G01 X30.6698 Y57.6200
G01 X30.1702 Y57.6200
G01 X30.1702 Y57.8100
G01 X30.6698 Y57.8100
G01 X30.6698 Y58.0000
G01 X30.1702 Y58.0000
G01 X30.1702 Y58.1900
G01 X30.6698 Y58.1900
G01 X30.6698 Y58.3800
G01 X30.1702 Y58.3800
G01 X30.1702 Y58.5700
G01 X30.6698 Y58.5700
G01 X30.6698 Y58.7600
G01 X30.1702 Y58.7600
G01 X30.1702 Y58.9500
G01 X30.6698 Y58.9500
G01 X30.6698 Y59.1400
G01 X30.1702 Y59.1400
G01 X30.1702 Y59.3300
G01 X30.6698 Y59.3300
G01 X30.6698 Y59.5200
G01 X30.1702 Y59.5200
G01 X30.1702 Y59.7100
G01 X30.6698 Y59.7100
G01 X30.6698 Y59.9000
G01 X30.1702 Y59.9000
G00 Z1.5000
G00 X31.6702 Y59.9000
G01 F60.00
G01 Z-0.1149
G01 F100.00
G01 X35.9000 Y59.9000
G01 X35.9000 Y59.7100
G01 X31.6702 Y59.7100
G01 X31.6702 Y59.5200
G01 X35.9000 Y59.5200
G01 X35.9000 Y59.3300
G01 X31.6702 Y59.3300
G01 X31.6702 Y59.1400
G01 X35.9000 Y59.1400
G01 X35.9000 Y58.9500
G01 X31.6702 Y58.9500
G01 X31.6702 Y58.7600
G01 X35.9000 Y58.7600
G01 X35.9000 Y58.5700
G01 X31.6702 Y58.5700
G01 X31.6702 Y58.3800
G01 X35.9000 Y58.3800
G01 X35.9000 Y58.1900
G01 X31.6702 Y58.1900
G01 X31.6702 Y58.0000
G01 X35.9000 Y58.0000
G01 X35.9000 Y57.8100
G01 X31.6702 Y57.8100
G01 X31.6702 Y57.6200
G01 X35.9000 Y57.6200
G01 X35.9000 Y57.4300
G01 X31.6702 Y57.4300
G01 X31.6702 Y57.2400
G01 X35.9000 Y57.2400
G01 X35.9000 Y57.0500
G01 X31.6702 Y57.0500
G01 X31.7145 Y56.8600
G01 X32.1255 Y56.8600
G00 Z1.5000
G00 X32.1138 Y56.6700
G01 F60.00
G01 Z-0.1149
G01 F100.00
G01 X31.7262 Y56.6700
G01 X31.7262 Y56.4800
G01 X32.1138 Y56.4800
G01 X32.1138 Y56.2900
G01 X31.7262 Y56.2900
G01 X31.7262 Y56.1000
G01 X32.1138 Y56.1000
G00 Z1.5000
G00 X32.1289 Y55.9100
G01 F60.00
G01 Z-0.1149
G01 F100.00
G01 X31.7111 Y55.9100
G01 X30.9393 Y54.3900
G01 X35.9000 Y54.3900
G01 X35.9000 Y54.2000
G01 X31.1293 Y54.2000
G00 Z1.5000
G00 X30.6340 Y54.5800
G01 F60.00
G01 Z-0.1149
G01 F100.00
G01 X35.9000 Y54.5800
G00 Z1.5000
M05
G00 Z1.5000
G00 Z15.00

