(G-CODE GENERATED BY FLATCAM v8.993 - www.flatcam.org - Version Date: 2020/08/01)

(Name: Wasserhahn-B_Cu.gbl_iso2_cnc)
(Type: G-code from Geometry)
(Units: MM)

(Created on Sonntag, 17 Mai 2020 at 10:57)

(This preprocessor is the default preprocessor used by FlatCAM.)
(It is made to work with MACH3 compatible motion controllers.)

(TOOL DIAMETER: 0.1348 mm)
(Feedrate_XY: 120.0 mm/min)
(Feedrate_Z: 60.0 mm/min)
(Feedrate rapids 1500.0 mm/min)

(Z_Cut: -2.4 mm)
(Z_Move: 2.0 mm)
(Z Start: None mm)
(Z End: 15.0 mm)
(Steps per circle: 64)
(Preprocessor Geometry: default)

(X range:  -75.9107 ...   -7.2963  mm)
(Y range:    0.9874 ...   76.5791  mm)

(Spindle Speed: None RPM)
G21
G90
G94



G01 F120.00
G00 Z2.0000

M03
G00 X-12.6504 Y24.7096
G01 F60.00
G01 Z-2.4000
G01 F120.00
G01 X-12.6544 Y24.7252
G01 X-12.6589 Y24.7383
G01 X-12.6644 Y24.7511
G01 X-12.6731 Y24.7674
G01 X-12.6834 Y24.7828
G01 X-12.6921 Y24.7937
G01 X-12.7016 Y24.8038
G01 X-12.7117 Y24.8133
G01 X-12.7226 Y24.8220
G01 X-12.7380 Y24.8323
G01 X-12.7501 Y24.8390
G01 X-12.7628 Y24.8448
G01 X-12.7758 Y24.8496
G01 X-12.7937 Y24.8545
G01 X-12.8119 Y24.8577
G01 X-12.8257 Y24.8589
G01 X-14.8396 Y24.8591
G01 X-14.8535 Y24.8582
G01 X-14.8718 Y24.8555
G01 X-14.8898 Y24.8510
G01 X-14.9072 Y24.8448
G01 X-14.9240 Y24.8368
G01 X-14.9398 Y24.8273
G01 X-14.9547 Y24.8163
G01 X-14.9684 Y24.8038
G01 X-14.9809 Y24.7901
G01 X-14.9919 Y24.7752
G01 X-15.0014 Y24.7594
G01 X-15.0075 Y24.7469
G01 X-15.0142 Y24.7296
G01 X-15.0191 Y24.7117
G01 X-15.0223 Y24.6935
G01 X-15.0237 Y24.6750
G01 X-15.0237 Y23.5352
G01 X-15.0242 Y23.5204
G01 X-15.0237 Y23.5056
G01 X-15.0237 Y22.3704
G01 X-15.0228 Y22.3519
G01 X-15.0201 Y22.3336
G01 X-15.0169 Y22.3201
G01 X-15.0111 Y22.3025
G01 X-15.0036 Y22.2855
G01 X-14.9969 Y22.2734
G01 X-14.9866 Y22.2580
G01 X-14.9779 Y22.2471
G01 X-14.9684 Y22.2370
G01 X-14.9583 Y22.2275
G01 X-14.9474 Y22.2188
G01 X-14.9320 Y22.2085
G01 X-14.9199 Y22.2018
G01 X-14.9072 Y22.1960
G01 X-14.8942 Y22.1912
G01 X-14.8809 Y22.1873
G01 X-14.8627 Y22.1837
G01 X-14.8489 Y22.1822
G01 X-14.8350 Y22.1817
G01 X-12.9281 Y22.1817
G01 X-11.8492 Y21.1028
G01 X-11.8492 Y11.6741
G01 X-11.9600 Y11.6741
G01 X-11.9739 Y11.6736
G01 X-11.9831 Y11.6727
G01 X-12.0013 Y11.6695
G01 X-12.0192 Y11.6646
G01 X-12.0365 Y11.6579
G01 X-12.0530 Y11.6496
G01 X-12.0648 Y11.6423
G01 X-12.0724 Y11.6370
G01 X-12.0833 Y11.6283
G01 X-12.0901 Y11.6221
G01 X-12.0998 Y11.6121
G01 X-12.1059 Y11.6051
G01 X-12.1143 Y11.5941
G01 X-12.1194 Y11.5864
G01 X-12.1242 Y11.5784
G01 X-12.1306 Y11.5661
G01 X-12.1361 Y11.5533
G01 X-12.1392 Y11.5446
G01 X-12.1431 Y11.5313
G01 X-12.1451 Y11.5222
G01 X-12.1478 Y11.5039
G01 X-12.1487 Y11.4854
G01 X-12.1487 Y8.8854
G01 X-12.1478 Y8.8669
G01 X-12.1451 Y8.8486
G01 X-12.1406 Y8.8306
G01 X-12.1344 Y8.8132
G01 X-12.1286 Y8.8005
G01 X-12.1219 Y8.7884
G01 X-12.1143 Y8.7767
G01 X-12.1059 Y8.7657
G01 X-12.0967 Y8.7553
G01 X-12.0867 Y8.7456
G01 X-12.0797 Y8.7395
G01 X-12.0687 Y8.7311
G01 X-12.0570 Y8.7235
G01 X-12.0449 Y8.7168
G01 X-12.0322 Y8.7110
G01 X-12.0192 Y8.7062
G01 X-12.0103 Y8.7035
G01 X-11.9968 Y8.7003
G01 X-11.9831 Y8.6981
G01 X-11.9693 Y8.6969
G01 X-9.3600 Y8.6967
G01 X-9.3415 Y8.6976
G01 X-9.3232 Y8.7003
G01 X-9.3052 Y8.7048
G01 X-9.2921 Y8.7093
G01 X-9.2793 Y8.7148
G01 X-9.2630 Y8.7235
G01 X-9.2513 Y8.7311
G01 X-9.2403 Y8.7395
G01 X-9.2299 Y8.7487
G01 X-9.2171 Y8.7621
G01 X-9.2084 Y8.7730
G01 X-9.1981 Y8.7884
G01 X-9.1914 Y8.8005
G01 X-9.1856 Y8.8132
G01 X-9.1794 Y8.8306
G01 X-9.1759 Y8.8441
G01 X-9.1733 Y8.8577
G01 X-9.1715 Y8.8761
G01 X-9.1713 Y11.4900
G01 X-9.1718 Y11.4993
G01 X-9.1733 Y11.5131
G01 X-9.1759 Y11.5267
G01 X-9.1781 Y11.5357
G01 X-9.1823 Y11.5490
G01 X-9.1856 Y11.5576
G01 X-9.1894 Y11.5661
G01 X-9.1958 Y11.5784
G01 X-9.2031 Y11.5902
G01 X-9.2084 Y11.5978
G01 X-9.2171 Y11.6087
G01 X-9.2233 Y11.6155
G01 X-9.2333 Y11.6252
G01 X-9.2439 Y11.6342
G01 X-9.2552 Y11.6423
G01 X-9.2630 Y11.6473
G01 X-9.2751 Y11.6540
G01 X-9.2835 Y11.6579
G01 X-9.3008 Y11.6646
G01 X-9.3187 Y11.6695
G01 X-9.3369 Y11.6727
G01 X-9.3507 Y11.6739
G01 X-9.3600 Y11.6741
G01 X-9.4708 Y11.6741
G01 X-9.4708 Y21.5954
G01 X-9.4765 Y21.7120
G01 X-9.4936 Y21.8274
G01 X-9.5195 Y21.9317
G01 X-9.5249 Y21.9494
G01 X-9.5613 Y22.0505
G01 X-9.6070 Y22.1477
G01 X-9.6158 Y22.1641
G01 X-9.6712 Y22.2561
G01 X-9.7350 Y22.3425
G01 X-9.7468 Y22.3568
G01 X-9.8191 Y22.4363
G01 X-11.7508 Y24.3677
G01 X-11.8306 Y24.4397
G01 X-11.9243 Y24.5092
G01 X-12.0244 Y24.5692
G01 X-12.1214 Y24.6153
G01 X-12.1342 Y24.6208
G01 X-12.2398 Y24.6584
G01 X-12.3440 Y24.6847
G01 X-12.3575 Y24.6876
G01 X-12.4592 Y24.7028
G01 X-12.4731 Y24.7043
G01 X-12.5804 Y24.7096
G01 X-12.6504 Y24.7096
G00 Z2.0000
G00 X-20.0242 Y22.9069
G01 F60.00
G01 Z-2.4000
G01 F120.00
G01 X-20.0242 Y13.3604
G01 X-20.0185 Y13.2438
G01 X-20.0030 Y13.1375
G01 X-19.9993 Y13.1194
G01 X-19.9755 Y13.0241
G01 X-19.9716 Y13.0108
G01 X-19.9370 Y12.9139
G01 X-19.9299 Y12.8968
G01 X-19.8838 Y12.7998
G01 X-19.8288 Y12.7075
G01 X-19.8185 Y12.6921
G01 X-19.7543 Y12.6060
G01 X-19.6791 Y12.5228
G01 X-17.1324 Y9.9759
G01 X-17.1217 Y9.9041
G01 X-17.1192 Y9.8904
G01 X-17.0871 Y9.7622
G01 X-17.0832 Y9.7488
G01 X-17.0354 Y9.6157
G01 X-16.9771 Y9.4919
G01 X-16.9707 Y9.4796
G01 X-16.8978 Y9.3583
G01 X-16.8108 Y9.2410
G01 X-16.7127 Y9.1327
G01 X-16.6114 Y9.0407
G01 X-16.5971 Y9.0289
G01 X-16.4871 Y8.9476
G01 X-16.3698 Y8.8770
G01 X-16.3535 Y8.8683
G01 X-16.2297 Y8.8100
G01 X-16.1009 Y8.7637
G01 X-16.0832 Y8.7583
G01 X-15.9504 Y8.7253
G01 X-15.8151 Y8.7050
G01 X-15.7967 Y8.7032
G01 X-15.6600 Y8.6967
G01 X-15.5233 Y8.7032
G01 X-15.5049 Y8.7050
G01 X-15.3696 Y8.7253
G01 X-15.2368 Y8.7583
G01 X-15.2234 Y8.7622
G01 X-15.0903 Y8.8100
G01 X-14.9665 Y8.8683
G01 X-14.9502 Y8.8770
G01 X-14.8407 Y8.9426
G01 X-14.8253 Y8.9529
G01 X-14.7156 Y9.0346
G01 X-14.6140 Y9.1263
G01 X-14.6009 Y9.1394
G01 X-14.5092 Y9.2410
G01 X-14.4222 Y9.3583
G01 X-14.3471 Y9.4836
G01 X-14.2846 Y9.6157
G01 X-14.2354 Y9.7532
G01 X-14.1999 Y9.8950
G01 X-14.1784 Y10.0395
G01 X-14.1715 Y10.1761
G01 X-14.1715 Y10.1947
G01 X-14.1778 Y10.3221
G01 X-14.1796 Y10.3405
G01 X-14.1999 Y10.4758
G01 X-14.2329 Y10.6086
G01 X-14.2383 Y10.6263
G01 X-14.2846 Y10.7551
G01 X-14.3429 Y10.8789
G01 X-14.3516 Y10.8952
G01 X-14.4222 Y11.0125
G01 X-14.5035 Y11.1225
G01 X-14.5153 Y11.1368
G01 X-14.6073 Y11.2381
G01 X-14.7086 Y11.3301
G01 X-14.7229 Y11.3419
G01 X-14.8291 Y11.4206
G01 X-14.8407 Y11.4282
G01 X-14.9582 Y11.4983
G01 X-15.0818 Y11.5570
G01 X-15.0946 Y11.5625
G01 X-15.2191 Y11.6071
G01 X-15.2323 Y11.6113
G01 X-15.3650 Y11.6446
G01 X-15.3787 Y11.6471
G01 X-15.4505 Y11.6578
G01 X-17.6458 Y13.8530
G01 X-17.6458 Y22.9069
G01 X-17.5982 Y23.0081
G01 X-17.5568 Y23.1230
G01 X-17.5515 Y23.1407
G01 X-17.5240 Y23.2502
G01 X-17.5204 Y23.2684
G01 X-17.5027 Y23.3892
G01 X-17.4963 Y23.5204
G01 X-17.5027 Y23.6516
G01 X-17.5204 Y23.7724
G01 X-17.5240 Y23.7906
G01 X-17.5539 Y23.9090
G01 X-17.5949 Y24.0241
G01 X-17.6019 Y24.0412
G01 X-17.6544 Y24.1515
G01 X-17.7219 Y24.2642
G01 X-17.8002 Y24.3697
G01 X-17.8884 Y24.4670
G01 X-17.9857 Y24.5552
G01 X-18.0912 Y24.6335
G01 X-18.2039 Y24.7010
G01 X-18.3227 Y24.7572
G01 X-18.4464 Y24.8015
G01 X-18.5738 Y24.8334
G01 X-18.7038 Y24.8527
G01 X-18.8350 Y24.8591
G01 X-18.9662 Y24.8527
G01 X-19.0962 Y24.8334
G01 X-19.2236 Y24.8015
G01 X-19.3473 Y24.7572
G01 X-19.4661 Y24.7010
G01 X-19.5788 Y24.6335
G01 X-19.6843 Y24.5552
G01 X-19.7816 Y24.4670
G01 X-19.8698 Y24.3697
G01 X-19.9481 Y24.2642
G01 X-20.0156 Y24.1515
G01 X-20.0718 Y24.0327
G01 X-20.1161 Y23.9090
G01 X-20.1480 Y23.7816
G01 X-20.1673 Y23.6516
G01 X-20.1737 Y23.5204
G01 X-20.1673 Y23.3892
G01 X-20.1480 Y23.2592
G01 X-20.1161 Y23.1318
G01 X-20.0718 Y23.0081
G01 X-20.0242 Y22.9069
G00 Z2.0000
G00 X-47.3154 Y15.6490
G01 F60.00
G01 Z-2.4000
G01 F120.00
G01 X-47.3153 Y14.6766
G01 X-47.3121 Y14.6137
G01 X-47.3037 Y14.5559
G01 X-47.3001 Y14.5378
G01 X-47.2857 Y14.4812
G01 X-47.2629 Y14.4175
G01 X-47.2340 Y14.3564
G01 X-47.2042 Y14.3063
G01 X-47.1966 Y14.2946
G01 X-47.1590 Y14.2441
G01 X-47.1168 Y14.1973
G01 X-46.9090 Y13.9894
G01 X-46.9090 Y11.5964
G01 X-46.9545 Y11.5549
G01 X-47.0200 Y11.4829
G01 X-47.0286 Y11.4721
G01 X-47.0783 Y11.4051
G01 X-47.0862 Y11.3936
G01 X-47.1315 Y11.3181
G01 X-47.1402 Y11.3018
G01 X-47.1797 Y11.2179
G01 X-47.2126 Y11.1263
G01 X-47.2165 Y11.1130
G01 X-47.2367 Y11.0321
G01 X-47.2403 Y11.0139
G01 X-47.2537 Y10.9222
G01 X-47.2585 Y10.8297
G01 X-47.2585 Y10.8111
G01 X-47.2537 Y10.7186
G01 X-47.2403 Y10.6269
G01 X-47.2378 Y10.6132
G01 X-47.2140 Y10.5189
G01 X-47.1797 Y10.4229
G01 X-47.1361 Y10.3308
G01 X-47.0837 Y10.2433
G01 X-47.0229 Y10.1614
G01 X-46.9545 Y10.0859
G01 X-46.8790 Y10.0175
G01 X-46.7971 Y9.9567
G01 X-46.7096 Y9.9043
G01 X-46.6175 Y9.8607
G01 X-46.5215 Y9.8264
G01 X-46.4226 Y9.8016
G01 X-46.3218 Y9.7867
G01 X-46.2200 Y9.7817
G01 X-46.1182 Y9.7867
G01 X-46.0265 Y9.8001
G01 X-46.0128 Y9.8026
G01 X-45.9185 Y9.8264
G01 X-45.8225 Y9.8607
G01 X-45.7304 Y9.9043
G01 X-45.6507 Y9.9518
G01 X-45.6353 Y9.9621
G01 X-45.5683 Y10.0118
G01 X-45.5540 Y10.0235
G01 X-45.4855 Y10.0859
G01 X-45.4171 Y10.1614
G01 X-45.3563 Y10.2433
G01 X-45.3085 Y10.3227
G01 X-45.2998 Y10.3390
G01 X-45.2641 Y10.4144
G01 X-45.2570 Y10.4315
G01 X-45.2260 Y10.5189
G01 X-45.2012 Y10.6178
G01 X-45.1863 Y10.7186
G01 X-45.1813 Y10.8158
G01 X-45.1815 Y10.8297
G01 X-45.1863 Y10.9222
G01 X-45.2012 Y11.0230
G01 X-45.2260 Y11.1219
G01 X-45.2570 Y11.2093
G01 X-45.2622 Y11.2222
G01 X-45.3039 Y11.3100
G01 X-45.3514 Y11.3897
G01 X-45.3590 Y11.4013
G01 X-45.4114 Y11.4721
G01 X-45.4200 Y11.4829
G01 X-45.4855 Y11.5549
G01 X-45.5310 Y11.5964
G01 X-45.5310 Y14.2748
G01 X-45.5343 Y14.3423
G01 X-45.5443 Y14.4092
G01 X-45.5582 Y14.4659
G01 X-45.5636 Y14.4836
G01 X-45.5835 Y14.5385
G01 X-45.6082 Y14.5913
G01 X-45.6169 Y14.6076
G01 X-45.6446 Y14.6537
G01 X-45.6525 Y14.6651
G01 X-45.6874 Y14.7119
G01 X-45.7296 Y14.7587
G01 X-45.9374 Y14.9666
G01 X-45.9374 Y15.6178
G01 X-43.9395 Y15.6178
G01 X-43.8800 Y15.5967
G01 X-43.8144 Y15.5803
G01 X-43.7475 Y15.5703
G01 X-43.6893 Y15.5673
G01 X-43.6754 Y15.5671
G01 X-43.6125 Y15.5703
G01 X-43.5547 Y15.5787
G01 X-43.5366 Y15.5823
G01 X-43.4800 Y15.5967
G01 X-43.4163 Y15.6195
G01 X-43.3635 Y15.6442
G01 X-43.3472 Y15.6529
G01 X-43.3051 Y15.6782
G01 X-43.2934 Y15.6858
G01 X-43.2429 Y15.7234
G01 X-43.1928 Y15.7688
G01 X-43.1474 Y15.8189
G01 X-43.1071 Y15.8732
G01 X-43.0724 Y15.9312
G01 X-43.0435 Y15.9923
G01 X-43.0207 Y16.0560
G01 X-43.0063 Y16.1126
G01 X-43.0027 Y16.1307
G01 X-42.9943 Y16.1885
G01 X-42.9910 Y16.2560
G01 X-42.9910 Y17.7318
G01 X-42.9809 Y17.7413
G01 X-42.9714 Y17.7514
G01 X-37.9604 Y17.7515
G01 X-37.9067 Y17.7541
G01 X-37.8883 Y17.7559
G01 X-37.8306 Y17.7647
G01 X-37.7739 Y17.7786
G01 X-37.7562 Y17.7840
G01 X-37.7013 Y17.8039
G01 X-37.6485 Y17.8286
G01 X-37.6362 Y17.8350
G01 X-37.5822 Y17.8675
G01 X-37.5352 Y17.9021
G01 X-37.5209 Y17.9139
G01 X-37.4778 Y17.9532
G01 X-32.3978 Y23.0332
G01 X-32.3524 Y23.0833
G01 X-32.3148 Y23.1338
G01 X-32.3072 Y23.1455
G01 X-32.2819 Y23.1876
G01 X-32.2732 Y23.2039
G01 X-32.2485 Y23.2567
G01 X-32.2257 Y23.3204
G01 X-32.2113 Y23.3770
G01 X-32.2077 Y23.3951
G01 X-32.1993 Y23.4529
G01 X-32.1961 Y23.5158
G01 X-32.1960 Y27.7504
G01 X-32.1990 Y27.8133
G01 X-32.2011 Y27.8314
G01 X-32.1920 Y27.8362
G01 X-32.1802 Y27.8435
G01 X-32.1689 Y27.8516
G01 X-32.1583 Y27.8606
G01 X-32.1516 Y27.8670
G01 X-32.1421 Y27.8771
G01 X-32.1334 Y27.8880
G01 X-32.1256 Y27.8994
G01 X-32.1186 Y27.9114
G01 X-32.1125 Y27.9239
G01 X-32.1073 Y27.9368
G01 X-32.1031 Y27.9501
G01 X-32.1009 Y27.9591
G01 X-32.0983 Y27.9727
G01 X-32.0968 Y27.9865
G01 X-32.0963 Y28.0004
G01 X-32.0965 Y29.2097
G01 X-32.0983 Y29.2281
G01 X-32.1009 Y29.2417
G01 X-32.1044 Y29.2552
G01 X-32.1106 Y29.2726
G01 X-32.1186 Y29.2894
G01 X-32.1256 Y29.3014
G01 X-32.1362 Y29.3165
G01 X-32.1452 Y29.3271
G01 X-32.1583 Y29.3402
G01 X-32.1726 Y29.3520
G01 X-32.1880 Y29.3623
G01 X-32.2043 Y29.3710
G01 X-32.2214 Y29.3781
G01 X-32.2391 Y29.3835
G01 X-32.2573 Y29.3871
G01 X-32.2757 Y29.3889
G01 X-33.4850 Y29.3891
G01 X-33.4989 Y29.3886
G01 X-33.5127 Y29.3871
G01 X-33.5263 Y29.3845
G01 X-33.5353 Y29.3823
G01 X-33.5486 Y29.3781
G01 X-33.5615 Y29.3729
G01 X-33.5740 Y29.3668
G01 X-33.5820 Y29.3623
G01 X-33.5898 Y29.3573
G01 X-33.6011 Y29.3492
G01 X-33.6117 Y29.3402
G01 X-33.6217 Y29.3305
G01 X-33.6309 Y29.3201
G01 X-33.6366 Y29.3128
G01 X-33.6444 Y29.3014
G01 X-33.6514 Y29.2894
G01 X-40.0896 Y29.2893
G01 X-40.1525 Y29.2861
G01 X-40.2194 Y29.2761
G01 X-40.2850 Y29.2597
G01 X-40.3400 Y29.2403
G01 X-40.3571 Y29.2332
G01 X-40.4057 Y29.2102
G01 X-40.4178 Y29.2035
G01 X-40.4599 Y29.1782
G01 X-40.4753 Y29.1679
G01 X-40.5185 Y29.1359
G01 X-40.5291 Y29.1269
G01 X-40.5722 Y29.0876
G01 X-44.1672 Y25.4926
G01 X-44.2065 Y25.4495
G01 X-44.2183 Y25.4352
G01 X-44.2529 Y25.3882
G01 X-44.2831 Y25.3382
G01 X-44.2918 Y25.3219
G01 X-44.3165 Y25.2691
G01 X-44.3393 Y25.2054
G01 X-44.3557 Y25.1398
G01 X-44.3645 Y25.0821
G01 X-44.3660 Y25.0683
G01 X-44.3690 Y25.0054
G01 X-44.3690 Y24.2290
G01 X-44.3791 Y24.2195
G01 X-44.3855 Y24.2128
G01 X-44.4443 Y24.1476
G01 X-44.5021 Y24.0697
G01 X-44.5520 Y23.9865
G01 X-44.5935 Y23.8988
G01 X-44.6261 Y23.8074
G01 X-44.6497 Y23.7133
G01 X-44.6640 Y23.6173
G01 X-44.6687 Y23.5204
G01 X-44.6640 Y23.4235
G01 X-44.6513 Y23.3366
G01 X-44.6477 Y23.3185
G01 X-44.6261 Y23.2334
G01 X-44.5968 Y23.1507
G01 X-44.5897 Y23.1336
G01 X-44.5561 Y23.0626
G01 X-44.5474 Y23.0463
G01 X-44.5021 Y22.9711
G01 X-44.4443 Y22.8932
G01 X-44.3791 Y22.8213
G01 X-44.3143 Y22.7622
G01 X-44.3036 Y22.7532
G01 X-44.2293 Y22.6983
G01 X-44.1461 Y22.6484
G01 X-44.0584 Y22.6069
G01 X-43.9670 Y22.5743
G01 X-43.8729 Y22.5507
G01 X-43.7769 Y22.5364
G01 X-43.6800 Y22.5317
G01 X-43.5831 Y22.5364
G01 X-43.4871 Y22.5507
G01 X-43.3930 Y22.5743
G01 X-43.3016 Y22.6069
G01 X-43.2139 Y22.6484
G01 X-43.1307 Y22.6983
G01 X-43.0528 Y22.7561
G01 X-42.9809 Y22.8213
G01 X-42.9187 Y22.8896
G01 X-42.9100 Y22.9005
G01 X-42.8579 Y22.9711
G01 X-42.8080 Y23.0543
G01 X-42.7665 Y23.1420
G01 X-42.7368 Y23.2246
G01 X-42.7314 Y23.2423
G01 X-42.7123 Y23.3185
G01 X-42.7087 Y23.3366
G01 X-42.6960 Y23.4235
G01 X-42.6915 Y23.5111
G01 X-42.6915 Y23.5297
G01 X-42.6960 Y23.6173
G01 X-42.7103 Y23.7133
G01 X-42.7339 Y23.8074
G01 X-42.7665 Y23.8988
G01 X-42.8080 Y23.9865
G01 X-42.8579 Y24.0697
G01 X-42.9157 Y24.1476
G01 X-42.9745 Y24.2128
G01 X-42.9809 Y24.2195
G01 X-42.9910 Y24.2290
G01 X-42.9910 Y24.7200
G01 X-39.7996 Y27.9114
G01 X-33.6514 Y27.9114
G01 X-33.6419 Y27.8956
G01 X-33.6338 Y27.8843
G01 X-33.6248 Y27.8737
G01 X-33.6151 Y27.8637
G01 X-33.6047 Y27.8545
G01 X-33.5937 Y27.8461
G01 X-33.5820 Y27.8385
G01 X-33.5689 Y27.8314
G01 X-33.5710 Y27.8133
G01 X-33.5740 Y27.7504
G01 X-33.5740 Y23.8058
G01 X-38.2504 Y19.1294
G01 X-42.9714 Y19.1294
G01 X-42.9809 Y19.1395
G01 X-42.9876 Y19.1459
G01 X-43.0457 Y19.1986
G01 X-43.0601 Y19.2104
G01 X-43.1307 Y19.2625
G01 X-43.2139 Y19.3124
G01 X-43.2932 Y19.3501
G01 X-43.3103 Y19.3572
G01 X-43.3930 Y19.3865
G01 X-43.4871 Y19.4101
G01 X-43.5739 Y19.4232
G01 X-43.5923 Y19.4250
G01 X-43.6800 Y19.4291
G01 X-43.7769 Y19.4244
G01 X-43.8638 Y19.4117
G01 X-43.8819 Y19.4081
G01 X-43.9670 Y19.3865
G01 X-44.0541 Y19.3556
G01 X-44.0668 Y19.3501
G01 X-44.1378 Y19.3165
G01 X-44.1541 Y19.3078
G01 X-44.2293 Y19.2625
G01 X-44.2999 Y19.2104
G01 X-44.3143 Y19.1986
G01 X-44.3791 Y19.1395
G01 X-44.4382 Y19.0747
G01 X-44.4500 Y19.0603
G01 X-44.5021 Y18.9897
G01 X-44.5474 Y18.9145
G01 X-44.5561 Y18.8982
G01 X-44.5935 Y18.8188
G01 X-44.6232 Y18.7362
G01 X-44.6286 Y18.7185
G01 X-44.6497 Y18.6333
G01 X-44.6634 Y18.5419
G01 X-44.6646 Y18.5281
G01 X-44.6687 Y18.4404
G01 X-44.6646 Y18.3527
G01 X-44.6628 Y18.3343
G01 X-44.6513 Y18.2566
G01 X-44.6477 Y18.2385
G01 X-44.6261 Y18.1534
G01 X-44.5968 Y18.0707
G01 X-44.5897 Y18.0536
G01 X-44.5520 Y17.9743
G01 X-44.5021 Y17.8911
G01 X-44.4443 Y17.8132
G01 X-44.3855 Y17.7480
G01 X-44.3791 Y17.7413
G01 X-44.3690 Y17.7318
G01 X-44.3690 Y16.9958
G01 X-45.8717 Y16.9958
G01 X-45.9273 Y17.0567
G01 X-45.9992 Y17.1219
G01 X-46.0771 Y17.1797
G01 X-46.1523 Y17.2250
G01 X-46.1686 Y17.2337
G01 X-46.2396 Y17.2673
G01 X-46.2567 Y17.2744
G01 X-46.3394 Y17.3037
G01 X-46.4245 Y17.3253
G01 X-46.4426 Y17.3289
G01 X-46.5203 Y17.3404
G01 X-46.5387 Y17.3422
G01 X-46.6264 Y17.3463
G01 X-46.7233 Y17.3416
G01 X-46.8193 Y17.3273
G01 X-46.9045 Y17.3062
G01 X-46.9222 Y17.3008
G01 X-46.9961 Y17.2744
G01 X-47.0090 Y17.2692
G01 X-47.0842 Y17.2337
G01 X-47.1005 Y17.2250
G01 X-47.1757 Y17.1797
G01 X-47.2463 Y17.1276
G01 X-47.2607 Y17.1158
G01 X-47.3255 Y17.0567
G01 X-47.3907 Y16.9848
G01 X-47.4485 Y16.9069
G01 X-47.4938 Y16.8317
G01 X-47.5025 Y16.8154
G01 X-47.5399 Y16.7360
G01 X-47.5696 Y16.6534
G01 X-47.5750 Y16.6357
G01 X-47.5961 Y16.5505
G01 X-47.6104 Y16.4545
G01 X-47.6149 Y16.3669
G01 X-47.6149 Y16.3483
G01 X-47.6104 Y16.2607
G01 X-47.5977 Y16.1738
G01 X-47.5941 Y16.1557
G01 X-47.5725 Y16.0706
G01 X-47.5432 Y15.9879
G01 X-47.5361 Y15.9708
G01 X-47.4984 Y15.8915
G01 X-47.4534 Y15.8161
G01 X-47.4432 Y15.8007
G01 X-47.3907 Y15.7304
G01 X-47.3319 Y15.6652
G01 X-47.3255 Y15.6585
G01 X-47.3154 Y15.6490
G00 Z2.0000
G00 X-54.5486 Y17.7514
G01 F60.00
G01 Z-2.4000
G01 F120.00
G01 X-54.5391 Y17.7413
G01 X-54.5324 Y17.7349
G01 X-54.4672 Y17.6761
G01 X-54.3893 Y17.6183
G01 X-54.3061 Y17.5684
G01 X-54.2184 Y17.5269
G01 X-54.1270 Y17.4943
G01 X-54.0329 Y17.4707
G01 X-53.9369 Y17.4564
G01 X-53.8400 Y17.4517
G01 X-53.7431 Y17.4564
G01 X-53.6471 Y17.4707
G01 X-53.5530 Y17.4943
G01 X-53.4616 Y17.5269
G01 X-53.3739 Y17.5684
G01 X-53.2907 Y17.6183
G01 X-53.2128 Y17.6761
G01 X-53.1409 Y17.7413
G01 X-53.0757 Y17.8132
G01 X-53.0179 Y17.8911
G01 X-52.9680 Y17.9743
G01 X-52.9265 Y18.0620
G01 X-52.8939 Y18.1534
G01 X-52.8703 Y18.2475
G01 X-52.8560 Y18.3435
G01 X-52.8513 Y18.4404
G01 X-52.8560 Y18.5373
G01 X-52.8703 Y18.6333
G01 X-52.8939 Y18.7274
G01 X-52.9265 Y18.8188
G01 X-52.9680 Y18.9065
G01 X-53.0179 Y18.9897
G01 X-53.0757 Y19.0676
G01 X-53.1409 Y19.1395
G01 X-53.2128 Y19.2047
G01 X-53.2907 Y19.2625
G01 X-53.3739 Y19.3124
G01 X-53.4616 Y19.3539
G01 X-53.5530 Y19.3865
G01 X-53.6471 Y19.4101
G01 X-53.7431 Y19.4244
G01 X-53.8400 Y19.4291
G01 X-53.9369 Y19.4244
G01 X-54.0329 Y19.4101
G01 X-54.1270 Y19.3865
G01 X-54.2184 Y19.3539
G01 X-54.3061 Y19.3124
G01 X-54.3893 Y19.2625
G01 X-54.4672 Y19.2047
G01 X-54.5324 Y19.1459
G01 X-54.5391 Y19.1395
G01 X-54.5486 Y19.1294
G01 X-58.7390 Y19.1294
G01 X-58.7393 Y26.5777
G01 X-58.7420 Y26.6313
G01 X-58.7435 Y26.6451
G01 X-58.7523 Y26.7028
G01 X-58.7662 Y26.7595
G01 X-58.7716 Y26.7772
G01 X-58.7915 Y26.8321
G01 X-58.8204 Y26.8932
G01 X-58.8551 Y26.9512
G01 X-58.8897 Y26.9982
G01 X-58.9015 Y27.0125
G01 X-58.9408 Y27.0556
G01 X-58.9839 Y27.0949
G01 X-58.9982 Y27.1067
G01 X-59.0452 Y27.1413
G01 X-59.1032 Y27.1760
G01 X-59.1559 Y27.2012
G01 X-59.1730 Y27.2083
G01 X-59.2280 Y27.2277
G01 X-59.2936 Y27.2441
G01 X-59.3513 Y27.2529
G01 X-59.3697 Y27.2547
G01 X-59.4280 Y27.2574
G01 X-69.0486 Y27.2574
G01 X-69.4070 Y27.6158
G01 X-69.4070 Y66.9258
G01 X-51.4330 Y66.9258
G01 X-50.6682 Y66.1610
G01 X-50.6682 Y64.4458
G01 X-50.8742 Y64.2398
G01 X-51.1522 Y64.2397
G01 X-51.2151 Y64.2365
G01 X-51.2729 Y64.2281
G01 X-51.2865 Y64.2256
G01 X-51.3387 Y64.2126
G01 X-51.3564 Y64.2072
G01 X-51.4113 Y64.1873
G01 X-51.4641 Y64.1626
G01 X-51.4804 Y64.1539
G01 X-51.5304 Y64.1237
G01 X-51.5774 Y64.0891
G01 X-51.5882 Y64.0804
G01 X-51.6348 Y64.0380
G01 X-52.6000 Y63.0728
G01 X-52.6424 Y63.0262
G01 X-52.6511 Y63.0154
G01 X-52.6803 Y62.9759
G01 X-52.6906 Y62.9605
G01 X-52.7204 Y62.9104
G01 X-52.7493 Y62.8493
G01 X-52.7721 Y62.7856
G01 X-52.7865 Y62.7290
G01 X-52.7894 Y62.7155
G01 X-52.7973 Y62.6623
G01 X-52.7991 Y62.6439
G01 X-52.8018 Y62.5856
G01 X-52.8018 Y59.5884
G01 X-52.7991 Y59.5301
G01 X-52.7979 Y59.5163
G01 X-52.7885 Y59.4540
G01 X-52.7746 Y59.3973
G01 X-52.7692 Y59.3796
G01 X-52.7493 Y59.3247
G01 X-52.7246 Y59.2719
G01 X-52.7159 Y59.2556
G01 X-52.6857 Y59.2056
G01 X-52.6511 Y59.1586
G01 X-52.6393 Y59.1443
G01 X-52.6000 Y59.1012
G01 X-52.1429 Y58.6442
G01 X-52.1429 Y56.9181
G01 X-52.1481 Y56.9099
G01 X-52.1548 Y56.8978
G01 X-52.1606 Y56.8851
G01 X-52.1654 Y56.8721
G01 X-52.1693 Y56.8588
G01 X-52.1722 Y56.8452
G01 X-52.1741 Y56.8314
G01 X-52.1749 Y56.8175
G01 X-52.1747 Y55.9536
G01 X-52.1736 Y55.9398
G01 X-52.1704 Y55.9216
G01 X-52.1654 Y55.9037
G01 X-52.1588 Y55.8864
G01 X-52.1505 Y55.8699
G01 X-52.1405 Y55.8542
G01 X-52.1292 Y55.8396
G01 X-52.1197 Y55.8295
G01 X-52.1060 Y55.8170
G01 X-52.0911 Y55.8060
G01 X-52.0752 Y55.7965
G01 X-52.0627 Y55.7904
G01 X-52.0454 Y55.7837
G01 X-52.0276 Y55.7788
G01 X-52.0094 Y55.7756
G01 X-51.9909 Y55.7742
G01 X-51.0738 Y55.7742
G01 X-51.0599 Y55.7747
G01 X-51.0506 Y55.7756
G01 X-51.0369 Y55.7778
G01 X-51.0234 Y55.7810
G01 X-51.0102 Y55.7852
G01 X-50.9973 Y55.7904
G01 X-50.9848 Y55.7965
G01 X-50.9728 Y55.8035
G01 X-50.9613 Y55.8113
G01 X-50.9505 Y55.8200
G01 X-50.9403 Y55.8295
G01 X-50.9308 Y55.8396
G01 X-50.9222 Y55.8505
G01 X-50.9143 Y55.8619
G01 X-50.9073 Y55.8739
G01 X-50.8994 Y55.8907
G01 X-50.8946 Y55.9037
G01 X-50.8907 Y55.9170
G01 X-50.8887 Y55.9261
G01 X-50.8864 Y55.9398
G01 X-50.8855 Y55.9490
G01 X-50.8850 Y55.9629
G01 X-50.8850 Y56.8129
G01 X-50.8855 Y56.8268
G01 X-50.8864 Y56.8360
G01 X-50.8887 Y56.8497
G01 X-50.8932 Y56.8677
G01 X-50.8994 Y56.8851
G01 X-50.9052 Y56.8978
G01 X-50.9095 Y56.9059
G01 X-50.9195 Y56.9216
G01 X-50.9250 Y56.9290
G01 X-50.9339 Y56.9396
G01 X-50.9470 Y56.9527
G01 X-50.9540 Y56.9588
G01 X-50.9651 Y56.9672
G01 X-50.9651 Y58.6732
G01 X-50.9486 Y58.7008
G01 X-50.9442 Y58.7089
G01 X-50.9212 Y58.7575
G01 X-50.9158 Y58.7702
G01 X-50.8947 Y58.8296
G01 X-50.8792 Y58.8907
G01 X-50.8767 Y58.9043
G01 X-50.8695 Y58.9529
G01 X-50.8677 Y58.9713
G01 X-50.8650 Y59.0296
G01 X-50.8680 Y59.0925
G01 X-50.8695 Y59.1063
G01 X-50.8783 Y59.1640
G01 X-50.8922 Y59.2207
G01 X-50.8976 Y59.2384
G01 X-50.9175 Y59.2933
G01 X-50.9422 Y59.3461
G01 X-50.9509 Y59.3624
G01 X-50.9762 Y59.4045
G01 X-50.9838 Y59.4162
G01 X-51.0214 Y59.4667
G01 X-51.0636 Y59.5135
G01 X-51.4238 Y59.8738
G01 X-51.4238 Y62.3002
G01 X-50.8622 Y62.8618
G01 X-50.5842 Y62.8619
G01 X-50.5213 Y62.8651
G01 X-50.4635 Y62.8735
G01 X-50.4499 Y62.8760
G01 X-50.3888 Y62.8915
G01 X-50.3338 Y62.9109
G01 X-50.3167 Y62.9180
G01 X-50.2681 Y62.9410
G01 X-50.2600 Y62.9454
G01 X-50.2433 Y62.9553
G01 X-50.2060 Y62.9779
G01 X-50.1590 Y63.0125
G01 X-50.1447 Y63.0243
G01 X-50.1016 Y63.0636
G01 X-49.4888 Y63.6765
G01 X-49.4466 Y63.7233
G01 X-49.4117 Y63.7701
G01 X-49.4038 Y63.7815
G01 X-49.3761 Y63.8276
G01 X-49.3674 Y63.8439
G01 X-49.3445 Y63.8925
G01 X-49.3393 Y63.9054
G01 X-49.3199 Y63.9604
G01 X-49.3055 Y64.0170
G01 X-49.3019 Y64.0351
G01 X-49.2935 Y64.0929
G01 X-49.2903 Y64.1558
G01 X-49.2902 Y66.4464
G01 X-49.2929 Y66.5047
G01 X-49.2947 Y66.5231
G01 X-49.3035 Y66.5808
G01 X-49.3199 Y66.6464
G01 X-49.3427 Y66.7101
G01 X-49.3674 Y66.7629
G01 X-49.3761 Y66.7792
G01 X-49.4063 Y66.8292
G01 X-49.4409 Y66.8762
G01 X-49.4496 Y66.8870
G01 X-49.4856 Y66.9269
G01 X-50.6637 Y68.1052
G01 X-50.7105 Y68.1474
G01 X-50.7648 Y68.1877
G01 X-50.8228 Y68.2224
G01 X-50.8755 Y68.2476
G01 X-50.8882 Y68.2530
G01 X-50.9388 Y68.2712
G01 X-50.9565 Y68.2766
G01 X-51.0132 Y68.2905
G01 X-51.0709 Y68.2993
G01 X-51.0847 Y68.3008
G01 X-51.1476 Y68.3038
G01 X-70.0960 Y68.3038
G01 X-70.1543 Y68.3011
G01 X-70.1727 Y68.2993
G01 X-70.2304 Y68.2905
G01 X-70.2960 Y68.2741
G01 X-70.3597 Y68.2513
G01 X-70.4125 Y68.2266
G01 X-70.4288 Y68.2179
G01 X-70.4749 Y68.1902
G01 X-70.4863 Y68.1823
G01 X-70.5331 Y68.1474
G01 X-70.5832 Y68.1020
G01 X-70.6286 Y68.0519
G01 X-70.6635 Y68.0051
G01 X-70.6714 Y67.9937
G01 X-70.6991 Y67.9476
G01 X-70.7078 Y67.9313
G01 X-70.7325 Y67.8785
G01 X-70.7553 Y67.8148
G01 X-70.7717 Y67.7492
G01 X-70.7805 Y67.6915
G01 X-70.7823 Y67.6731
G01 X-70.7850 Y67.6148
G01 X-70.7850 Y27.3304
G01 X-70.7823 Y27.2721
G01 X-70.7805 Y27.2537
G01 X-70.7717 Y27.1960
G01 X-70.7553 Y27.1304
G01 X-70.7325 Y27.0667
G01 X-70.7036 Y27.0056
G01 X-70.6689 Y26.9476
G01 X-70.6343 Y26.9006
G01 X-70.6225 Y26.8863
G01 X-70.5832 Y26.8432
G01 X-69.8145 Y26.0748
G01 X-69.7711 Y26.0358
G01 X-69.7168 Y25.9955
G01 X-69.6588 Y25.9608
G01 X-69.6061 Y25.9356
G01 X-69.5890 Y25.9285
G01 X-69.5384 Y25.9105
G01 X-69.5251 Y25.9066
G01 X-69.4684 Y25.8927
G01 X-69.4061 Y25.8833
G01 X-69.3923 Y25.8821
G01 X-69.3340 Y25.8794
G01 X-60.1170 Y25.8794
G01 X-60.1169 Y18.4358
G01 X-60.1137 Y18.3729
G01 X-60.1053 Y18.3151
G01 X-60.1017 Y18.2970
G01 X-60.0873 Y18.2404
G01 X-60.0679 Y18.1854
G01 X-60.0608 Y18.1683
G01 X-60.0356 Y18.1156
G01 X-60.0009 Y18.0576
G01 X-59.9606 Y18.0033
G01 X-59.9216 Y17.9599
G01 X-59.9085 Y17.9468
G01 X-59.8686 Y17.9108
G01 X-59.8578 Y17.9021
G01 X-59.8108 Y17.8675
G01 X-59.7608 Y17.8373
G01 X-59.7445 Y17.8286
G01 X-59.6917 Y17.8039
G01 X-59.6280 Y17.7811
G01 X-59.5624 Y17.7647
G01 X-59.5047 Y17.7559
G01 X-59.4863 Y17.7541
G01 X-59.4280 Y17.7514
G01 X-54.5486 Y17.7514
G00 Z2.0000
G00 X-62.1490 Y12.6518
G01 F60.00
G01 Z-2.4000
G01 F120.00
G01 X-62.1490 Y8.2804
G01 X-62.1457 Y8.2129
G01 X-62.1357 Y8.1460
G01 X-62.1218 Y8.0893
G01 X-62.1164 Y8.0716
G01 X-62.0965 Y8.0167
G01 X-62.0718 Y7.9639
G01 X-62.0631 Y7.9476
G01 X-62.0329 Y7.8976
G01 X-61.9926 Y7.8433
G01 X-61.9536 Y7.7999
G01 X-61.9405 Y7.7868
G01 X-61.8971 Y7.7478
G01 X-61.8428 Y7.7075
G01 X-61.7928 Y7.6773
G01 X-61.7765 Y7.6686
G01 X-61.7237 Y7.6439
G01 X-61.6644 Y7.6225
G01 X-61.6511 Y7.6186
G01 X-61.6034 Y7.6067
G01 X-61.5853 Y7.6031
G01 X-61.5275 Y7.5947
G01 X-61.4600 Y7.5914
G01 X-47.2587 Y7.5914
G01 X-47.2587 Y7.4304
G01 X-47.2582 Y7.4165
G01 X-47.2567 Y7.4027
G01 X-47.2531 Y7.3845
G01 X-47.2492 Y7.3712
G01 X-47.2425 Y7.3539
G01 X-47.2386 Y7.3455
G01 X-47.2319 Y7.3334
G01 X-47.2269 Y7.3256
G01 X-47.2188 Y7.3143
G01 X-47.2129 Y7.3071
G01 X-47.2034 Y7.2970
G01 X-47.1933 Y7.2875
G01 X-47.1861 Y7.2816
G01 X-47.1787 Y7.2761
G01 X-47.1670 Y7.2685
G01 X-47.1549 Y7.2618
G01 X-47.1465 Y7.2579
G01 X-47.1379 Y7.2543
G01 X-47.1248 Y7.2498
G01 X-47.1113 Y7.2463
G01 X-47.1023 Y7.2445
G01 X-47.0839 Y7.2422
G01 X-47.0700 Y7.2417
G01 X-45.3700 Y7.2417
G01 X-45.3607 Y7.2419
G01 X-45.3469 Y7.2431
G01 X-45.3287 Y7.2463
G01 X-45.3152 Y7.2498
G01 X-45.3064 Y7.2527
G01 X-45.2935 Y7.2579
G01 X-45.2851 Y7.2618
G01 X-45.2730 Y7.2685
G01 X-45.2613 Y7.2761
G01 X-45.2539 Y7.2816
G01 X-45.2433 Y7.2906
G01 X-45.2333 Y7.3003
G01 X-45.2241 Y7.3107
G01 X-45.2157 Y7.3217
G01 X-45.2081 Y7.3334
G01 X-45.2014 Y7.3455
G01 X-45.1975 Y7.3539
G01 X-45.1923 Y7.3668
G01 X-45.1881 Y7.3801
G01 X-45.1859 Y7.3891
G01 X-45.1833 Y7.4027
G01 X-45.1818 Y7.4165
G01 X-45.1813 Y7.4304
G01 X-45.1815 Y9.1397
G01 X-45.1822 Y9.1489
G01 X-45.1841 Y9.1627
G01 X-45.1859 Y9.1717
G01 X-45.1894 Y9.1852
G01 X-45.1923 Y9.1940
G01 X-45.1975 Y9.2069
G01 X-45.2014 Y9.2153
G01 X-45.2081 Y9.2274
G01 X-45.2131 Y9.2352
G01 X-45.2212 Y9.2465
G01 X-45.2302 Y9.2571
G01 X-45.2366 Y9.2638
G01 X-45.2467 Y9.2733
G01 X-45.2539 Y9.2792
G01 X-45.2652 Y9.2873
G01 X-45.2730 Y9.2923
G01 X-45.2810 Y9.2968
G01 X-45.2935 Y9.3029
G01 X-45.3064 Y9.3081
G01 X-45.3152 Y9.3110
G01 X-45.3287 Y9.3145
G01 X-45.3423 Y9.3171
G01 X-45.3561 Y9.3186
G01 X-45.3654 Y9.3191
G01 X-47.0700 Y9.3191
G01 X-47.0793 Y9.3189
G01 X-47.0931 Y9.3177
G01 X-47.1068 Y9.3155
G01 X-47.1203 Y9.3123
G01 X-47.1292 Y9.3096
G01 X-47.1422 Y9.3048
G01 X-47.1549 Y9.2990
G01 X-47.1630 Y9.2946
G01 X-47.1748 Y9.2873
G01 X-47.1824 Y9.2820
G01 X-47.1897 Y9.2763
G01 X-47.2001 Y9.2671
G01 X-47.2098 Y9.2571
G01 X-47.2159 Y9.2501
G01 X-47.2216 Y9.2428
G01 X-47.2294 Y9.2314
G01 X-47.2364 Y9.2194
G01 X-47.2406 Y9.2111
G01 X-47.2477 Y9.1940
G01 X-47.2531 Y9.1763
G01 X-47.2567 Y9.1581
G01 X-47.2582 Y9.1443
G01 X-47.2587 Y9.1304
G01 X-47.2587 Y8.9694
G01 X-48.0710 Y8.9694
G01 X-48.0710 Y16.8850
G01 X-44.6646 Y20.2914
G01 X-41.7657 Y20.2917
G01 X-41.7075 Y20.2947
G01 X-41.6406 Y20.3047
G01 X-41.5750 Y20.3211
G01 X-41.5200 Y20.3405
G01 X-41.5029 Y20.3476
G01 X-41.4543 Y20.3706
G01 X-41.4422 Y20.3773
G01 X-41.3922 Y20.4075
G01 X-41.3379 Y20.4478
G01 X-41.2878 Y20.4932
G01 X-40.0146 Y21.7665
G01 X-39.9724 Y21.8133
G01 X-39.9375 Y21.8601
G01 X-39.9296 Y21.8715
G01 X-39.9019 Y21.9176
G01 X-39.8932 Y21.9339
G01 X-39.8685 Y21.9867
G01 X-39.8457 Y22.0504
G01 X-39.8293 Y22.1160
G01 X-39.8193 Y22.1829
G01 X-39.8160 Y22.2504
G01 X-39.8160 Y22.8118
G01 X-39.8059 Y22.8213
G01 X-39.7995 Y22.8280
G01 X-39.7468 Y22.8861
G01 X-39.7350 Y22.9005
G01 X-39.6829 Y22.9711
G01 X-39.6376 Y23.0463
G01 X-39.6289 Y23.0626
G01 X-39.5915 Y23.1420
G01 X-39.5589 Y23.2334
G01 X-39.5353 Y23.3275
G01 X-39.5216 Y23.4189
G01 X-39.5204 Y23.4327
G01 X-39.5165 Y23.5111
G01 X-39.5165 Y23.5297
G01 X-39.5210 Y23.6173
G01 X-39.5353 Y23.7133
G01 X-39.5564 Y23.7985
G01 X-39.5618 Y23.8162
G01 X-39.5915 Y23.8988
G01 X-39.6309 Y23.9824
G01 X-39.6376 Y23.9945
G01 X-39.6829 Y24.0697
G01 X-39.7350 Y24.1403
G01 X-39.7468 Y24.1547
G01 X-39.8059 Y24.2195
G01 X-39.8707 Y24.2786
G01 X-39.8851 Y24.2904
G01 X-39.9481 Y24.3372
G01 X-39.9635 Y24.3474
G01 X-40.0389 Y24.3924
G01 X-40.1266 Y24.4339
G01 X-40.2180 Y24.4665
G01 X-40.3031 Y24.4881
G01 X-40.3212 Y24.4917
G01 X-40.3989 Y24.5032
G01 X-40.4173 Y24.5050
G01 X-40.5050 Y24.5091
G01 X-40.5927 Y24.5050
G01 X-40.6111 Y24.5032
G01 X-40.6979 Y24.4901
G01 X-40.7920 Y24.4665
G01 X-40.8834 Y24.4339
G01 X-40.9628 Y24.3965
G01 X-40.9791 Y24.3878
G01 X-41.0543 Y24.3425
G01 X-41.1249 Y24.2904
G01 X-41.1393 Y24.2786
G01 X-41.2008 Y24.2228
G01 X-41.2105 Y24.2128
G01 X-41.2693 Y24.1476
G01 X-41.3271 Y24.0697
G01 X-41.3770 Y23.9865
G01 X-41.4185 Y23.8988
G01 X-41.4511 Y23.8074
G01 X-41.4747 Y23.7133
G01 X-41.4890 Y23.6173
G01 X-41.4937 Y23.5204
G01 X-41.4890 Y23.4235
G01 X-41.4747 Y23.3275
G01 X-41.4511 Y23.2334
G01 X-41.4185 Y23.1420
G01 X-41.3770 Y23.0543
G01 X-41.3271 Y22.9711
G01 X-41.2693 Y22.8932
G01 X-41.2105 Y22.8280
G01 X-41.2041 Y22.8213
G01 X-41.1940 Y22.8118
G01 X-41.1940 Y22.5358
G01 X-42.0604 Y21.6694
G01 X-44.9546 Y21.6693
G01 X-45.0175 Y21.6661
G01 X-45.0753 Y21.6577
G01 X-45.0934 Y21.6541
G01 X-45.1500 Y21.6397
G01 X-45.2050 Y21.6203
G01 X-45.2221 Y21.6132
G01 X-45.2748 Y21.5880
G01 X-45.3328 Y21.5533
G01 X-45.3871 Y21.5130
G01 X-45.4372 Y21.4676
G01 X-49.2472 Y17.6576
G01 X-49.2926 Y17.6075
G01 X-49.3329 Y17.5532
G01 X-49.3676 Y17.4952
G01 X-49.3928 Y17.4425
G01 X-49.3999 Y17.4254
G01 X-49.4193 Y17.3704
G01 X-49.4337 Y17.3138
G01 X-49.4373 Y17.2957
G01 X-49.4457 Y17.2379
G01 X-49.4489 Y17.1750
G01 X-49.4490 Y8.9694
G01 X-60.7710 Y8.9694
G01 X-60.7710 Y12.6518
G01 X-60.7609 Y12.6613
G01 X-60.7545 Y12.6680
G01 X-60.6957 Y12.7332
G01 X-60.6379 Y12.8111
G01 X-60.5880 Y12.8943
G01 X-60.5465 Y12.9820
G01 X-60.5139 Y13.0734
G01 X-60.4903 Y13.1675
G01 X-60.4760 Y13.2635
G01 X-60.4713 Y13.3604
G01 X-60.4760 Y13.4573
G01 X-60.4903 Y13.5533
G01 X-60.5139 Y13.6474
G01 X-60.5465 Y13.7388
G01 X-60.5880 Y13.8265
G01 X-60.6379 Y13.9097
G01 X-60.6957 Y13.9876
G01 X-60.7609 Y14.0595
G01 X-60.8328 Y14.1247
G01 X-60.9107 Y14.1825
G01 X-60.9939 Y14.2324
G01 X-61.0816 Y14.2739
G01 X-61.1730 Y14.3065
G01 X-61.2671 Y14.3301
G01 X-61.3631 Y14.3444
G01 X-61.4600 Y14.3491
G01 X-61.5569 Y14.3444
G01 X-61.6529 Y14.3301
G01 X-61.7470 Y14.3065
G01 X-61.8384 Y14.2739
G01 X-61.9261 Y14.2324
G01 X-62.0093 Y14.1825
G01 X-62.0872 Y14.1247
G01 X-62.1591 Y14.0595
G01 X-62.2243 Y13.9876
G01 X-62.2821 Y13.9097
G01 X-62.3320 Y13.8265
G01 X-62.3735 Y13.7388
G01 X-62.4061 Y13.6474
G01 X-62.4297 Y13.5533
G01 X-62.4440 Y13.4573
G01 X-62.4487 Y13.3604
G01 X-62.4440 Y13.2635
G01 X-62.4297 Y13.1675
G01 X-62.4061 Y13.0734
G01 X-62.3735 Y12.9820
G01 X-62.3320 Y12.8943
G01 X-62.2821 Y12.8111
G01 X-62.2243 Y12.7332
G01 X-62.1655 Y12.6680
G01 X-62.1591 Y12.6613
G01 X-62.1490 Y12.6518
G00 Z2.0000
G00 X-67.7364 Y22.8314
G01 F60.00
G01 Z-2.4000
G01 F120.00
G01 X-62.7236 Y22.8314
G01 X-62.7141 Y22.8213
G01 X-62.7074 Y22.8149
G01 X-62.6422 Y22.7561
G01 X-62.5643 Y22.6983
G01 X-62.4811 Y22.6484
G01 X-62.4018 Y22.6107
G01 X-62.3847 Y22.6036
G01 X-62.3108 Y22.5772
G01 X-62.2931 Y22.5718
G01 X-62.2079 Y22.5507
G01 X-62.1211 Y22.5376
G01 X-62.1027 Y22.5358
G01 X-62.0150 Y22.5317
G01 X-61.9273 Y22.5358
G01 X-61.9135 Y22.5370
G01 X-61.8221 Y22.5507
G01 X-61.7280 Y22.5743
G01 X-61.6366 Y22.6069
G01 X-61.5489 Y22.6484
G01 X-61.4657 Y22.6983
G01 X-61.3878 Y22.7561
G01 X-61.3159 Y22.8213
G01 X-61.2507 Y22.8932
G01 X-61.1929 Y22.9711
G01 X-61.1430 Y23.0543
G01 X-61.1015 Y23.1420
G01 X-61.0689 Y23.2334
G01 X-61.0453 Y23.3275
G01 X-61.0310 Y23.4235
G01 X-61.0263 Y23.5204
G01 X-61.0304 Y23.6081
G01 X-61.0316 Y23.6219
G01 X-61.0453 Y23.7133
G01 X-61.0689 Y23.8074
G01 X-61.1015 Y23.8988
G01 X-61.1389 Y23.9782
G01 X-61.1476 Y23.9945
G01 X-61.1880 Y24.0619
G01 X-61.1982 Y24.0773
G01 X-61.2507 Y24.1476
G01 X-61.3159 Y24.2195
G01 X-61.3878 Y24.2847
G01 X-61.4657 Y24.3425
G01 X-61.5489 Y24.3924
G01 X-61.6282 Y24.4301
G01 X-61.6453 Y24.4372
G01 X-61.7192 Y24.4636
G01 X-61.7369 Y24.4690
G01 X-61.8221 Y24.4901
G01 X-61.9089 Y24.5032
G01 X-61.9227 Y24.5048
G01 X-62.0150 Y24.5091
G01 X-62.1027 Y24.5050
G01 X-62.1211 Y24.5032
G01 X-62.1988 Y24.4917
G01 X-62.2169 Y24.4881
G01 X-62.3020 Y24.4665
G01 X-62.3847 Y24.4372
G01 X-62.4018 Y24.4301
G01 X-62.4811 Y24.3924
G01 X-62.5643 Y24.3425
G01 X-62.6422 Y24.2847
G01 X-62.7074 Y24.2259
G01 X-62.7141 Y24.2195
G01 X-62.7236 Y24.2094
G01 X-67.7364 Y24.2094
G01 X-67.7459 Y24.2195
G01 X-67.7526 Y24.2259
G01 X-67.8178 Y24.2847
G01 X-67.8957 Y24.3425
G01 X-67.9789 Y24.3924
G01 X-68.0666 Y24.4339
G01 X-68.1580 Y24.4665
G01 X-68.2521 Y24.4901
G01 X-68.3481 Y24.5044
G01 X-68.4450 Y24.5091
G01 X-68.5419 Y24.5044
G01 X-68.6379 Y24.4901
G01 X-68.7320 Y24.4665
G01 X-68.8234 Y24.4339
G01 X-68.9111 Y24.3924
G01 X-68.9943 Y24.3425
G01 X-69.0722 Y24.2847
G01 X-69.1441 Y24.2195
G01 X-69.2093 Y24.1476
G01 X-69.2671 Y24.0697
G01 X-69.3170 Y23.9865
G01 X-69.3585 Y23.8988
G01 X-69.3911 Y23.8074
G01 X-69.4147 Y23.7133
G01 X-69.4290 Y23.6173
G01 X-69.4337 Y23.5204
G01 X-69.4290 Y23.4235
G01 X-69.4147 Y23.3275
G01 X-69.3911 Y23.2334
G01 X-69.3585 Y23.1420
G01 X-69.3170 Y23.0543
G01 X-69.2671 Y22.9711
G01 X-69.2093 Y22.8932
G01 X-69.1441 Y22.8213
G01 X-69.0722 Y22.7561
G01 X-68.9943 Y22.6983
G01 X-68.9111 Y22.6484
G01 X-68.8234 Y22.6069
G01 X-68.7320 Y22.5743
G01 X-68.6379 Y22.5507
G01 X-68.5419 Y22.5364
G01 X-68.4450 Y22.5317
G01 X-68.3481 Y22.5364
G01 X-68.2521 Y22.5507
G01 X-68.1580 Y22.5743
G01 X-68.0666 Y22.6069
G01 X-67.9789 Y22.6484
G01 X-67.8957 Y22.6983
G01 X-67.8178 Y22.7561
G01 X-67.7526 Y22.8149
G01 X-67.7459 Y22.8213
G01 X-67.7364 Y22.8314
G00 Z2.0000
G00 X-75.6110 Y22.8118
G01 F60.00
G01 Z-2.4000
G01 F120.00
G01 X-75.6110 Y3.4544
G01 X-75.6077 Y3.3869
G01 X-75.5977 Y3.3200
G01 X-75.5838 Y3.2633
G01 X-75.5799 Y3.2500
G01 X-75.5619 Y3.1994
G01 X-75.5548 Y3.1823
G01 X-75.5296 Y3.1296
G01 X-75.4949 Y3.0716
G01 X-75.4546 Y3.0173
G01 X-75.4124 Y2.9705
G01 X-73.6245 Y1.1828
G01 X-73.5811 Y1.1438
G01 X-73.5343 Y1.1089
G01 X-73.5189 Y1.0986
G01 X-73.4688 Y1.0688
G01 X-73.4161 Y1.0436
G01 X-73.3990 Y1.0365
G01 X-73.3440 Y1.0171
G01 X-73.2829 Y1.0016
G01 X-73.2693 Y0.9991
G01 X-73.2115 Y0.9907
G01 X-73.1440 Y0.9874
G01 X-33.7740 Y0.9874
G01 X-33.7065 Y0.9907
G01 X-33.6441 Y0.9998
G01 X-33.6306 Y1.0027
G01 X-33.5829 Y1.0146
G01 X-33.5652 Y1.0200
G01 X-33.5103 Y1.0399
G01 X-33.4492 Y1.0688
G01 X-33.3991 Y1.0986
G01 X-33.3837 Y1.1089
G01 X-33.3369 Y1.1438
G01 X-33.2901 Y1.1860
G01 X-29.4246 Y5.0514
G01 X-24.9319 Y5.0515
G01 X-24.8690 Y5.0547
G01 X-24.8112 Y5.0631
G01 X-24.7931 Y5.0667
G01 X-24.7365 Y5.0811
G01 X-24.6729 Y5.1039
G01 X-24.6200 Y5.1286
G01 X-24.6037 Y5.1373
G01 X-24.5616 Y5.1626
G01 X-24.5499 Y5.1702
G01 X-24.4994 Y5.2078
G01 X-24.4493 Y5.2532
G01 X-21.8428 Y7.8597
G01 X-21.8035 Y7.9028
G01 X-21.7945 Y7.9135
G01 X-21.7625 Y7.9566
G01 X-21.7522 Y7.9720
G01 X-21.7224 Y8.0221
G01 X-21.6972 Y8.0748
G01 X-21.6901 Y8.0919
G01 X-21.6707 Y8.1469
G01 X-21.6563 Y8.2035
G01 X-21.6534 Y8.2171
G01 X-21.6443 Y8.2794
G01 X-21.6411 Y8.3423
G01 X-21.6410 Y8.8662
G01 X-21.6282 Y8.8725
G01 X-21.6202 Y8.8770
G01 X-21.5029 Y8.9476
G01 X-21.3856 Y9.0346
G01 X-21.2773 Y9.1327
G01 X-21.1853 Y9.2340
G01 X-21.1735 Y9.2483
G01 X-21.0922 Y9.3583
G01 X-21.0216 Y9.4756
G01 X-21.0129 Y9.4919
G01 X-20.9584 Y9.6072
G01 X-20.9513 Y9.6243
G01 X-20.9054 Y9.7532
G01 X-20.8708 Y9.8904
G01 X-20.8683 Y9.9041
G01 X-20.8496 Y10.0303
G01 X-20.8478 Y10.0487
G01 X-20.8413 Y10.1854
G01 X-20.8478 Y10.3221
G01 X-20.8496 Y10.3405
G01 X-20.8699 Y10.4758
G01 X-20.9029 Y10.6086
G01 X-20.9083 Y10.6263
G01 X-20.9546 Y10.7551
G01 X-21.0129 Y10.8789
G01 X-21.0216 Y10.8952
G01 X-21.0922 Y11.0125
G01 X-21.1792 Y11.1298
G01 X-21.2709 Y11.2314
G01 X-21.2840 Y11.2445
G01 X-21.3856 Y11.3362
G01 X-21.4953 Y11.4179
G01 X-21.5107 Y11.4282
G01 X-21.6282 Y11.4983
G01 X-21.7603 Y11.5608
G01 X-21.8891 Y11.6071
G01 X-21.9068 Y11.6125
G01 X-22.0396 Y11.6455
G01 X-22.1749 Y11.6658
G01 X-22.1933 Y11.6676
G01 X-22.3300 Y11.6741
G01 X-22.4667 Y11.6676
G01 X-22.4851 Y11.6658
G01 X-22.6204 Y11.6455
G01 X-22.7532 Y11.6125
G01 X-22.7709 Y11.6071
G01 X-22.8997 Y11.5608
G01 X-23.0318 Y11.4983
G01 X-23.1493 Y11.4282
G01 X-23.1647 Y11.4179
G01 X-23.2744 Y11.3362
G01 X-23.3760 Y11.2445
G01 X-23.3891 Y11.2314
G01 X-23.4808 Y11.1298
G01 X-23.5678 Y11.0125
G01 X-23.6384 Y10.8952
G01 X-23.6471 Y10.8789
G01 X-23.7054 Y10.7551
G01 X-23.7546 Y10.6176
G01 X-23.7881 Y10.4849
G01 X-23.7917 Y10.4667
G01 X-23.8116 Y10.3313
G01 X-23.8185 Y10.1947
G01 X-23.8185 Y10.1761
G01 X-23.8116 Y10.0395
G01 X-23.7917 Y9.9041
G01 X-23.7881 Y9.8859
G01 X-23.7546 Y9.7532
G01 X-23.7087 Y9.6243
G01 X-23.7016 Y9.6072
G01 X-23.6451 Y9.4877
G01 X-23.6384 Y9.4756
G01 X-23.5728 Y9.3661
G01 X-23.5625 Y9.3507
G01 X-23.4808 Y9.2410
G01 X-23.3827 Y9.1327
G01 X-23.2744 Y9.0346
G01 X-23.1647 Y8.9529
G01 X-23.1493 Y8.9426
G01 X-23.0398 Y8.8770
G01 X-23.0318 Y8.8725
G01 X-23.0190 Y8.8662
G01 X-23.0190 Y8.6323
G01 X-25.2219 Y6.4294
G01 X-29.4246 Y6.4294
G01 X-31.6410 Y8.6458
G01 X-31.6410 Y8.8662
G01 X-31.6282 Y8.8725
G01 X-31.6202 Y8.8770
G01 X-31.5029 Y8.9476
G01 X-31.3856 Y9.0346
G01 X-31.2773 Y9.1327
G01 X-31.1853 Y9.2340
G01 X-31.1735 Y9.2483
G01 X-31.0922 Y9.3583
G01 X-31.0216 Y9.4756
G01 X-31.0129 Y9.4919
G01 X-30.9584 Y9.6072
G01 X-30.9513 Y9.6243
G01 X-30.9054 Y9.7532
G01 X-30.8708 Y9.8904
G01 X-30.8683 Y9.9041
G01 X-30.8484 Y10.0395
G01 X-30.8413 Y10.1854
G01 X-30.8484 Y10.3313
G01 X-30.8699 Y10.4758
G01 X-30.9054 Y10.6176
G01 X-30.9546 Y10.7551
G01 X-31.0171 Y10.8872
G01 X-31.0922 Y11.0125
G01 X-31.1792 Y11.1298
G01 X-31.2773 Y11.2381
G01 X-31.3856 Y11.3362
G01 X-31.4953 Y11.4179
G01 X-31.5068 Y11.4258
G01 X-31.6282 Y11.4983
G01 X-31.7518 Y11.5570
G01 X-31.7646 Y11.5625
G01 X-31.8891 Y11.6071
G01 X-31.9023 Y11.6113
G01 X-32.0350 Y11.6446
G01 X-32.0487 Y11.6471
G01 X-32.1117 Y11.6564
G01 X-34.3028 Y13.8476
G01 X-34.3529 Y13.8930
G01 X-34.3997 Y13.9279
G01 X-34.4111 Y13.9358
G01 X-34.4652 Y13.9680
G01 X-34.5179 Y13.9932
G01 X-34.5350 Y14.0003
G01 X-34.5900 Y14.0197
G01 X-34.6466 Y14.0341
G01 X-34.6647 Y14.0377
G01 X-34.7225 Y14.0461
G01 X-34.7854 Y14.0493
G01 X-41.1400 Y14.0494
G01 X-41.1983 Y14.0467
G01 X-41.2121 Y14.0455
G01 X-41.2744 Y14.0361
G01 X-41.3311 Y14.0222
G01 X-41.3488 Y14.0168
G01 X-41.3994 Y13.9986
G01 X-41.4121 Y13.9932
G01 X-41.4648 Y13.9680
G01 X-41.5228 Y13.9333
G01 X-41.5771 Y13.8930
G01 X-41.6205 Y13.8540
G01 X-43.6184 Y11.8563
G01 X-43.6800 Y11.8591
G01 X-43.7772 Y11.8545
G01 X-43.7910 Y11.8530
G01 X-43.8735 Y11.8407
G01 X-43.8872 Y11.8382
G01 X-43.9815 Y11.8144
G01 X-44.0689 Y11.7834
G01 X-44.0860 Y11.7763
G01 X-44.1614 Y11.7406
G01 X-44.1737 Y11.7342
G01 X-44.2571 Y11.6841
G01 X-44.3317 Y11.6290
G01 X-44.3460 Y11.6173
G01 X-44.4145 Y11.5549
G01 X-44.4829 Y11.4794
G01 X-44.5383 Y11.4051
G01 X-44.5486 Y11.3897
G01 X-44.5961 Y11.3100
G01 X-44.6397 Y11.2179
G01 X-44.6711 Y11.1307
G01 X-44.6765 Y11.1130
G01 X-44.6967 Y11.0321
G01 X-44.7003 Y11.0139
G01 X-44.7137 Y10.9222
G01 X-44.7187 Y10.8204
G01 X-44.7137 Y10.7186
G01 X-44.6996 Y10.6223
G01 X-44.6967 Y10.6087
G01 X-44.6765 Y10.5278
G01 X-44.6711 Y10.5101
G01 X-44.6397 Y10.4229
G01 X-44.6002 Y10.3390
G01 X-44.5938 Y10.3267
G01 X-44.5437 Y10.2433
G01 X-44.4858 Y10.1651
G01 X-44.4769 Y10.1544
G01 X-44.4177 Y10.0892
G01 X-44.4078 Y10.0795
G01 X-44.3690 Y10.0444
G01 X-44.3690 Y9.0564
G01 X-44.4078 Y9.0213
G01 X-44.4177 Y9.0116
G01 X-44.4769 Y8.9464
G01 X-44.4858 Y8.9357
G01 X-44.5437 Y8.8575
G01 X-44.5915 Y8.7781
G01 X-44.5982 Y8.7659
G01 X-44.6397 Y8.6779
G01 X-44.6740 Y8.5819
G01 X-44.6988 Y8.4830
G01 X-44.7126 Y8.3914
G01 X-44.7141 Y8.3776
G01 X-44.7187 Y8.2804
G01 X-44.7144 Y8.1878
G01 X-44.7126 Y8.1694
G01 X-44.7003 Y8.0869
G01 X-44.6967 Y8.0687
G01 X-44.6740 Y7.9789
G01 X-44.6397 Y7.8829
G01 X-44.5961 Y7.7908
G01 X-44.5486 Y7.7111
G01 X-44.5383 Y7.6957
G01 X-44.4829 Y7.6214
G01 X-44.4209 Y7.5526
G01 X-44.4078 Y7.5395
G01 X-44.3460 Y7.4835
G01 X-44.3317 Y7.4718
G01 X-44.2571 Y7.4167
G01 X-44.1777 Y7.3689
G01 X-44.1614 Y7.3602
G01 X-44.0775 Y7.3207
G01 X-43.9815 Y7.2864
G01 X-43.8826 Y7.2616
G01 X-43.7910 Y7.2478
G01 X-43.7726 Y7.2460
G01 X-43.6800 Y7.2417
G01 X-43.5874 Y7.2460
G01 X-43.5690 Y7.2478
G01 X-43.4865 Y7.2601
G01 X-43.4683 Y7.2637
G01 X-43.3785 Y7.2864
G01 X-43.2825 Y7.3207
G01 X-43.1986 Y7.3602
G01 X-43.1823 Y7.3689
G01 X-43.1029 Y7.4167
G01 X-43.0283 Y7.4718
G01 X-43.0140 Y7.4835
G01 X-42.9455 Y7.5459
G01 X-42.8831 Y7.6144
G01 X-42.8714 Y7.6287
G01 X-42.8163 Y7.7033
G01 X-42.7639 Y7.7908
G01 X-42.7203 Y7.8829
G01 X-42.6860 Y7.9789
G01 X-42.6612 Y8.0778
G01 X-42.6463 Y8.1786
G01 X-42.6413 Y8.2804
G01 X-42.6456 Y8.3730
G01 X-42.6474 Y8.3914
G01 X-42.6612 Y8.4830
G01 X-42.6860 Y8.5819
G01 X-42.7203 Y8.6779
G01 X-42.7618 Y8.7659
G01 X-42.7685 Y8.7781
G01 X-42.8163 Y8.8575
G01 X-42.8742 Y8.9357
G01 X-42.8831 Y8.9464
G01 X-42.9423 Y9.0116
G01 X-42.9522 Y9.0213
G01 X-42.9910 Y9.0564
G01 X-42.9910 Y10.0444
G01 X-42.9455 Y10.0859
G01 X-42.8800 Y10.1579
G01 X-42.8714 Y10.1687
G01 X-42.8190 Y10.2395
G01 X-42.8114 Y10.2511
G01 X-42.7639 Y10.3308
G01 X-42.7203 Y10.4229
G01 X-42.6860 Y10.5189
G01 X-42.6633 Y10.6087
G01 X-42.6604 Y10.6223
G01 X-42.6474 Y10.7094
G01 X-42.6459 Y10.7232
G01 X-42.6413 Y10.8204
G01 X-42.6441 Y10.8820
G01 X-40.8546 Y12.6714
G01 X-35.0754 Y12.6714
G01 X-33.5035 Y11.0996
G01 X-33.5678 Y11.0125
G01 X-33.6384 Y10.8952
G01 X-33.6471 Y10.8789
G01 X-33.7016 Y10.7636
G01 X-33.7087 Y10.7465
G01 X-33.7546 Y10.6176
G01 X-33.7881 Y10.4849
G01 X-33.7917 Y10.4667
G01 X-33.8116 Y10.3313
G01 X-33.8187 Y10.1854
G01 X-33.8116 Y10.0395
G01 X-33.7901 Y9.8950
G01 X-33.7546 Y9.7532
G01 X-33.7087 Y9.6243
G01 X-33.7016 Y9.6072
G01 X-33.6471 Y9.4919
G01 X-33.6384 Y9.4756
G01 X-33.5678 Y9.3583
G01 X-33.4865 Y9.2483
G01 X-33.4747 Y9.2340
G01 X-33.3827 Y9.1327
G01 X-33.2744 Y9.0346
G01 X-33.1571 Y8.9476
G01 X-33.0398 Y8.8770
G01 X-33.0318 Y8.8725
G01 X-33.0190 Y8.8662
G01 X-33.0190 Y8.3469
G01 X-33.0163 Y8.2886
G01 X-33.0151 Y8.2748
G01 X-33.0073 Y8.2216
G01 X-33.0037 Y8.2035
G01 X-32.9893 Y8.1469
G01 X-32.9699 Y8.0919
G01 X-32.9628 Y8.0748
G01 X-32.9376 Y8.0221
G01 X-32.9054 Y7.9680
G01 X-32.8975 Y7.9566
G01 X-32.8626 Y7.9098
G01 X-32.8172 Y7.8597
G01 X-32.7706 Y7.8173
G01 X-32.7598 Y7.8086
G01 X-32.7320 Y7.7880
G01 X-30.6844 Y5.7404
G01 X-34.0594 Y2.3654
G01 X-72.8586 Y2.3654
G01 X-74.2330 Y3.7398
G01 X-74.2330 Y22.8118
G01 X-74.2229 Y22.8213
G01 X-74.2165 Y22.8280
G01 X-74.1577 Y22.8932
G01 X-74.0999 Y22.9711
G01 X-74.0500 Y23.0543
G01 X-74.0085 Y23.1420
G01 X-73.9759 Y23.2334
G01 X-73.9523 Y23.3275
G01 X-73.9380 Y23.4235
G01 X-73.9333 Y23.5204
G01 X-73.9380 Y23.6173
G01 X-73.9523 Y23.7133
G01 X-73.9759 Y23.8074
G01 X-74.0085 Y23.8988
G01 X-74.0500 Y23.9865
G01 X-74.0999 Y24.0697
G01 X-74.1577 Y24.1476
G01 X-74.2165 Y24.2128
G01 X-74.2229 Y24.2195
G01 X-74.2330 Y24.2290
G01 X-74.2330 Y74.9014
G01 X-63.4386 Y74.9014
G01 X-63.4291 Y74.8913
G01 X-63.4224 Y74.8849
G01 X-63.3572 Y74.8261
G01 X-63.2793 Y74.7683
G01 X-63.1961 Y74.7184
G01 X-63.1084 Y74.6769
G01 X-63.0170 Y74.6443
G01 X-62.9229 Y74.6207
G01 X-62.8269 Y74.6064
G01 X-62.7300 Y74.6017
G01 X-62.6331 Y74.6064
G01 X-62.5371 Y74.6207
G01 X-62.4430 Y74.6443
G01 X-62.3516 Y74.6769
G01 X-62.2639 Y74.7184
G01 X-62.1807 Y74.7683
G01 X-62.1028 Y74.8261
G01 X-62.0376 Y74.8849
G01 X-62.0309 Y74.8913
G01 X-62.0214 Y74.9014
G01 X-50.7190 Y74.9014
G01 X-50.7190 Y72.5564
G01 X-50.7645 Y72.5149
G01 X-50.8300 Y72.4429
G01 X-50.8386 Y72.4321
G01 X-50.8883 Y72.3651
G01 X-50.8962 Y72.3536
G01 X-50.9415 Y72.2781
G01 X-50.9502 Y72.2618
G01 X-50.9897 Y72.1779
G01 X-51.0226 Y72.0863
G01 X-51.0265 Y72.0730
G01 X-51.0488 Y71.9830
G01 X-51.0626 Y71.8914
G01 X-51.0644 Y71.8730
G01 X-51.0687 Y71.7804
G01 X-51.0644 Y71.6878
G01 X-51.0626 Y71.6694
G01 X-51.0496 Y71.5823
G01 X-51.0467 Y71.5687
G01 X-51.0240 Y71.4789
G01 X-50.9930 Y71.3915
G01 X-50.9859 Y71.3744
G01 X-50.9502 Y71.2990
G01 X-50.9415 Y71.2827
G01 X-50.8937 Y71.2033
G01 X-50.8329 Y71.1214
G01 X-50.7645 Y71.0459
G01 X-50.6890 Y70.9775
G01 X-50.6071 Y70.9167
G01 X-50.5196 Y70.8643
G01 X-50.4275 Y70.8207
G01 X-50.3403 Y70.7893
G01 X-50.3226 Y70.7839
G01 X-50.2417 Y70.7637
G01 X-50.2235 Y70.7601
G01 X-50.1318 Y70.7467
G01 X-50.0300 Y70.7417
G01 X-49.9282 Y70.7467
G01 X-49.8365 Y70.7601
G01 X-49.8183 Y70.7637
G01 X-49.7374 Y70.7839
G01 X-49.7197 Y70.7893
G01 X-49.6325 Y70.8207
G01 X-49.5404 Y70.8643
G01 X-49.4529 Y70.9167
G01 X-49.3710 Y70.9775
G01 X-49.2955 Y71.0459
G01 X-49.2271 Y71.1214
G01 X-49.1663 Y71.2033
G01 X-49.1185 Y71.2827
G01 X-49.1098 Y71.2990
G01 X-49.0741 Y71.3744
G01 X-49.0670 Y71.3915
G01 X-49.0360 Y71.4789
G01 X-49.0133 Y71.5687
G01 X-49.0104 Y71.5823
G01 X-48.9974 Y71.6694
G01 X-48.9956 Y71.6878
G01 X-48.9913 Y71.7804
G01 X-48.9956 Y71.8730
G01 X-48.9974 Y71.8914
G01 X-49.0112 Y71.9830
G01 X-49.0335 Y72.0730
G01 X-49.0374 Y72.0863
G01 X-49.0670 Y72.1693
G01 X-49.0741 Y72.1864
G01 X-49.1139 Y72.2700
G01 X-49.1638 Y72.3536
G01 X-49.1717 Y72.3651
G01 X-49.2214 Y72.4321
G01 X-49.2300 Y72.4429
G01 X-49.2955 Y72.5149
G01 X-49.3410 Y72.5564
G01 X-49.3410 Y74.9014
G01 X-28.0904 Y74.9014
G01 X-27.8990 Y74.7100
G01 X-27.8990 Y66.1390
G01 X-27.9091 Y66.1295
G01 X-27.9155 Y66.1228
G01 X-27.9743 Y66.0576
G01 X-28.0321 Y65.9797
G01 X-28.0820 Y65.8965
G01 X-28.1235 Y65.8088
G01 X-28.1561 Y65.7174
G01 X-28.1797 Y65.6233
G01 X-28.1940 Y65.5273
G01 X-28.1987 Y65.4304
G01 X-28.1940 Y65.3335
G01 X-28.1813 Y65.2466
G01 X-28.1777 Y65.2285
G01 X-28.1586 Y65.1523
G01 X-28.1532 Y65.1346
G01 X-28.1235 Y65.0520
G01 X-28.0820 Y64.9643
G01 X-28.0321 Y64.8811
G01 X-27.9743 Y64.8032
G01 X-27.9091 Y64.7313
G01 X-27.8372 Y64.6661
G01 X-27.7593 Y64.6083
G01 X-27.6841 Y64.5630
G01 X-27.6678 Y64.5543
G01 X-27.5884 Y64.5169
G01 X-27.5058 Y64.4872
G01 X-27.4881 Y64.4818
G01 X-27.4119 Y64.4627
G01 X-27.3938 Y64.4591
G01 X-27.3069 Y64.4464
G01 X-27.2100 Y64.4417
G01 X-27.1131 Y64.4464
G01 X-27.0171 Y64.4607
G01 X-26.9230 Y64.4843
G01 X-26.8316 Y64.5169
G01 X-26.7439 Y64.5584
G01 X-26.6607 Y64.6083
G01 X-26.5828 Y64.6661
G01 X-26.5176 Y64.7249
G01 X-26.5109 Y64.7313
G01 X-26.5014 Y64.7414
G01 X-14.1204 Y64.7414
G01 X-9.3240 Y59.9450
G01 X-9.3240 Y54.0666
G01 X-9.3709 Y54.0385
G01 X-9.3826 Y54.0309
G01 X-9.4807 Y53.9581
G01 X-9.4913 Y53.9492
G01 X-9.5749 Y53.8734
G01 X-9.5849 Y53.8637
G01 X-9.6698 Y53.7697
G01 X-9.7428 Y53.6717
G01 X-9.7531 Y53.6563
G01 X-9.8111 Y53.5595
G01 X-9.8178 Y53.5474
G01 X-9.8718 Y53.4327
G01 X-9.9132 Y53.3178
G01 X-9.9185 Y53.3001
G01 X-9.9480 Y53.1816
G01 X-9.9661 Y53.0608
G01 X-9.9680 Y53.0424
G01 X-9.9737 Y52.9204
G01 X-9.9677 Y52.7938
G01 X-9.9661 Y52.7800
G01 X-9.9480 Y52.6592
G01 X-9.9185 Y52.5407
G01 X-9.9132 Y52.5230
G01 X-9.8751 Y52.4167
G01 X-9.8681 Y52.3996
G01 X-9.8156 Y52.2893
G01 X-9.7481 Y52.1766
G01 X-9.6698 Y52.0711
G01 X-9.5816 Y51.9738
G01 X-9.4843 Y51.8856
G01 X-9.3788 Y51.8073
G01 X-9.2661 Y51.7398
G01 X-9.1558 Y51.6873
G01 X-9.1387 Y51.6803
G01 X-9.0324 Y51.6422
G01 X-9.0147 Y51.6369
G01 X-8.8962 Y51.6074
G01 X-8.7754 Y51.5893
G01 X-8.7616 Y51.5877
G01 X-8.6350 Y51.5817
G01 X-8.5038 Y51.5881
G01 X-8.3738 Y51.6074
G01 X-8.2464 Y51.6393
G01 X-8.1227 Y51.6836
G01 X-8.0039 Y51.7398
G01 X-7.8912 Y51.8073
G01 X-7.7857 Y51.8856
G01 X-7.6884 Y51.9738
G01 X-7.6002 Y52.0711
G01 X-7.5219 Y52.1766
G01 X-7.4544 Y52.2893
G01 X-7.3982 Y52.4081
G01 X-7.3539 Y52.5318
G01 X-7.3220 Y52.6592
G01 X-7.3039 Y52.7800
G01 X-7.3023 Y52.7938
G01 X-7.2963 Y52.9204
G01 X-7.3020 Y53.0424
G01 X-7.3039 Y53.0608
G01 X-7.3220 Y53.1816
G01 X-7.3515 Y53.3001
G01 X-7.3568 Y53.3178
G01 X-7.3982 Y53.4327
G01 X-7.4522 Y53.5474
G01 X-7.4589 Y53.5595
G01 X-7.5169 Y53.6563
G01 X-7.5272 Y53.6717
G01 X-7.6002 Y53.7697
G01 X-7.6851 Y53.8637
G01 X-7.6951 Y53.8734
G01 X-7.7787 Y53.9492
G01 X-7.7893 Y53.9581
G01 X-7.8874 Y54.0309
G01 X-7.8991 Y54.0385
G01 X-7.9460 Y54.0666
G01 X-7.9461 Y60.2350
G01 X-7.9487 Y60.2887
G01 X-7.9505 Y60.3071
G01 X-7.9593 Y60.3648
G01 X-7.9732 Y60.4215
G01 X-7.9786 Y60.4392
G01 X-7.9985 Y60.4941
G01 X-8.0232 Y60.5469
G01 X-8.0296 Y60.5592
G01 X-8.0621 Y60.6132
G01 X-8.0967 Y60.6602
G01 X-8.1085 Y60.6745
G01 X-8.1478 Y60.7176
G01 X-13.3478 Y65.9176
G01 X-13.3979 Y65.9630
G01 X-13.4447 Y65.9979
G01 X-13.4601 Y66.0082
G01 X-13.5102 Y66.0380
G01 X-13.5629 Y66.0632
G01 X-13.5800 Y66.0703
G01 X-13.6350 Y66.0897
G01 X-13.7006 Y66.1061
G01 X-13.7583 Y66.1149
G01 X-13.7767 Y66.1167
G01 X-13.8350 Y66.1194
G01 X-26.5014 Y66.1194
G01 X-26.5109 Y66.1295
G01 X-26.5210 Y66.1390
G01 X-26.5210 Y74.9954
G01 X-26.5237 Y75.0537
G01 X-26.5249 Y75.0675
G01 X-26.5343 Y75.1298
G01 X-26.5507 Y75.1954
G01 X-26.5735 Y75.2591
G01 X-26.5982 Y75.3119
G01 X-26.6046 Y75.3242
G01 X-26.6322 Y75.3703
G01 X-26.6425 Y75.3857
G01 X-26.6774 Y75.4325
G01 X-26.7196 Y75.4793
G01 X-27.3178 Y76.0776
G01 X-27.3679 Y76.1230
G01 X-27.4222 Y76.1633
G01 X-27.4722 Y76.1935
G01 X-27.4885 Y76.2022
G01 X-27.5413 Y76.2269
G01 X-27.5962 Y76.2468
G01 X-27.6139 Y76.2522
G01 X-27.6661 Y76.2652
G01 X-27.6797 Y76.2677
G01 X-27.7375 Y76.2761
G01 X-27.8050 Y76.2794
G01 X-62.0214 Y76.2794
G01 X-62.0309 Y76.2895
G01 X-62.0376 Y76.2959
G01 X-62.1028 Y76.3547
G01 X-62.1807 Y76.4125
G01 X-62.2639 Y76.4624
G01 X-62.3516 Y76.5039
G01 X-62.4430 Y76.5365
G01 X-62.5371 Y76.5601
G01 X-62.6331 Y76.5744
G01 X-62.7300 Y76.5791
G01 X-62.8269 Y76.5744
G01 X-62.9229 Y76.5601
G01 X-63.0170 Y76.5365
G01 X-63.1084 Y76.5039
G01 X-63.1961 Y76.4624
G01 X-63.2793 Y76.4125
G01 X-63.3572 Y76.3547
G01 X-63.4224 Y76.2959
G01 X-63.4291 Y76.2895
G01 X-63.4386 Y76.2794
G01 X-74.9220 Y76.2794
G01 X-74.9803 Y76.2767
G01 X-74.9987 Y76.2749
G01 X-75.0564 Y76.2661
G01 X-75.1131 Y76.2522
G01 X-75.1308 Y76.2468
G01 X-75.1857 Y76.2269
G01 X-75.2385 Y76.2022
G01 X-75.2508 Y76.1958
G01 X-75.3048 Y76.1633
G01 X-75.3518 Y76.1287
G01 X-75.3661 Y76.1169
G01 X-75.4092 Y76.0776
G01 X-75.4485 Y76.0345
G01 X-75.4603 Y76.0202
G01 X-75.4949 Y75.9732
G01 X-75.5251 Y75.9232
G01 X-75.5338 Y75.9069
G01 X-75.5585 Y75.8541
G01 X-75.5784 Y75.7992
G01 X-75.5838 Y75.7815
G01 X-75.5977 Y75.7248
G01 X-75.6065 Y75.6671
G01 X-75.6083 Y75.6487
G01 X-75.6110 Y75.5904
G01 X-75.6110 Y24.2290
G01 X-75.6211 Y24.2195
G01 X-75.6275 Y24.2128
G01 X-75.6863 Y24.1476
G01 X-75.7441 Y24.0697
G01 X-75.7940 Y23.9865
G01 X-75.8355 Y23.8988
G01 X-75.8681 Y23.8074
G01 X-75.8917 Y23.7133
G01 X-75.9060 Y23.6173
G01 X-75.9107 Y23.5204
G01 X-75.9060 Y23.4235
G01 X-75.8917 Y23.3275
G01 X-75.8681 Y23.2334
G01 X-75.8355 Y23.1420
G01 X-75.7940 Y23.0543
G01 X-75.7441 Y22.9711
G01 X-75.6863 Y22.8932
G01 X-75.6275 Y22.8280
G01 X-75.6211 Y22.8213
G01 X-75.6110 Y22.8118
G00 Z2.0000
G00 X-68.2450 Y32.3570
G01 F60.00
G01 Z-2.4000
G01 F120.00
G01 X-68.2551 Y32.3475
G01 X-68.2615 Y32.3408
G01 X-68.3142 Y32.2827
G01 X-68.3260 Y32.2683
G01 X-68.3781 Y32.1977
G01 X-68.4280 Y32.1145
G01 X-68.4695 Y32.0268
G01 X-68.4992 Y31.9442
G01 X-68.5046 Y31.9265
G01 X-68.5237 Y31.8503
G01 X-68.5273 Y31.8322
G01 X-68.5400 Y31.7453
G01 X-68.5447 Y31.6484
G01 X-68.5400 Y31.5515
G01 X-68.5273 Y31.4646
G01 X-68.5237 Y31.4465
G01 X-68.5046 Y31.3703
G01 X-68.4992 Y31.3526
G01 X-68.4695 Y31.2700
G01 X-68.4280 Y31.1823
G01 X-68.3781 Y31.0991
G01 X-68.3260 Y31.0285
G01 X-68.3142 Y31.0141
G01 X-68.2551 Y30.9493
G01 X-68.1832 Y30.8841
G01 X-68.1129 Y30.8316
G01 X-68.0975 Y30.8214
G01 X-68.0301 Y30.7810
G01 X-68.0138 Y30.7723
G01 X-67.9344 Y30.7349
G01 X-67.8430 Y30.7023
G01 X-67.7489 Y30.6787
G01 X-67.6621 Y30.6656
G01 X-67.6437 Y30.6638
G01 X-67.5653 Y30.6599
G01 X-67.5467 Y30.6599
G01 X-67.4591 Y30.6644
G01 X-67.3722 Y30.6771
G01 X-67.3541 Y30.6807
G01 X-67.2779 Y30.6998
G01 X-67.2602 Y30.7052
G01 X-67.1776 Y30.7349
G01 X-67.0899 Y30.7764
G01 X-67.0067 Y30.8263
G01 X-66.9361 Y30.8784
G01 X-66.9217 Y30.8902
G01 X-66.8569 Y30.9493
G01 X-66.7917 Y31.0212
G01 X-66.7392 Y31.0915
G01 X-66.7290 Y31.1069
G01 X-66.6840 Y31.1823
G01 X-66.6425 Y31.2700
G01 X-66.6128 Y31.3526
G01 X-66.6074 Y31.3703
G01 X-66.5863 Y31.4555
G01 X-66.5720 Y31.5515
G01 X-66.5675 Y31.6391
G01 X-66.5675 Y31.6577
G01 X-66.5720 Y31.7453
G01 X-66.5847 Y31.8322
G01 X-66.5883 Y31.8503
G01 X-66.6099 Y31.9354
G01 X-66.6392 Y32.0181
G01 X-66.6463 Y32.0352
G01 X-66.6840 Y32.1145
G01 X-66.7290 Y32.1899
G01 X-66.7392 Y32.2053
G01 X-66.7917 Y32.2756
G01 X-66.8505 Y32.3408
G01 X-66.8569 Y32.3475
G01 X-66.8670 Y32.3570
G01 X-66.8670 Y33.2454
G01 X-58.8666 Y33.2454
G01 X-58.8571 Y33.2353
G01 X-58.8504 Y33.2289
G01 X-58.7852 Y33.1701
G01 X-58.7073 Y33.1123
G01 X-58.6241 Y33.0624
G01 X-58.5448 Y33.0247
G01 X-58.5277 Y33.0176
G01 X-58.4450 Y32.9883
G01 X-58.3599 Y32.9667
G01 X-58.3418 Y32.9631
G01 X-58.2641 Y32.9516
G01 X-58.2457 Y32.9498
G01 X-58.1580 Y32.9457
G01 X-58.0611 Y32.9504
G01 X-57.9651 Y32.9647
G01 X-57.8710 Y32.9883
G01 X-57.7796 Y33.0209
G01 X-57.6919 Y33.0624
G01 X-57.6087 Y33.1123
G01 X-57.5308 Y33.1701
G01 X-57.4589 Y33.2353
G01 X-57.3998 Y33.3001
G01 X-57.3880 Y33.3145
G01 X-57.3359 Y33.3851
G01 X-57.2906 Y33.4603
G01 X-57.2819 Y33.4766
G01 X-57.2483 Y33.5476
G01 X-57.2412 Y33.5647
G01 X-57.2119 Y33.6474
G01 X-57.1903 Y33.7325
G01 X-57.1867 Y33.7506
G01 X-57.1740 Y33.8375
G01 X-57.1693 Y33.9344
G01 X-57.1740 Y34.0313
G01 X-57.1867 Y34.1182
G01 X-57.1903 Y34.1363
G01 X-57.2119 Y34.2214
G01 X-57.2412 Y34.3041
G01 X-57.2483 Y34.3212
G01 X-57.2819 Y34.3922
G01 X-57.2906 Y34.4085
G01 X-57.3359 Y34.4837
G01 X-57.3937 Y34.5616
G01 X-57.4589 Y34.6335
G01 X-57.5308 Y34.6987
G01 X-57.6087 Y34.7565
G01 X-57.6839 Y34.8018
G01 X-57.7002 Y34.8105
G01 X-57.7712 Y34.8441
G01 X-57.7883 Y34.8512
G01 X-57.8710 Y34.8805
G01 X-57.9651 Y34.9041
G01 X-58.0611 Y34.9184
G01 X-58.1487 Y34.9229
G01 X-58.1673 Y34.9229
G01 X-58.2549 Y34.9184
G01 X-58.3509 Y34.9041
G01 X-58.4450 Y34.8805
G01 X-58.5364 Y34.8479
G01 X-58.6241 Y34.8064
G01 X-58.7073 Y34.7565
G01 X-58.7852 Y34.6987
G01 X-58.8504 Y34.6399
G01 X-58.8571 Y34.6335
G01 X-58.8666 Y34.6234
G01 X-67.5560 Y34.6234
G01 X-67.6235 Y34.6201
G01 X-67.6813 Y34.6117
G01 X-67.6949 Y34.6092
G01 X-67.7471 Y34.5962
G01 X-67.7648 Y34.5908
G01 X-67.8197 Y34.5709
G01 X-67.8808 Y34.5420
G01 X-67.9309 Y34.5122
G01 X-67.9463 Y34.5019
G01 X-67.9931 Y34.4670
G01 X-68.0399 Y34.4248
G01 X-68.0496 Y34.4149
G01 X-68.0825 Y34.3785
G01 X-68.0943 Y34.3642
G01 X-68.1289 Y34.3172
G01 X-68.1636 Y34.2592
G01 X-68.1888 Y34.2065
G01 X-68.1959 Y34.1894
G01 X-68.2153 Y34.1344
G01 X-68.2297 Y34.0778
G01 X-68.2333 Y34.0597
G01 X-68.2417 Y34.0019
G01 X-68.2450 Y33.9344
G01 X-68.2450 Y32.3570
G00 Z2.0000
G00 X-68.9562 Y37.4878
G01 F60.00
G01 Z-2.4000
G01 F120.00
G01 X-68.9663 Y37.4783
G01 X-68.9727 Y37.4716
G01 X-69.0315 Y37.4064
G01 X-69.0893 Y37.3285
G01 X-69.1392 Y37.2453
G01 X-69.1807 Y37.1576
G01 X-69.2133 Y37.0662
G01 X-69.2369 Y36.9721
G01 X-69.2512 Y36.8761
G01 X-69.2559 Y36.7792
G01 X-69.2512 Y36.6823
G01 X-69.2369 Y36.5863
G01 X-69.2133 Y36.4922
G01 X-69.1807 Y36.4008
G01 X-69.1392 Y36.3131
G01 X-69.0893 Y36.2299
G01 X-69.0315 Y36.1520
G01 X-68.9663 Y36.0801
G01 X-68.8944 Y36.0149
G01 X-68.8165 Y35.9571
G01 X-68.7333 Y35.9072
G01 X-68.6456 Y35.8657
G01 X-68.5542 Y35.8331
G01 X-68.4601 Y35.8095
G01 X-68.3641 Y35.7952
G01 X-68.2672 Y35.7905
G01 X-68.1703 Y35.7952
G01 X-68.0743 Y35.8095
G01 X-67.9802 Y35.8331
G01 X-67.8888 Y35.8657
G01 X-67.8011 Y35.9072
G01 X-67.7179 Y35.9571
G01 X-67.6400 Y36.0149
G01 X-67.5681 Y36.0801
G01 X-67.5029 Y36.1520
G01 X-67.4451 Y36.2299
G01 X-67.3952 Y36.3131
G01 X-67.3537 Y36.4008
G01 X-67.3211 Y36.4922
G01 X-67.2975 Y36.5863
G01 X-67.2832 Y36.6823
G01 X-67.2785 Y36.7792
G01 X-67.2832 Y36.8761
G01 X-67.2975 Y36.9721
G01 X-67.3211 Y37.0662
G01 X-67.3537 Y37.1576
G01 X-67.3952 Y37.2453
G01 X-67.4451 Y37.3285
G01 X-67.5029 Y37.4064
G01 X-67.5617 Y37.4716
G01 X-67.5681 Y37.4783
G01 X-67.5782 Y37.4878
G01 X-67.5782 Y65.1986
G01 X-54.9890 Y65.1986
G01 X-54.6168 Y64.8264
G01 X-54.6219 Y64.8107
G01 X-54.6259 Y64.7927
G01 X-54.6278 Y64.7789
G01 X-54.6287 Y64.7604
G01 X-54.6287 Y63.5558
G01 X-54.6273 Y63.5373
G01 X-54.6241 Y63.5191
G01 X-54.6192 Y63.5012
G01 X-54.6144 Y63.4882
G01 X-54.6064 Y63.4714
G01 X-54.5969 Y63.4556
G01 X-54.5859 Y63.4407
G01 X-54.5767 Y63.4303
G01 X-54.5633 Y63.4175
G01 X-54.5487 Y63.4061
G01 X-54.5370 Y63.3985
G01 X-54.5207 Y63.3898
G01 X-54.5036 Y63.3827
G01 X-54.4859 Y63.3773
G01 X-54.4677 Y63.3737
G01 X-54.4493 Y63.3719
G01 X-53.2400 Y63.3717
G01 X-53.2261 Y63.3722
G01 X-53.2123 Y63.3737
G01 X-53.1987 Y63.3763
G01 X-53.1852 Y63.3798
G01 X-53.1721 Y63.3843
G01 X-53.1593 Y63.3898
G01 X-53.1430 Y63.3985
G01 X-53.1313 Y63.4061
G01 X-53.1203 Y63.4145
G01 X-53.1099 Y63.4237
G01 X-53.1002 Y63.4337
G01 X-53.0912 Y63.4443
G01 X-53.0831 Y63.4556
G01 X-53.0758 Y63.4674
G01 X-53.0694 Y63.4797
G01 X-53.0639 Y63.4925
G01 X-53.0594 Y63.5056
G01 X-53.0559 Y63.5191
G01 X-53.0541 Y63.5281
G01 X-53.0522 Y63.5419
G01 X-53.0513 Y63.5558
G01 X-53.0513 Y63.9748
G01 X-52.4524 Y64.5737
G01 X-52.4305 Y64.5607
G01 X-52.4224 Y64.5563
G01 X-52.3472 Y64.5207
G01 X-52.3345 Y64.5152
G01 X-52.2474 Y64.4843
G01 X-52.1623 Y64.4627
G01 X-52.1487 Y64.4598
G01 X-52.0573 Y64.4464
G01 X-51.9604 Y64.4417
G01 X-51.8635 Y64.4464
G01 X-51.7766 Y64.4591
G01 X-51.7630 Y64.4616
G01 X-51.6734 Y64.4843
G01 X-51.5820 Y64.5169
G01 X-51.4943 Y64.5584
G01 X-51.4111 Y64.6083
G01 X-51.3332 Y64.6661
G01 X-51.2613 Y64.7313
G01 X-51.1961 Y64.8032
G01 X-51.1436 Y64.8735
G01 X-51.1358 Y64.8850
G01 X-51.0884 Y64.9643
G01 X-51.0469 Y65.0520
G01 X-51.0143 Y65.1434
G01 X-50.9907 Y65.2375
G01 X-50.9764 Y65.3335
G01 X-50.9717 Y65.4304
G01 X-50.9764 Y65.5273
G01 X-50.9907 Y65.6233
G01 X-51.0143 Y65.7174
G01 X-51.0469 Y65.8088
G01 X-51.0884 Y65.8965
G01 X-51.1383 Y65.9797
G01 X-51.1961 Y66.0576
G01 X-51.2613 Y66.1295
G01 X-51.3332 Y66.1947
G01 X-51.4035 Y66.2472
G01 X-51.4189 Y66.2574
G01 X-51.4863 Y66.2978
G01 X-51.5026 Y66.3065
G01 X-51.5820 Y66.3439
G01 X-51.6646 Y66.3736
G01 X-51.6823 Y66.3790
G01 X-51.7675 Y66.4001
G01 X-51.8543 Y66.4132
G01 X-51.8727 Y66.4150
G01 X-51.9604 Y66.4191
G01 X-52.0573 Y66.4144
G01 X-52.1533 Y66.4001
G01 X-52.2385 Y66.3790
G01 X-52.2562 Y66.3736
G01 X-52.3388 Y66.3439
G01 X-52.4182 Y66.3065
G01 X-52.4345 Y66.2978
G01 X-52.5058 Y66.2550
G01 X-52.5173 Y66.2472
G01 X-52.5803 Y66.2004
G01 X-52.5912 Y66.1917
G01 X-52.6562 Y66.1328
G01 X-52.6628 Y66.1262
G01 X-52.6772 Y66.1104
G01 X-52.6999 Y66.1070
G01 X-52.7089 Y66.1052
G01 X-52.7655 Y66.0910
G01 X-52.7788 Y66.0868
G01 X-52.8294 Y66.0686
G01 X-52.8421 Y66.0632
G01 X-52.8948 Y66.0380
G01 X-52.9449 Y66.0082
G01 X-52.9566 Y66.0006
G01 X-53.0071 Y65.9630
G01 X-53.0539 Y65.9208
G01 X-53.4082 Y65.5666
G01 X-54.2164 Y66.3748
G01 X-54.2595 Y66.4141
G01 X-54.2701 Y66.4231
G01 X-54.3208 Y66.4605
G01 X-54.3708 Y66.4907
G01 X-54.3788 Y66.4952
G01 X-54.3923 Y66.5019
G01 X-54.4357 Y66.5223
G01 X-54.4486 Y66.5275
G01 X-54.5036 Y66.5469
G01 X-54.5692 Y66.5633
G01 X-54.6361 Y66.5733
G01 X-54.6943 Y66.5763
G01 X-68.2718 Y66.5765
G01 X-68.3255 Y66.5739
G01 X-68.3439 Y66.5721
G01 X-68.4016 Y66.5633
G01 X-68.4583 Y66.5494
G01 X-68.4760 Y66.5440
G01 X-68.5309 Y66.5241
G01 X-68.5920 Y66.4952
G01 X-68.6421 Y66.4654
G01 X-68.6575 Y66.4551
G01 X-68.7043 Y66.4202
G01 X-68.7477 Y66.3812
G01 X-68.7608 Y66.3681
G01 X-68.7998 Y66.3247
G01 X-68.8347 Y66.2779
G01 X-68.8450 Y66.2625
G01 X-68.8748 Y66.2124
G01 X-68.9000 Y66.1597
G01 X-68.9071 Y66.1426
G01 X-68.9265 Y66.0876
G01 X-68.9429 Y66.0220
G01 X-68.9517 Y65.9643
G01 X-68.9535 Y65.9459
G01 X-68.9562 Y65.8876
G01 X-68.9562 Y37.4878
G00 Z2.0000
G00 X-57.0268 Y30.7314
G01 F60.00
G01 Z-2.4000
G01 F120.00
G01 X-56.4340 Y30.7314
G01 X-56.4340 Y28.6004
G01 X-56.4307 Y28.5329
G01 X-56.4207 Y28.4660
G01 X-56.4043 Y28.4004
G01 X-56.3815 Y28.3367
G01 X-56.3526 Y28.2756
G01 X-56.3179 Y28.2176
G01 X-56.2776 Y28.1633
G01 X-56.2322 Y28.1132
G01 X-56.1821 Y28.0678
G01 X-56.1278 Y28.0275
G01 X-56.0778 Y27.9973
G01 X-56.0615 Y27.9886
G01 X-56.0087 Y27.9639
G01 X-55.9450 Y27.9411
G01 X-55.8884 Y27.9267
G01 X-55.8703 Y27.9231
G01 X-55.8171 Y27.9153
G01 X-55.8033 Y27.9141
G01 X-55.7450 Y27.9114
G01 X-53.6087 Y27.9114
G01 X-53.6087 Y27.7458
G01 X-53.6073 Y27.7273
G01 X-53.6051 Y27.7136
G01 X-53.6019 Y27.7001
G01 X-53.5977 Y27.6868
G01 X-53.5925 Y27.6739
G01 X-53.5864 Y27.6614
G01 X-53.5794 Y27.6494
G01 X-53.5716 Y27.6380
G01 X-53.5629 Y27.6271
G01 X-53.5534 Y27.6170
G01 X-53.5433 Y27.6075
G01 X-53.5324 Y27.5988
G01 X-53.5210 Y27.5910
G01 X-53.5090 Y27.5840
G01 X-53.4965 Y27.5779
G01 X-53.4836 Y27.5727
G01 X-53.4703 Y27.5685
G01 X-53.4568 Y27.5653
G01 X-53.4385 Y27.5626
G01 X-53.4246 Y27.5617
G01 X-53.2590 Y27.5617
G01 X-53.2590 Y25.0758
G01 X-53.8261 Y24.5087
G01 X-53.8400 Y24.5091
G01 X-53.8493 Y24.5089
G01 X-53.9369 Y24.5044
G01 X-54.0329 Y24.4901
G01 X-54.1270 Y24.4665
G01 X-54.2184 Y24.4339
G01 X-54.3061 Y24.3924
G01 X-54.3893 Y24.3425
G01 X-54.4672 Y24.2847
G01 X-54.5324 Y24.2259
G01 X-54.5391 Y24.2195
G01 X-54.5486 Y24.2094
G01 X-56.0263 Y24.2094
G01 X-56.0263 Y24.3204
G01 X-56.0268 Y24.3343
G01 X-56.0277 Y24.3435
G01 X-56.0309 Y24.3617
G01 X-56.0358 Y24.3796
G01 X-56.0406 Y24.3926
G01 X-56.0444 Y24.4011
G01 X-56.0531 Y24.4174
G01 X-56.0607 Y24.4291
G01 X-56.0662 Y24.4365
G01 X-56.0752 Y24.4471
G01 X-56.0816 Y24.4538
G01 X-56.0883 Y24.4602
G01 X-56.0989 Y24.4692
G01 X-56.1140 Y24.4798
G01 X-56.1260 Y24.4868
G01 X-56.1343 Y24.4910
G01 X-56.1428 Y24.4948
G01 X-56.1558 Y24.4996
G01 X-56.1647 Y24.5023
G01 X-56.1782 Y24.5055
G01 X-56.1919 Y24.5077
G01 X-56.2011 Y24.5086
G01 X-56.2150 Y24.5091
G01 X-57.8150 Y24.5091
G01 X-57.8335 Y24.5082
G01 X-57.8473 Y24.5063
G01 X-57.8563 Y24.5045
G01 X-57.8698 Y24.5010
G01 X-57.8786 Y24.4981
G01 X-57.8915 Y24.4929
G01 X-57.8999 Y24.4890
G01 X-57.9080 Y24.4846
G01 X-57.9198 Y24.4773
G01 X-57.9274 Y24.4720
G01 X-57.9383 Y24.4633
G01 X-57.9484 Y24.4538
G01 X-57.9579 Y24.4437
G01 X-57.9666 Y24.4328
G01 X-57.9719 Y24.4252
G01 X-57.9792 Y24.4134
G01 X-57.9856 Y24.4011
G01 X-57.9894 Y24.3926
G01 X-57.9942 Y24.3796
G01 X-57.9981 Y24.3663
G01 X-58.0009 Y24.3527
G01 X-58.0028 Y24.3389
G01 X-58.0035 Y24.3297
G01 X-58.0037 Y22.7204
G01 X-58.0028 Y22.7019
G01 X-58.0009 Y22.6881
G01 X-57.9981 Y22.6745
G01 X-57.9942 Y22.6612
G01 X-57.9894 Y22.6482
G01 X-57.9836 Y22.6355
G01 X-57.9769 Y22.6234
G01 X-57.9693 Y22.6117
G01 X-57.9609 Y22.6007
G01 X-57.9517 Y22.5903
G01 X-57.9417 Y22.5806
G01 X-57.9311 Y22.5716
G01 X-57.9198 Y22.5635
G01 X-57.9080 Y22.5562
G01 X-57.8957 Y22.5498
G01 X-57.8829 Y22.5443
G01 X-57.8698 Y22.5398
G01 X-57.8563 Y22.5363
G01 X-57.8427 Y22.5337
G01 X-57.8289 Y22.5322
G01 X-57.8150 Y22.5317
G01 X-56.2057 Y22.5319
G01 X-56.1919 Y22.5331
G01 X-56.1827 Y22.5345
G01 X-56.1737 Y22.5363
G01 X-56.1602 Y22.5398
G01 X-56.1514 Y22.5427
G01 X-56.1385 Y22.5479
G01 X-56.1301 Y22.5518
G01 X-56.1180 Y22.5585
G01 X-56.1063 Y22.5661
G01 X-56.0989 Y22.5716
G01 X-56.0883 Y22.5806
G01 X-56.0816 Y22.5870
G01 X-56.0752 Y22.5937
G01 X-56.0662 Y22.6043
G01 X-56.0607 Y22.6117
G01 X-56.0531 Y22.6234
G01 X-56.0464 Y22.6355
G01 X-56.0425 Y22.6439
G01 X-56.0358 Y22.6612
G01 X-56.0309 Y22.6791
G01 X-56.0277 Y22.6973
G01 X-56.0265 Y22.7111
G01 X-56.0263 Y22.7204
G01 X-56.0263 Y22.8314
G01 X-54.5486 Y22.8314
G01 X-54.5391 Y22.8213
G01 X-54.5324 Y22.8149
G01 X-54.4672 Y22.7561
G01 X-54.3893 Y22.6983
G01 X-54.3061 Y22.6484
G01 X-54.2184 Y22.6069
G01 X-54.1270 Y22.5743
G01 X-54.0329 Y22.5507
G01 X-53.9369 Y22.5364
G01 X-53.8493 Y22.5319
G01 X-53.8354 Y22.5317
G01 X-53.7431 Y22.5364
G01 X-53.6562 Y22.5491
G01 X-53.6381 Y22.5527
G01 X-53.5619 Y22.5718
G01 X-53.5442 Y22.5772
G01 X-53.4703 Y22.6036
G01 X-53.4532 Y22.6107
G01 X-53.3739 Y22.6484
G01 X-53.2985 Y22.6934
G01 X-53.2831 Y22.7036
G01 X-53.2128 Y22.7561
G01 X-53.1476 Y22.8149
G01 X-53.1409 Y22.8213
G01 X-53.1314 Y22.8314
G01 X-52.9940 Y22.8314
G01 X-51.9890 Y21.8264
G01 X-51.9890 Y14.0690
G01 X-51.9991 Y14.0595
G01 X-52.0055 Y14.0528
G01 X-52.0643 Y13.9876
G01 X-52.1221 Y13.9097
G01 X-52.1720 Y13.8265
G01 X-52.2097 Y13.7472
G01 X-52.2168 Y13.7301
G01 X-52.2432 Y13.6562
G01 X-52.2486 Y13.6385
G01 X-52.2697 Y13.5533
G01 X-52.2828 Y13.4665
G01 X-52.2846 Y13.4481
G01 X-52.2887 Y13.3604
G01 X-52.2840 Y13.2635
G01 X-52.2697 Y13.1675
G01 X-52.2486 Y13.0823
G01 X-52.2432 Y13.0646
G01 X-52.2135 Y12.9820
G01 X-52.1761 Y12.9026
G01 X-52.1674 Y12.8863
G01 X-52.1270 Y12.8189
G01 X-52.1168 Y12.8035
G01 X-52.0643 Y12.7332
G01 X-51.9991 Y12.6613
G01 X-51.9272 Y12.5961
G01 X-51.8493 Y12.5383
G01 X-51.7661 Y12.4884
G01 X-51.6868 Y12.4507
G01 X-51.6697 Y12.4436
G01 X-51.5958 Y12.4172
G01 X-51.5781 Y12.4118
G01 X-51.4929 Y12.3907
G01 X-51.4061 Y12.3776
G01 X-51.3877 Y12.3758
G01 X-51.3000 Y12.3717
G01 X-51.2031 Y12.3764
G01 X-51.1071 Y12.3907
G01 X-51.0219 Y12.4118
G01 X-51.0086 Y12.4157
G01 X-50.9216 Y12.4469
G01 X-50.8422 Y12.4843
G01 X-50.8259 Y12.4930
G01 X-50.7507 Y12.5383
G01 X-50.6728 Y12.5961
G01 X-50.6076 Y12.6549
G01 X-50.5945 Y12.6680
G01 X-50.5418 Y12.7261
G01 X-50.5300 Y12.7405
G01 X-50.4779 Y12.8111
G01 X-50.4280 Y12.8943
G01 X-50.3865 Y12.9820
G01 X-50.3568 Y13.0646
G01 X-50.3514 Y13.0823
G01 X-50.3323 Y13.1585
G01 X-50.3287 Y13.1766
G01 X-50.3160 Y13.2635
G01 X-50.3115 Y13.3511
G01 X-50.3115 Y13.3697
G01 X-50.3160 Y13.4573
G01 X-50.3303 Y13.5533
G01 X-50.3539 Y13.6474
G01 X-50.3865 Y13.7388
G01 X-50.4280 Y13.8265
G01 X-50.4779 Y13.9097
G01 X-50.5357 Y13.9876
G01 X-50.5945 Y14.0528
G01 X-50.6009 Y14.0595
G01 X-50.6110 Y14.0690
G01 X-50.6110 Y22.1118
G01 X-50.6137 Y22.1701
G01 X-50.6149 Y22.1839
G01 X-50.6243 Y22.2462
G01 X-50.6382 Y22.3028
G01 X-50.6436 Y22.3206
G01 X-50.6635 Y22.3754
G01 X-50.6924 Y22.4365
G01 X-50.7222 Y22.4867
G01 X-50.7298 Y22.4984
G01 X-50.7449 Y22.5189
G01 X-50.7645 Y22.5452
G01 X-50.7735 Y22.5559
G01 X-50.8128 Y22.5989
G01 X-52.2215 Y24.0076
G01 X-52.2680 Y24.0500
G01 X-52.2789 Y24.0587
G01 X-52.3067 Y24.0793
G01 X-52.0796 Y24.3065
G01 X-52.0374 Y24.3533
G01 X-51.9971 Y24.4076
G01 X-51.9624 Y24.4656
G01 X-51.9372 Y24.5183
G01 X-51.9301 Y24.5354
G01 X-51.9107 Y24.5904
G01 X-51.8963 Y24.6470
G01 X-51.8934 Y24.6605
G01 X-51.8855 Y24.7137
G01 X-51.8837 Y24.7321
G01 X-51.8810 Y24.7904
G01 X-51.8810 Y27.5617
G01 X-51.7200 Y27.5617
G01 X-51.7061 Y27.5622
G01 X-51.6877 Y27.5645
G01 X-51.6741 Y27.5673
G01 X-51.6608 Y27.5712
G01 X-51.6435 Y27.5779
G01 X-51.6351 Y27.5818
G01 X-51.6230 Y27.5885
G01 X-51.6113 Y27.5961
G01 X-51.6039 Y27.6016
G01 X-51.5967 Y27.6075
G01 X-51.5866 Y27.6170
G01 X-51.5771 Y27.6271
G01 X-51.5712 Y27.6343
G01 X-51.5631 Y27.6456
G01 X-51.5581 Y27.6534
G01 X-51.5514 Y27.6655
G01 X-51.5475 Y27.6739
G01 X-51.5439 Y27.6825
G01 X-51.5394 Y27.6956
G01 X-51.5359 Y27.7091
G01 X-51.5341 Y27.7181
G01 X-51.5318 Y27.7365
G01 X-51.5313 Y27.7504
G01 X-51.5313 Y29.4504
G01 X-51.5322 Y29.4689
G01 X-51.5341 Y29.4827
G01 X-51.5381 Y29.5007
G01 X-51.5423 Y29.5140
G01 X-51.5494 Y29.5311
G01 X-51.5558 Y29.5434
G01 X-51.5631 Y29.5552
G01 X-51.5712 Y29.5665
G01 X-51.5802 Y29.5771
G01 X-51.5933 Y29.5902
G01 X-51.6039 Y29.5992
G01 X-51.6190 Y29.6098
G01 X-51.6310 Y29.6168
G01 X-51.6435 Y29.6229
G01 X-51.6564 Y29.6281
G01 X-51.6741 Y29.6335
G01 X-51.6877 Y29.6363
G01 X-51.7061 Y29.6386
G01 X-51.7200 Y29.6391
G01 X-53.4293 Y29.6389
G01 X-53.4385 Y29.6382
G01 X-53.4523 Y29.6363
G01 X-53.4613 Y29.6345
G01 X-53.4748 Y29.6310
G01 X-53.4879 Y29.6265
G01 X-53.4965 Y29.6229
G01 X-53.5090 Y29.6168
G01 X-53.5210 Y29.6098
G01 X-53.5287 Y29.6047
G01 X-53.5397 Y29.5963
G01 X-53.5501 Y29.5871
G01 X-53.5598 Y29.5771
G01 X-53.5688 Y29.5665
G01 X-53.5769 Y29.5552
G01 X-53.5819 Y29.5474
G01 X-53.5886 Y29.5353
G01 X-53.5961 Y29.5183
G01 X-53.6019 Y29.5007
G01 X-53.6059 Y29.4827
G01 X-53.6082 Y29.4643
G01 X-53.6087 Y29.4504
G01 X-53.6087 Y29.2894
G01 X-55.0560 Y29.2894
G01 X-55.0560 Y30.7891
G01 X-55.0223 Y30.7908
G01 X-55.0085 Y30.7920
G01 X-54.9262 Y30.8041
G01 X-54.9126 Y30.8066
G01 X-54.8230 Y30.8293
G01 X-54.7403 Y30.8586
G01 X-54.7274 Y30.8638
G01 X-54.6439 Y30.9034
G01 X-54.5607 Y30.9533
G01 X-54.4828 Y31.0111
G01 X-54.4176 Y31.0699
G01 X-54.4076 Y31.0796
G01 X-54.3457 Y31.1482
G01 X-54.2879 Y31.2261
G01 X-54.2380 Y31.3093
G01 X-54.1965 Y31.3970
G01 X-54.1639 Y31.4884
G01 X-54.1403 Y31.5825
G01 X-54.1260 Y31.6785
G01 X-54.1215 Y31.7661
G01 X-54.1215 Y31.7847
G01 X-54.1260 Y31.8723
G01 X-54.1387 Y31.9592
G01 X-54.1423 Y31.9773
G01 X-54.1639 Y32.0624
G01 X-54.1932 Y32.1451
G01 X-54.2003 Y32.1622
G01 X-54.2339 Y32.2332
G01 X-54.2426 Y32.2495
G01 X-54.2879 Y32.3247
G01 X-54.3457 Y32.4026
G01 X-54.4109 Y32.4745
G01 X-54.4757 Y32.5336
G01 X-54.4864 Y32.5426
G01 X-54.5607 Y32.5975
G01 X-54.6359 Y32.6428
G01 X-54.6522 Y32.6515
G01 X-54.7316 Y32.6889
G01 X-54.8142 Y32.7186
G01 X-54.8319 Y32.7240
G01 X-54.9126 Y32.7442
G01 X-54.9262 Y32.7467
G01 X-55.0131 Y32.7594
G01 X-55.1007 Y32.7639
G01 X-55.1146 Y32.7641
G01 X-55.1977 Y32.7600
G01 X-55.2115 Y32.7588
G01 X-55.2983 Y32.7460
G01 X-55.3119 Y32.7431
G01 X-55.3410 Y32.7358
G01 X-55.3410 Y35.2600
G01 X-55.3119 Y35.2527
G01 X-55.2983 Y35.2498
G01 X-55.2115 Y35.2370
G01 X-55.1977 Y35.2358
G01 X-55.1146 Y35.2317
G01 X-55.1007 Y35.2319
G01 X-55.0131 Y35.2364
G01 X-54.9262 Y35.2491
G01 X-54.9126 Y35.2516
G01 X-54.8230 Y35.2743
G01 X-54.7403 Y35.3036
G01 X-54.7232 Y35.3107
G01 X-54.6439 Y35.3484
G01 X-54.5685 Y35.3934
G01 X-54.5531 Y35.4036
G01 X-54.4864 Y35.4532
G01 X-54.4757 Y35.4622
G01 X-54.4109 Y35.5213
G01 X-54.3518 Y35.5861
G01 X-54.3400 Y35.6005
G01 X-54.2879 Y35.6711
G01 X-54.2426 Y35.7463
G01 X-54.2339 Y35.7626
G01 X-54.2003 Y35.8336
G01 X-54.1932 Y35.8507
G01 X-54.1639 Y35.9334
G01 X-54.1403 Y36.0275
G01 X-54.1260 Y36.1235
G01 X-54.1215 Y36.2111
G01 X-54.1215 Y36.2297
G01 X-54.1260 Y36.3173
G01 X-54.1387 Y36.4042
G01 X-54.1423 Y36.4223
G01 X-54.1614 Y36.4985
G01 X-54.1668 Y36.5162
G01 X-54.1965 Y36.5988
G01 X-54.2380 Y36.6865
G01 X-54.2879 Y36.7697
G01 X-54.3400 Y36.8403
G01 X-54.3518 Y36.8547
G01 X-54.4109 Y36.9195
G01 X-54.4757 Y36.9786
G01 X-54.4901 Y36.9904
G01 X-54.5569 Y37.0399
G01 X-54.5685 Y37.0474
G01 X-54.6439 Y37.0924
G01 X-54.7232 Y37.1301
G01 X-54.7403 Y37.1372
G01 X-54.8230 Y37.1665
G01 X-54.9081 Y37.1881
G01 X-54.9262 Y37.1917
G01 X-55.0085 Y37.2038
G01 X-55.0223 Y37.2050
G01 X-55.1100 Y37.2091
G01 X-55.1977 Y37.2050
G01 X-55.2115 Y37.2038
G01 X-55.2938 Y37.1917
G01 X-55.3074 Y37.1892
G01 X-55.3926 Y37.1678
G01 X-55.4058 Y37.1636
G01 X-55.4411 Y37.1510
G01 X-55.4411 Y38.2379
G01 X-55.4439 Y38.2956
G01 X-55.4510 Y38.3446
G01 X-55.4371 Y38.3578
G01 X-55.4250 Y38.3718
G01 X-55.4143 Y38.3869
G01 X-55.4052 Y38.4030
G01 X-55.3977 Y38.4200
G01 X-55.3919 Y38.4376
G01 X-55.3878 Y38.4556
G01 X-55.3855 Y38.4740
G01 X-55.3850 Y38.4879
G01 X-55.3853 Y39.3472
G01 X-55.3864 Y39.3610
G01 X-55.3896 Y39.3792
G01 X-55.3946 Y39.3971
G01 X-55.3994 Y39.4101
G01 X-55.4052 Y39.4228
G01 X-55.4119 Y39.4349
G01 X-55.4222 Y39.4503
G01 X-55.4308 Y39.4612
G01 X-55.4436 Y39.4746
G01 X-55.4540 Y39.4838
G01 X-55.4689 Y39.4948
G01 X-55.4807 Y39.5021
G01 X-55.4931 Y39.5085
G01 X-55.5102 Y39.5156
G01 X-55.5234 Y39.5198
G01 X-55.5415 Y39.5238
G01 X-55.5553 Y39.5257
G01 X-55.5738 Y39.5266
G01 X-56.4862 Y39.5266
G01 X-56.5001 Y39.5261
G01 X-56.5139 Y39.5246
G01 X-56.5276 Y39.5220
G01 X-56.5410 Y39.5185
G01 X-56.5542 Y39.5140
G01 X-56.5711 Y39.5065
G01 X-56.5833 Y39.4998
G01 X-56.5987 Y39.4895
G01 X-56.6095 Y39.4808
G01 X-56.6197 Y39.4713
G01 X-56.6292 Y39.4612
G01 X-56.6378 Y39.4503
G01 X-56.6457 Y39.4389
G01 X-56.6527 Y39.4269
G01 X-56.6606 Y39.4101
G01 X-56.6654 Y39.3971
G01 X-56.6693 Y39.3838
G01 X-56.6722 Y39.3702
G01 X-56.6745 Y39.3518
G01 X-56.6750 Y39.3379
G01 X-56.6750 Y38.4879
G01 X-56.6745 Y38.4740
G01 X-56.6722 Y38.4556
G01 X-56.6681 Y38.4376
G01 X-56.6623 Y38.4200
G01 X-56.6548 Y38.4030
G01 X-56.6457 Y38.3869
G01 X-56.6350 Y38.3718
G01 X-56.6229 Y38.3578
G01 X-56.6090 Y38.3446
G01 X-56.6161 Y38.2956
G01 X-56.6189 Y38.2379
G01 X-56.6189 Y36.2918
G01 X-56.6354 Y36.2642
G01 X-56.6398 Y36.2561
G01 X-56.6647 Y36.2033
G01 X-56.6699 Y36.1904
G01 X-56.6864 Y36.1442
G01 X-56.6906 Y36.1309
G01 X-56.7057 Y36.0698
G01 X-56.7145 Y36.0121
G01 X-56.7163 Y35.9937
G01 X-56.7189 Y35.9400
G01 X-56.7190 Y32.3679
G01 X-56.7688 Y32.4127
G01 X-56.8391 Y32.4652
G01 X-56.8545 Y32.4754
G01 X-56.9299 Y32.5204
G01 X-57.0092 Y32.5581
G01 X-57.0263 Y32.5652
G01 X-57.1090 Y32.5945
G01 X-57.1986 Y32.6172
G01 X-57.2122 Y32.6197
G01 X-57.2991 Y32.6324
G01 X-57.3867 Y32.6369
G01 X-57.4053 Y32.6369
G01 X-57.4929 Y32.6324
G01 X-57.5798 Y32.6197
G01 X-57.5979 Y32.6161
G01 X-57.6741 Y32.5970
G01 X-57.6874 Y32.5931
G01 X-57.7744 Y32.5619
G01 X-57.8538 Y32.5245
G01 X-57.8701 Y32.5158
G01 X-57.9453 Y32.4705
G01 X-58.0159 Y32.4184
G01 X-58.0303 Y32.4066
G01 X-58.0951 Y32.3475
G01 X-58.1542 Y32.2827
G01 X-58.1660 Y32.2683
G01 X-58.2181 Y32.1977
G01 X-58.2634 Y32.1225
G01 X-58.2721 Y32.1062
G01 X-58.3095 Y32.0268
G01 X-58.3392 Y31.9442
G01 X-58.3446 Y31.9265
G01 X-58.3637 Y31.8503
G01 X-58.3666 Y31.8367
G01 X-58.3800 Y31.7453
G01 X-58.3845 Y31.6577
G01 X-58.3845 Y31.6391
G01 X-58.3800 Y31.5515
G01 X-58.3673 Y31.4646
G01 X-58.3637 Y31.4465
G01 X-58.3421 Y31.3614
G01 X-58.3128 Y31.2787
G01 X-58.3057 Y31.2616
G01 X-58.2680 Y31.1823
G01 X-58.2230 Y31.1069
G01 X-58.2128 Y31.0915
G01 X-58.1603 Y31.0212
G01 X-58.1015 Y30.9560
G01 X-58.0884 Y30.9429
G01 X-58.0232 Y30.8841
G01 X-57.9529 Y30.8316
G01 X-57.9375 Y30.8214
G01 X-57.8621 Y30.7764
G01 X-57.7828 Y30.7387
G01 X-57.7657 Y30.7316
G01 X-57.6830 Y30.7023
G01 X-57.5979 Y30.6807
G01 X-57.5798 Y30.6771
G01 X-57.4929 Y30.6644
G01 X-57.4053 Y30.6599
G01 X-57.3867 Y30.6599
G01 X-57.2991 Y30.6644
G01 X-57.2122 Y30.6771
G01 X-57.1941 Y30.6807
G01 X-57.1090 Y30.7023
G01 X-57.0268 Y30.7314
G00 Z2.0000
G00 X-55.1189 Y38.3537
G01 F60.00
G01 Z-2.4000
G01 F120.00
G01 X-55.1189 Y37.9218
G01 X-55.1161 Y37.8687
G01 X-55.1085 Y37.8161
G01 X-55.1056 Y37.8025
G01 X-55.0936 Y37.7554
G01 X-55.0774 Y37.7097
G01 X-55.0703 Y37.6926
G01 X-55.0494 Y37.6488
G01 X-55.0246 Y37.6070
G01 X-55.0170 Y37.5954
G01 X-54.9909 Y37.5601
G01 X-54.9792 Y37.5458
G01 X-54.9464 Y37.5100
G01 X-54.5104 Y37.0740
G01 X-54.4746 Y37.0412
G01 X-54.4640 Y37.0323
G01 X-54.4212 Y37.0007
G01 X-54.3716 Y36.9710
G01 X-54.3194 Y36.9463
G01 X-54.2737 Y36.9297
G01 X-54.2605 Y36.9255
G01 X-54.2179 Y36.9148
G01 X-54.1998 Y36.9112
G01 X-54.1609 Y36.9054
G01 X-54.1471 Y36.9039
G01 X-54.1033 Y36.9017
G01 X-54.0839 Y36.9015
G01 X-53.9209 Y36.7385
G01 X-53.9209 Y34.8636
G01 X-53.9557 Y34.8512
G01 X-53.9686 Y34.8460
G01 X-54.0438 Y34.8105
G01 X-54.0561 Y34.8041
G01 X-54.1353 Y34.7565
G01 X-54.2059 Y34.7044
G01 X-54.2168 Y34.6957
G01 X-54.2851 Y34.6335
G01 X-54.3503 Y34.5616
G01 X-54.4081 Y34.4837
G01 X-54.4534 Y34.4085
G01 X-54.4601 Y34.3964
G01 X-54.4995 Y34.3128
G01 X-54.5321 Y34.2214
G01 X-54.5557 Y34.1273
G01 X-54.5700 Y34.0313
G01 X-54.5747 Y33.9344
G01 X-54.5700 Y33.8375
G01 X-54.5557 Y33.7415
G01 X-54.5346 Y33.6563
G01 X-54.5307 Y33.6430
G01 X-54.4995 Y33.5560
G01 X-54.4580 Y33.4683
G01 X-54.4081 Y33.3851
G01 X-54.3503 Y33.3072
G01 X-54.2851 Y33.2353
G01 X-54.2132 Y33.1701
G01 X-54.1353 Y33.1123
G01 X-54.0521 Y33.0624
G01 X-53.9644 Y33.0209
G01 X-53.8730 Y32.9883
G01 X-53.7789 Y32.9647
G01 X-53.6829 Y32.9504
G01 X-53.5860 Y32.9457
G01 X-53.4891 Y32.9504
G01 X-53.3931 Y32.9647
G01 X-53.3079 Y32.9858
G01 X-53.2946 Y32.9897
G01 X-53.2076 Y33.0209
G01 X-53.1282 Y33.0583
G01 X-53.1119 Y33.0670
G01 X-53.0367 Y33.1123
G01 X-52.9588 Y33.1701
G01 X-52.8936 Y33.2289
G01 X-52.8805 Y33.2420
G01 X-52.8217 Y33.3072
G01 X-52.7639 Y33.3851
G01 X-52.7186 Y33.4603
G01 X-52.7099 Y33.4766
G01 X-52.6725 Y33.5560
G01 X-52.6428 Y33.6386
G01 X-52.6374 Y33.6563
G01 X-52.6163 Y33.7415
G01 X-52.6026 Y33.8329
G01 X-52.6014 Y33.8467
G01 X-52.5973 Y33.9344
G01 X-52.6014 Y34.0221
G01 X-52.6032 Y34.0405
G01 X-52.6147 Y34.1182
G01 X-52.6172 Y34.1318
G01 X-52.6399 Y34.2214
G01 X-52.6708 Y34.3085
G01 X-52.6763 Y34.3212
G01 X-52.7119 Y34.3964
G01 X-52.7186 Y34.4085
G01 X-52.7431 Y34.4494
G01 X-52.7431 Y36.9824
G01 X-52.7459 Y37.0401
G01 X-52.7528 Y37.0882
G01 X-52.7564 Y37.1063
G01 X-52.7660 Y37.1444
G01 X-52.7698 Y37.1578
G01 X-52.7879 Y37.2078
G01 X-52.8126 Y37.2600
G01 X-52.8423 Y37.3096
G01 X-52.8711 Y37.3487
G01 X-52.8797 Y37.3596
G01 X-52.9156 Y37.3988
G01 X-53.4236 Y37.9068
G01 X-53.4628 Y37.9427
G01 X-53.4737 Y37.9513
G01 X-53.5128 Y37.9801
G01 X-53.5624 Y38.0098
G01 X-53.6146 Y38.0345
G01 X-53.6603 Y38.0511
G01 X-53.6735 Y38.0553
G01 X-53.7161 Y38.0660
G01 X-53.7342 Y38.0696
G01 X-53.7731 Y38.0754
G01 X-53.7869 Y38.0769
G01 X-53.8307 Y38.0791
G01 X-53.8501 Y38.0793
G01 X-53.9411 Y38.1703
G01 X-53.9411 Y38.3537
G01 X-53.9308 Y38.3646
G01 X-53.9195 Y38.3792
G01 X-53.9095 Y38.3949
G01 X-53.9012 Y38.4114
G01 X-53.8946 Y38.4287
G01 X-53.8896 Y38.4466
G01 X-53.8864 Y38.4648
G01 X-53.8853 Y38.4786
G01 X-53.8851 Y39.3425
G01 X-53.8859 Y39.3564
G01 X-53.8878 Y39.3702
G01 X-53.8896 Y39.3792
G01 X-53.8932 Y39.3927
G01 X-53.8977 Y39.4058
G01 X-53.9031 Y39.4186
G01 X-53.9095 Y39.4309
G01 X-53.9143 Y39.4389
G01 X-53.9222 Y39.4503
G01 X-53.9308 Y39.4612
G01 X-53.9403 Y39.4713
G01 X-53.9470 Y39.4777
G01 X-53.9576 Y39.4867
G01 X-53.9689 Y39.4948
G01 X-53.9767 Y39.4998
G01 X-53.9889 Y39.5065
G01 X-54.0058 Y39.5140
G01 X-54.0190 Y39.5185
G01 X-54.0279 Y39.5210
G01 X-54.0461 Y39.5246
G01 X-54.0553 Y39.5257
G01 X-54.0691 Y39.5266
G01 X-54.9909 Y39.5266
G01 X-55.0094 Y39.5252
G01 X-55.0276 Y39.5220
G01 X-55.0410 Y39.5185
G01 X-55.0585 Y39.5123
G01 X-55.0752 Y39.5043
G01 X-55.0911 Y39.4948
G01 X-55.1060 Y39.4838
G01 X-55.1197 Y39.4713
G01 X-55.1321 Y39.4576
G01 X-55.1432 Y39.4427
G01 X-55.1527 Y39.4269
G01 X-55.1588 Y39.4144
G01 X-55.1654 Y39.3971
G01 X-55.1704 Y39.3792
G01 X-55.1736 Y39.3610
G01 X-55.1747 Y39.3472
G01 X-55.1750 Y38.4879
G01 X-55.1741 Y38.4694
G01 X-55.1713 Y38.4511
G01 X-55.1668 Y38.4331
G01 X-55.1606 Y38.4157
G01 X-55.1527 Y38.3989
G01 X-55.1432 Y38.3831
G01 X-55.1321 Y38.3682
G01 X-55.1261 Y38.3612
G01 X-55.1189 Y38.3537
G00 Z2.0000
G00 X-52.5738 Y38.2992
G01 F60.00
G01 Z-2.4000
G01 F120.00
G01 X-52.5553 Y38.3001
G01 X-52.5369 Y38.3028
G01 X-52.5190 Y38.3073
G01 X-52.5058 Y38.3118
G01 X-52.4931 Y38.3173
G01 X-52.4767 Y38.3260
G01 X-52.4613 Y38.3363
G01 X-52.4470 Y38.3481
G01 X-52.4339 Y38.3612
G01 X-52.4250 Y38.3718
G01 X-52.4168 Y38.3831
G01 X-52.4073 Y38.3989
G01 X-52.3994 Y38.4157
G01 X-52.3946 Y38.4287
G01 X-52.3896 Y38.4466
G01 X-52.3864 Y38.4648
G01 X-52.3855 Y38.4740
G01 X-52.3850 Y38.4879
G01 X-52.3853 Y39.3472
G01 X-52.3864 Y39.3610
G01 X-52.3887 Y39.3747
G01 X-52.3919 Y39.3882
G01 X-52.3977 Y39.4058
G01 X-52.4052 Y39.4228
G01 X-52.4119 Y39.4349
G01 X-52.4195 Y39.4466
G01 X-52.4308 Y39.4612
G01 X-52.4403 Y39.4713
G01 X-52.4470 Y39.4777
G01 X-52.4613 Y39.4895
G01 X-52.4767 Y39.4998
G01 X-52.4931 Y39.5085
G01 X-52.5058 Y39.5140
G01 X-52.5146 Y39.5171
G01 X-52.5324 Y39.5220
G01 X-52.5506 Y39.5252
G01 X-52.5691 Y39.5266
G01 X-53.4955 Y39.5264
G01 X-53.5094 Y39.5252
G01 X-53.5231 Y39.5230
G01 X-53.5410 Y39.5185
G01 X-53.5542 Y39.5140
G01 X-53.5711 Y39.5065
G01 X-53.5833 Y39.4998
G01 X-53.5987 Y39.4895
G01 X-53.6095 Y39.4808
G01 X-53.6229 Y39.4680
G01 X-53.6350 Y39.4540
G01 X-53.6457 Y39.4389
G01 X-53.6527 Y39.4269
G01 X-53.6569 Y39.4186
G01 X-53.6606 Y39.4101
G01 X-53.6654 Y39.3971
G01 X-53.6704 Y39.3792
G01 X-53.6736 Y39.3610
G01 X-53.6749 Y39.3425
G01 X-53.6747 Y38.4786
G01 X-53.6736 Y38.4648
G01 X-53.6704 Y38.4466
G01 X-53.6654 Y38.4287
G01 X-53.6606 Y38.4157
G01 X-53.6527 Y38.3989
G01 X-53.6457 Y38.3869
G01 X-53.6378 Y38.3755
G01 X-53.6292 Y38.3646
G01 X-53.6164 Y38.3512
G01 X-53.6024 Y38.3391
G01 X-53.5872 Y38.3285
G01 X-53.5711 Y38.3193
G01 X-53.5542 Y38.3118
G01 X-53.5366 Y38.3060
G01 X-53.5185 Y38.3020
G01 X-53.5001 Y38.2997
G01 X-53.4862 Y38.2992
G01 X-52.5738 Y38.2992
G00 Z2.0000
G00 X-52.1189 Y38.3537
G01 F60.00
G01 Z-2.4000
G01 F120.00
G01 X-52.1189 Y34.2668
G01 X-52.1354 Y34.2392
G01 X-52.1398 Y34.2311
G01 X-52.1628 Y34.1825
G01 X-52.1682 Y34.1698
G01 X-52.1893 Y34.1104
G01 X-52.2037 Y34.0538
G01 X-52.2066 Y34.0403
G01 X-52.2157 Y33.9779
G01 X-52.2190 Y33.9104
G01 X-52.2157 Y33.8429
G01 X-52.2073 Y33.7851
G01 X-52.2048 Y33.7715
G01 X-52.1918 Y33.7193
G01 X-52.1864 Y33.7016
G01 X-52.1665 Y33.6467
G01 X-52.1418 Y33.5939
G01 X-52.1331 Y33.5776
G01 X-52.1029 Y33.5276
G01 X-52.0683 Y33.4806
G01 X-52.0565 Y33.4663
G01 X-52.0172 Y33.4232
G01 X-50.7190 Y32.1250
G01 X-50.7190 Y29.3764
G01 X-50.7578 Y29.3413
G01 X-50.7677 Y29.3316
G01 X-50.8269 Y29.2664
G01 X-50.8358 Y29.2557
G01 X-50.8937 Y29.1775
G01 X-50.9438 Y29.0941
G01 X-50.9502 Y29.0818
G01 X-50.9859 Y29.0064
G01 X-50.9930 Y28.9893
G01 X-51.0240 Y28.9019
G01 X-51.0478 Y28.8076
G01 X-51.0503 Y28.7939
G01 X-51.0626 Y28.7114
G01 X-51.0644 Y28.6930
G01 X-51.0687 Y28.6004
G01 X-51.0637 Y28.4986
G01 X-51.0503 Y28.4069
G01 X-51.0467 Y28.3887
G01 X-51.0240 Y28.2989
G01 X-50.9914 Y28.2072
G01 X-50.9859 Y28.1944
G01 X-50.9461 Y28.1108
G01 X-50.8986 Y28.0311
G01 X-50.8883 Y28.0157
G01 X-50.8386 Y27.9487
G01 X-50.8269 Y27.9344
G01 X-50.7645 Y27.8659
G01 X-50.6890 Y27.7975
G01 X-50.6071 Y27.7367
G01 X-50.5196 Y27.6843
G01 X-50.4275 Y27.6407
G01 X-50.3315 Y27.6064
G01 X-50.2326 Y27.5816
G01 X-50.1410 Y27.5678
G01 X-50.1226 Y27.5660
G01 X-50.0393 Y27.5619
G01 X-50.0207 Y27.5619
G01 X-49.9282 Y27.5667
G01 X-49.8365 Y27.5801
G01 X-49.8228 Y27.5826
G01 X-49.7285 Y27.6064
G01 X-49.6411 Y27.6374
G01 X-49.6240 Y27.6445
G01 X-49.5486 Y27.6802
G01 X-49.5323 Y27.6889
G01 X-49.4529 Y27.7367
G01 X-49.3710 Y27.7975
G01 X-49.2955 Y27.8659
G01 X-49.2331 Y27.9344
G01 X-49.2214 Y27.9487
G01 X-49.1717 Y28.0157
G01 X-49.1614 Y28.0311
G01 X-49.1139 Y28.1108
G01 X-49.0703 Y28.2029
G01 X-49.0389 Y28.2901
G01 X-49.0335 Y28.3078
G01 X-49.0112 Y28.3978
G01 X-48.9963 Y28.4986
G01 X-48.9913 Y28.6004
G01 X-48.9956 Y28.6930
G01 X-48.9974 Y28.7114
G01 X-49.0112 Y28.8030
G01 X-49.0335 Y28.8930
G01 X-49.0389 Y28.9107
G01 X-49.0686 Y28.9936
G01 X-49.0741 Y29.0064
G01 X-49.1139 Y29.0900
G01 X-49.1614 Y29.1697
G01 X-49.1690 Y29.1813
G01 X-49.2214 Y29.2521
G01 X-49.2300 Y29.2629
G01 X-49.2955 Y29.3349
G01 X-49.3410 Y29.3764
G01 X-49.3410 Y32.4104
G01 X-49.3443 Y32.4779
G01 X-49.3543 Y32.5448
G01 X-49.3682 Y32.6015
G01 X-49.3736 Y32.6192
G01 X-49.3935 Y32.6741
G01 X-49.4224 Y32.7352
G01 X-49.4522 Y32.7853
G01 X-49.4625 Y32.8007
G01 X-49.4917 Y32.8402
G01 X-49.5004 Y32.8510
G01 X-49.5428 Y32.8976
G01 X-50.9411 Y34.2958
G01 X-50.9411 Y38.3537
G01 X-50.9339 Y38.3612
G01 X-50.9279 Y38.3682
G01 X-50.9168 Y38.3831
G01 X-50.9073 Y38.3989
G01 X-50.8994 Y38.4157
G01 X-50.8932 Y38.4331
G01 X-50.8887 Y38.4511
G01 X-50.8859 Y38.4694
G01 X-50.8850 Y38.4879
G01 X-50.8853 Y39.3472
G01 X-50.8864 Y39.3610
G01 X-50.8896 Y39.3792
G01 X-50.8946 Y39.3971
G01 X-50.8994 Y39.4101
G01 X-50.9073 Y39.4269
G01 X-50.9168 Y39.4427
G01 X-50.9250 Y39.4540
G01 X-50.9371 Y39.4680
G01 X-50.9505 Y39.4808
G01 X-50.9651 Y39.4922
G01 X-50.9807 Y39.5021
G01 X-50.9973 Y39.5104
G01 X-51.0146 Y39.5171
G01 X-51.0324 Y39.5220
G01 X-51.0415 Y39.5238
G01 X-51.0553 Y39.5257
G01 X-51.0738 Y39.5266
G01 X-51.9955 Y39.5264
G01 X-52.0139 Y39.5246
G01 X-52.0276 Y39.5220
G01 X-52.0410 Y39.5185
G01 X-52.0585 Y39.5123
G01 X-52.0711 Y39.5065
G01 X-52.0872 Y39.4973
G01 X-52.1024 Y39.4867
G01 X-52.1164 Y39.4746
G01 X-52.1292 Y39.4612
G01 X-52.1405 Y39.4466
G01 X-52.1505 Y39.4309
G01 X-52.1588 Y39.4144
G01 X-52.1654 Y39.3971
G01 X-52.1681 Y39.3882
G01 X-52.1713 Y39.3747
G01 X-52.1741 Y39.3564
G01 X-52.1750 Y39.3379
G01 X-52.1747 Y38.4786
G01 X-52.1736 Y38.4648
G01 X-52.1704 Y38.4466
G01 X-52.1654 Y38.4287
G01 X-52.1588 Y38.4114
G01 X-52.1505 Y38.3949
G01 X-52.1405 Y38.3792
G01 X-52.1292 Y38.3646
G01 X-52.1189 Y38.3537
G00 Z2.0000
G00 X-50.6189 Y38.3537
G01 F60.00
G01 Z-2.4000
G01 F120.00
G01 X-50.6189 Y35.9418
G01 X-50.6354 Y35.9142
G01 X-50.6398 Y35.9061
G01 X-50.6647 Y35.8533
G01 X-50.6699 Y35.8404
G01 X-50.6864 Y35.7942
G01 X-50.6906 Y35.7809
G01 X-50.7057 Y35.7198
G01 X-50.7145 Y35.6621
G01 X-50.7163 Y35.6437
G01 X-50.7189 Y35.5900
G01 X-50.7187 Y35.5761
G01 X-50.7157 Y35.5179
G01 X-50.7057 Y35.4510
G01 X-50.6893 Y35.3854
G01 X-50.6699 Y35.3304
G01 X-50.6647 Y35.3175
G01 X-50.6376 Y35.2606
G01 X-50.6029 Y35.2026
G01 X-50.5626 Y35.1483
G01 X-50.5204 Y35.1015
G01 X-48.1790 Y32.7600
G01 X-48.1790 Y29.3764
G01 X-48.2245 Y29.3349
G01 X-48.2900 Y29.2629
G01 X-48.2986 Y29.2521
G01 X-48.3483 Y29.1851
G01 X-48.3562 Y29.1736
G01 X-48.4061 Y29.0900
G01 X-48.4459 Y29.0064
G01 X-48.4530 Y28.9893
G01 X-48.4811 Y28.9107
G01 X-48.4853 Y28.8975
G01 X-48.5088 Y28.8030
G01 X-48.5226 Y28.7114
G01 X-48.5244 Y28.6930
G01 X-48.5287 Y28.6004
G01 X-48.5237 Y28.4986
G01 X-48.5103 Y28.4069
G01 X-48.5067 Y28.3887
G01 X-48.4865 Y28.3078
G01 X-48.4826 Y28.2945
G01 X-48.4497 Y28.2029
G01 X-48.4061 Y28.1108
G01 X-48.3537 Y28.0233
G01 X-48.2929 Y27.9414
G01 X-48.2245 Y27.8659
G01 X-48.1490 Y27.7975
G01 X-48.0671 Y27.7367
G01 X-47.9796 Y27.6843
G01 X-47.8875 Y27.6407
G01 X-47.7915 Y27.6064
G01 X-47.6926 Y27.5816
G01 X-47.5918 Y27.5667
G01 X-47.4900 Y27.5617
G01 X-47.3882 Y27.5667
G01 X-47.2874 Y27.5816
G01 X-47.1974 Y27.6039
G01 X-47.1841 Y27.6078
G01 X-47.0925 Y27.6407
G01 X-47.0086 Y27.6802
G01 X-46.9923 Y27.6889
G01 X-46.9129 Y27.7367
G01 X-46.8310 Y27.7975
G01 X-46.7622 Y27.8595
G01 X-46.7491 Y27.8726
G01 X-46.6871 Y27.9414
G01 X-46.6263 Y28.0233
G01 X-46.5785 Y28.1027
G01 X-46.5698 Y28.1190
G01 X-46.5303 Y28.2029
G01 X-46.4960 Y28.2989
G01 X-46.4733 Y28.3887
G01 X-46.4697 Y28.4069
G01 X-46.4574 Y28.4894
G01 X-46.4559 Y28.5032
G01 X-46.4513 Y28.6004
G01 X-46.4556 Y28.6930
G01 X-46.4574 Y28.7114
G01 X-46.4712 Y28.8030
G01 X-46.4935 Y28.8930
G01 X-46.4989 Y28.9107
G01 X-46.5286 Y28.9936
G01 X-46.5341 Y29.0064
G01 X-46.5739 Y29.0900
G01 X-46.6214 Y29.1697
G01 X-46.6290 Y29.1813
G01 X-46.6814 Y29.2521
G01 X-46.6900 Y29.2629
G01 X-46.7555 Y29.3349
G01 X-46.8010 Y29.3764
G01 X-46.8010 Y33.0454
G01 X-46.8043 Y33.1129
G01 X-46.8127 Y33.1707
G01 X-46.8163 Y33.1888
G01 X-46.8282 Y33.2365
G01 X-46.8321 Y33.2498
G01 X-46.8501 Y33.3004
G01 X-46.8572 Y33.3175
G01 X-46.8824 Y33.3702
G01 X-46.9122 Y33.4203
G01 X-46.9225 Y33.4357
G01 X-46.9574 Y33.4825
G01 X-46.9996 Y33.5293
G01 X-49.4411 Y35.9708
G01 X-49.4411 Y38.3537
G01 X-49.4339 Y38.3612
G01 X-49.4279 Y38.3682
G01 X-49.4168 Y38.3831
G01 X-49.4073 Y38.3989
G01 X-49.3994 Y38.4157
G01 X-49.3932 Y38.4331
G01 X-49.3887 Y38.4511
G01 X-49.3859 Y38.4694
G01 X-49.3850 Y38.4879
G01 X-49.3853 Y39.3472
G01 X-49.3864 Y39.3610
G01 X-49.3896 Y39.3792
G01 X-49.3946 Y39.3971
G01 X-49.3994 Y39.4101
G01 X-49.4073 Y39.4269
G01 X-49.4168 Y39.4427
G01 X-49.4250 Y39.4540
G01 X-49.4371 Y39.4680
G01 X-49.4505 Y39.4808
G01 X-49.4651 Y39.4922
G01 X-49.4807 Y39.5021
G01 X-49.4973 Y39.5104
G01 X-49.5146 Y39.5171
G01 X-49.5324 Y39.5220
G01 X-49.5415 Y39.5238
G01 X-49.5553 Y39.5257
G01 X-49.5738 Y39.5266
G01 X-50.4955 Y39.5264
G01 X-50.5139 Y39.5246
G01 X-50.5276 Y39.5220
G01 X-50.5410 Y39.5185
G01 X-50.5585 Y39.5123
G01 X-50.5711 Y39.5065
G01 X-50.5872 Y39.4973
G01 X-50.6024 Y39.4867
G01 X-50.6164 Y39.4746
G01 X-50.6292 Y39.4612
G01 X-50.6405 Y39.4466
G01 X-50.6505 Y39.4309
G01 X-50.6588 Y39.4144
G01 X-50.6654 Y39.3971
G01 X-50.6681 Y39.3882
G01 X-50.6713 Y39.3747
G01 X-50.6741 Y39.3564
G01 X-50.6750 Y39.3379
G01 X-50.6747 Y38.4786
G01 X-50.6736 Y38.4648
G01 X-50.6704 Y38.4466
G01 X-50.6654 Y38.4287
G01 X-50.6588 Y38.4114
G01 X-50.6505 Y38.3949
G01 X-50.6405 Y38.3792
G01 X-50.6292 Y38.3646
G01 X-50.6189 Y38.3537
G00 Z2.0000
G00 X-48.0738 Y38.2992
G01 F60.00
G01 Z-2.4000
G01 F120.00
G01 X-48.0553 Y38.3001
G01 X-48.0369 Y38.3028
G01 X-48.0190 Y38.3073
G01 X-48.0058 Y38.3118
G01 X-47.9931 Y38.3173
G01 X-47.9767 Y38.3260
G01 X-47.9613 Y38.3363
G01 X-47.9470 Y38.3481
G01 X-47.9339 Y38.3612
G01 X-47.9250 Y38.3718
G01 X-47.9168 Y38.3831
G01 X-47.9073 Y38.3989
G01 X-47.8994 Y38.4157
G01 X-47.8946 Y38.4287
G01 X-47.8896 Y38.4466
G01 X-47.8864 Y38.4648
G01 X-47.8855 Y38.4740
G01 X-47.8850 Y38.4879
G01 X-47.8853 Y39.3472
G01 X-47.8864 Y39.3610
G01 X-47.8887 Y39.3747
G01 X-47.8919 Y39.3882
G01 X-47.8977 Y39.4058
G01 X-47.9052 Y39.4228
G01 X-47.9119 Y39.4349
G01 X-47.9195 Y39.4466
G01 X-47.9308 Y39.4612
G01 X-47.9403 Y39.4713
G01 X-47.9470 Y39.4777
G01 X-47.9613 Y39.4895
G01 X-47.9767 Y39.4998
G01 X-47.9931 Y39.5085
G01 X-48.0058 Y39.5140
G01 X-48.0146 Y39.5171
G01 X-48.0324 Y39.5220
G01 X-48.0506 Y39.5252
G01 X-48.0691 Y39.5266
G01 X-48.9955 Y39.5264
G01 X-49.0094 Y39.5252
G01 X-49.0231 Y39.5230
G01 X-49.0410 Y39.5185
G01 X-49.0542 Y39.5140
G01 X-49.0711 Y39.5065
G01 X-49.0833 Y39.4998
G01 X-49.0987 Y39.4895
G01 X-49.1095 Y39.4808
G01 X-49.1229 Y39.4680
G01 X-49.1350 Y39.4540
G01 X-49.1457 Y39.4389
G01 X-49.1527 Y39.4269
G01 X-49.1569 Y39.4186
G01 X-49.1606 Y39.4101
G01 X-49.1654 Y39.3971
G01 X-49.1704 Y39.3792
G01 X-49.1736 Y39.3610
G01 X-49.1749 Y39.3425
G01 X-49.1747 Y38.4786
G01 X-49.1736 Y38.4648
G01 X-49.1704 Y38.4466
G01 X-49.1654 Y38.4287
G01 X-49.1606 Y38.4157
G01 X-49.1527 Y38.3989
G01 X-49.1457 Y38.3869
G01 X-49.1378 Y38.3755
G01 X-49.1292 Y38.3646
G01 X-49.1164 Y38.3512
G01 X-49.1024 Y38.3391
G01 X-49.0872 Y38.3285
G01 X-49.0711 Y38.3193
G01 X-49.0542 Y38.3118
G01 X-49.0366 Y38.3060
G01 X-49.0185 Y38.3020
G01 X-49.0001 Y38.2997
G01 X-48.9862 Y38.2992
G01 X-48.0738 Y38.2992
G00 Z2.0000
G00 X-47.6189 Y38.3537
G01 F60.00
G01 Z-2.4000
G01 F120.00
G01 X-47.6189 Y35.8628
G01 X-47.6354 Y35.8352
G01 X-47.6398 Y35.8271
G01 X-47.6647 Y35.7743
G01 X-47.6699 Y35.7614
G01 X-47.6864 Y35.7152
G01 X-47.6906 Y35.7019
G01 X-47.7057 Y35.6408
G01 X-47.7145 Y35.5831
G01 X-47.7163 Y35.5647
G01 X-47.7189 Y35.5110
G01 X-47.7187 Y35.4971
G01 X-47.7157 Y35.4389
G01 X-47.7057 Y35.3720
G01 X-47.6893 Y35.3064
G01 X-47.6665 Y35.2427
G01 X-47.6376 Y35.1816
G01 X-47.6029 Y35.1236
G01 X-47.5626 Y35.0693
G01 X-47.5236 Y35.0259
G01 X-47.5139 Y35.0160
G01 X-47.4741 Y34.9799
G01 X-47.4598 Y34.9681
G01 X-47.4128 Y34.9335
G01 X-47.3628 Y34.9033
G01 X-47.3507 Y34.8966
G01 X-47.2937 Y34.8699
G01 X-47.2300 Y34.8471
G01 X-47.1644 Y34.8307
G01 X-47.1067 Y34.8219
G01 X-47.0883 Y34.8201
G01 X-47.0346 Y34.8175
G01 X-46.8074 Y34.8174
G01 X-45.6390 Y33.6490
G01 X-45.6390 Y32.4840
G01 X-45.6491 Y32.4745
G01 X-45.6555 Y32.4678
G01 X-45.7082 Y32.4097
G01 X-45.7200 Y32.3953
G01 X-45.7721 Y32.3247
G01 X-45.8174 Y32.2495
G01 X-45.8261 Y32.2332
G01 X-45.8635 Y32.1538
G01 X-45.8961 Y32.0624
G01 X-45.9197 Y31.9683
G01 X-45.9328 Y31.8815
G01 X-45.9346 Y31.8631
G01 X-45.9387 Y31.7754
G01 X-45.9340 Y31.6785
G01 X-45.9197 Y31.5825
G01 X-45.8986 Y31.4973
G01 X-45.8932 Y31.4796
G01 X-45.8668 Y31.4057
G01 X-45.8597 Y31.3886
G01 X-45.8220 Y31.3093
G01 X-45.7770 Y31.2339
G01 X-45.7695 Y31.2223
G01 X-45.7143 Y31.1482
G01 X-45.6491 Y31.0763
G01 X-45.5772 Y31.0111
G01 X-45.5069 Y30.9586
G01 X-45.4915 Y30.9484
G01 X-45.4241 Y30.9080
G01 X-45.4078 Y30.8993
G01 X-45.3284 Y30.8619
G01 X-45.2370 Y30.8293
G01 X-45.1429 Y30.8057
G01 X-45.0469 Y30.7914
G01 X-44.9500 Y30.7867
G01 X-44.8623 Y30.7908
G01 X-44.8439 Y30.7926
G01 X-44.7662 Y30.8041
G01 X-44.7481 Y30.8077
G01 X-44.6630 Y30.8293
G01 X-44.5716 Y30.8619
G01 X-44.4839 Y30.9034
G01 X-44.4085 Y30.9484
G01 X-44.3931 Y30.9586
G01 X-44.3228 Y31.0111
G01 X-44.2576 Y31.0699
G01 X-44.2445 Y31.0830
G01 X-44.1857 Y31.1482
G01 X-44.1332 Y31.2185
G01 X-44.1230 Y31.2339
G01 X-44.0780 Y31.3093
G01 X-44.0403 Y31.3886
G01 X-44.0332 Y31.4057
G01 X-44.0039 Y31.4884
G01 X-43.9823 Y31.5735
G01 X-43.9787 Y31.5916
G01 X-43.9660 Y31.6785
G01 X-43.9613 Y31.7754
G01 X-43.9654 Y31.8631
G01 X-43.9672 Y31.8815
G01 X-43.9787 Y31.9592
G01 X-43.9823 Y31.9773
G01 X-44.0039 Y32.0624
G01 X-44.0332 Y32.1451
G01 X-44.0403 Y32.1622
G01 X-44.0780 Y32.2415
G01 X-44.1279 Y32.3247
G01 X-44.1857 Y32.4026
G01 X-44.2445 Y32.4678
G01 X-44.2509 Y32.4745
G01 X-44.2610 Y32.4840
G01 X-44.2610 Y33.9344
G01 X-44.2643 Y34.0019
G01 X-44.2727 Y34.0597
G01 X-44.2752 Y34.0733
G01 X-44.2907 Y34.1344
G01 X-44.3101 Y34.1894
G01 X-44.3172 Y34.2065
G01 X-44.3424 Y34.2592
G01 X-44.3722 Y34.3093
G01 X-44.3825 Y34.3247
G01 X-44.4174 Y34.3715
G01 X-44.4564 Y34.4149
G01 X-46.0348 Y35.9936
G01 X-46.0849 Y36.0390
G01 X-46.1317 Y36.0739
G01 X-46.1431 Y36.0818
G01 X-46.1892 Y36.1095
G01 X-46.2055 Y36.1182
G01 X-46.2583 Y36.1429
G01 X-46.3220 Y36.1657
G01 X-46.3876 Y36.1821
G01 X-46.4411 Y36.1903
G01 X-46.4411 Y38.3537
G01 X-46.4339 Y38.3612
G01 X-46.4279 Y38.3682
G01 X-46.4168 Y38.3831
G01 X-46.4073 Y38.3989
G01 X-46.3994 Y38.4157
G01 X-46.3932 Y38.4331
G01 X-46.3887 Y38.4511
G01 X-46.3859 Y38.4694
G01 X-46.3850 Y38.4879
G01 X-46.3853 Y39.3472
G01 X-46.3864 Y39.3610
G01 X-46.3896 Y39.3792
G01 X-46.3946 Y39.3971
G01 X-46.3994 Y39.4101
G01 X-46.4073 Y39.4269
G01 X-46.4168 Y39.4427
G01 X-46.4250 Y39.4540
G01 X-46.4371 Y39.4680
G01 X-46.4505 Y39.4808
G01 X-46.4651 Y39.4922
G01 X-46.4807 Y39.5021
G01 X-46.4973 Y39.5104
G01 X-46.5146 Y39.5171
G01 X-46.5324 Y39.5220
G01 X-46.5415 Y39.5238
G01 X-46.5553 Y39.5257
G01 X-46.5738 Y39.5266
G01 X-47.4955 Y39.5264
G01 X-47.5139 Y39.5246
G01 X-47.5276 Y39.5220
G01 X-47.5410 Y39.5185
G01 X-47.5585 Y39.5123
G01 X-47.5711 Y39.5065
G01 X-47.5872 Y39.4973
G01 X-47.6024 Y39.4867
G01 X-47.6164 Y39.4746
G01 X-47.6292 Y39.4612
G01 X-47.6405 Y39.4466
G01 X-47.6505 Y39.4309
G01 X-47.6588 Y39.4144
G01 X-47.6654 Y39.3971
G01 X-47.6681 Y39.3882
G01 X-47.6713 Y39.3747
G01 X-47.6741 Y39.3564
G01 X-47.6750 Y39.3379
G01 X-47.6747 Y38.4786
G01 X-47.6736 Y38.4648
G01 X-47.6704 Y38.4466
G01 X-47.6654 Y38.4287
G01 X-47.6588 Y38.4114
G01 X-47.6505 Y38.3949
G01 X-47.6405 Y38.3792
G01 X-47.6292 Y38.3646
G01 X-47.6189 Y38.3537
G00 Z2.0000
G00 X-46.1189 Y38.3537
G01 F60.00
G01 Z-2.4000
G01 F120.00
G01 X-46.1189 Y37.3084
G01 X-46.1161 Y37.2507
G01 X-46.1076 Y37.1935
G01 X-46.0960 Y37.1464
G01 X-46.0907 Y37.1287
G01 X-46.0741 Y37.0830
G01 X-46.0535 Y37.0391
G01 X-46.0448 Y37.0227
G01 X-46.0197 Y36.9812
G01 X-45.9909 Y36.9421
G01 X-45.9792 Y36.9278
G01 X-45.9464 Y36.8920
G01 X-42.3184 Y33.2640
G01 X-42.2756 Y33.2252
G01 X-42.2292 Y33.1907
G01 X-42.1877 Y33.1656
G01 X-42.1713 Y33.1569
G01 X-42.1274 Y33.1363
G01 X-42.0817 Y33.1197
G01 X-42.0640 Y33.1144
G01 X-42.0169 Y33.1028
G01 X-41.9689 Y33.0954
G01 X-41.9505 Y33.0936
G01 X-41.9020 Y33.0915
G01 X-41.2980 Y33.0915
G01 X-41.2750 Y33.0605
G01 X-41.2663 Y33.0496
G01 X-41.2074 Y32.9846
G01 X-41.1974 Y32.9749
G01 X-41.1358 Y32.9191
G01 X-41.1249 Y32.9104
G01 X-41.0543 Y32.8583
G01 X-40.9751 Y32.8107
G01 X-40.9628 Y32.8043
G01 X-40.8834 Y32.7669
G01 X-40.7920 Y32.7343
G01 X-40.6979 Y32.7107
G01 X-40.6111 Y32.6976
G01 X-40.5973 Y32.6960
G01 X-40.5143 Y32.6919
G01 X-40.4957 Y32.6919
G01 X-40.4081 Y32.6964
G01 X-40.3212 Y32.7091
G01 X-40.3031 Y32.7127
G01 X-40.2180 Y32.7343
G01 X-40.1266 Y32.7669
G01 X-40.0472 Y32.8043
G01 X-40.0309 Y32.8130
G01 X-39.9557 Y32.8583
G01 X-39.8851 Y32.9104
G01 X-39.8707 Y32.9222
G01 X-39.8059 Y32.9813
G01 X-39.7407 Y33.0532
G01 X-39.6829 Y33.1311
G01 X-39.6330 Y33.2143
G01 X-39.5915 Y33.3020
G01 X-39.5589 Y33.3934
G01 X-39.5353 Y33.4875
G01 X-39.5210 Y33.5835
G01 X-39.5163 Y33.6804
G01 X-39.5210 Y33.7773
G01 X-39.5353 Y33.8733
G01 X-39.5589 Y33.9674
G01 X-39.5915 Y34.0588
G01 X-39.6330 Y34.1465
G01 X-39.6829 Y34.2297
G01 X-39.7407 Y34.3076
G01 X-39.8059 Y34.3795
G01 X-39.8742 Y34.4417
G01 X-39.8851 Y34.4504
G01 X-39.9557 Y34.5025
G01 X-40.0389 Y34.5524
G01 X-40.1266 Y34.5939
G01 X-40.2180 Y34.6265
G01 X-40.3121 Y34.6501
G01 X-40.4081 Y34.6644
G01 X-40.5050 Y34.6691
G01 X-40.6019 Y34.6644
G01 X-40.6979 Y34.6501
G01 X-40.7920 Y34.6265
G01 X-40.8834 Y34.5939
G01 X-40.9628 Y34.5565
G01 X-40.9751 Y34.5501
G01 X-41.0543 Y34.5025
G01 X-41.1249 Y34.4504
G01 X-41.1358 Y34.4417
G01 X-41.1974 Y34.3859
G01 X-41.2074 Y34.3762
G01 X-41.2663 Y34.3112
G01 X-41.2750 Y34.3003
G01 X-41.2980 Y34.2693
G01 X-41.6581 Y34.2693
G01 X-44.9411 Y37.5523
G01 X-44.9411 Y38.3537
G01 X-44.9308 Y38.3646
G01 X-44.9195 Y38.3792
G01 X-44.9095 Y38.3949
G01 X-44.9012 Y38.4114
G01 X-44.8946 Y38.4287
G01 X-44.8896 Y38.4466
G01 X-44.8864 Y38.4648
G01 X-44.8851 Y38.4833
G01 X-44.8850 Y39.3379
G01 X-44.8859 Y39.3564
G01 X-44.8878 Y39.3702
G01 X-44.8896 Y39.3792
G01 X-44.8932 Y39.3927
G01 X-44.8961 Y39.4015
G01 X-44.9031 Y39.4186
G01 X-44.9119 Y39.4349
G01 X-44.9195 Y39.4466
G01 X-44.9250 Y39.4540
G01 X-44.9308 Y39.4612
G01 X-44.9403 Y39.4713
G01 X-44.9540 Y39.4838
G01 X-44.9651 Y39.4922
G01 X-44.9767 Y39.4998
G01 X-44.9931 Y39.5085
G01 X-45.0058 Y39.5140
G01 X-45.0190 Y39.5185
G01 X-45.0324 Y39.5220
G01 X-45.0461 Y39.5246
G01 X-45.0645 Y39.5264
G01 X-45.9862 Y39.5266
G01 X-46.0001 Y39.5261
G01 X-46.0185 Y39.5238
G01 X-46.0366 Y39.5198
G01 X-46.0542 Y39.5140
G01 X-46.0711 Y39.5065
G01 X-46.0872 Y39.4973
G01 X-46.1024 Y39.4867
G01 X-46.1164 Y39.4746
G01 X-46.1292 Y39.4612
G01 X-46.1405 Y39.4466
G01 X-46.1505 Y39.4309
G01 X-46.1588 Y39.4144
G01 X-46.1654 Y39.3971
G01 X-46.1681 Y39.3882
G01 X-46.1713 Y39.3747
G01 X-46.1741 Y39.3564
G01 X-46.1750 Y39.3379
G01 X-46.1747 Y38.4786
G01 X-46.1736 Y38.4648
G01 X-46.1704 Y38.4466
G01 X-46.1654 Y38.4287
G01 X-46.1588 Y38.4114
G01 X-46.1505 Y38.3949
G01 X-46.1405 Y38.3792
G01 X-46.1292 Y38.3646
G01 X-46.1189 Y38.3537
G00 Z2.0000
G00 X-43.4802 Y55.7990
G01 F60.00
G01 Z-2.4000
G01 F120.00
G01 X-40.5590 Y55.7990
G01 X-40.5589 Y51.3171
G01 X-40.5557 Y51.2542
G01 X-40.5473 Y51.1965
G01 X-40.5437 Y51.1783
G01 X-40.5293 Y51.1218
G01 X-40.5099 Y51.0668
G01 X-40.5028 Y51.0496
G01 X-40.4776 Y50.9970
G01 X-40.4429 Y50.9390
G01 X-40.4026 Y50.8847
G01 X-40.3572 Y50.8346
G01 X-30.3990 Y40.8764
G01 X-30.3990 Y40.7390
G01 X-30.4091 Y40.7295
G01 X-30.4155 Y40.7228
G01 X-30.4743 Y40.6576
G01 X-30.5268 Y40.5873
G01 X-30.5370 Y40.5719
G01 X-30.5774 Y40.5045
G01 X-30.5861 Y40.4882
G01 X-30.6235 Y40.4088
G01 X-30.6532 Y40.3262
G01 X-30.6586 Y40.3085
G01 X-30.6777 Y40.2323
G01 X-30.6813 Y40.2142
G01 X-30.6940 Y40.1273
G01 X-30.6987 Y40.0304
G01 X-30.6940 Y39.9335
G01 X-30.6797 Y39.8375
G01 X-30.6561 Y39.7434
G01 X-30.6235 Y39.6520
G01 X-30.5820 Y39.5643
G01 X-30.5321 Y39.4811
G01 X-30.4743 Y39.4032
G01 X-30.4155 Y39.3380
G01 X-30.4091 Y39.3313
G01 X-30.3990 Y39.3218
G01 X-30.3990 Y12.5654
G01 X-30.3957 Y12.4979
G01 X-30.3857 Y12.4310
G01 X-30.3718 Y12.3743
G01 X-30.3664 Y12.3566
G01 X-30.3465 Y12.3017
G01 X-30.3176 Y12.2406
G01 X-30.2878 Y12.1905
G01 X-30.2775 Y12.1751
G01 X-30.2483 Y12.1356
G01 X-30.2396 Y12.1248
G01 X-30.1972 Y12.0782
G01 X-28.7500 Y10.6311
G01 X-28.7546 Y10.6176
G01 X-28.7571 Y10.6086
G01 X-28.7901 Y10.4758
G01 X-28.8104 Y10.3405
G01 X-28.8122 Y10.3221
G01 X-28.8187 Y10.1854
G01 X-28.8122 Y10.0487
G01 X-28.8104 Y10.0303
G01 X-28.7917 Y9.9041
G01 X-28.7881 Y9.8859
G01 X-28.7546 Y9.7532
G01 X-28.7087 Y9.6243
G01 X-28.7016 Y9.6072
G01 X-28.6429 Y9.4836
G01 X-28.5728 Y9.3661
G01 X-28.5625 Y9.3507
G01 X-28.4808 Y9.2410
G01 X-28.3859 Y9.1360
G01 X-28.3760 Y9.1263
G01 X-28.2814 Y9.0407
G01 X-28.2671 Y9.0289
G01 X-28.1571 Y8.9476
G01 X-28.0318 Y8.8725
G01 X-27.9082 Y8.8138
G01 X-27.8911 Y8.8067
G01 X-27.7622 Y8.7608
G01 X-27.6295 Y8.7273
G01 X-27.6113 Y8.7237
G01 X-27.4759 Y8.7038
G01 X-27.3393 Y8.6969
G01 X-27.3207 Y8.6969
G01 X-27.1841 Y8.7038
G01 X-27.0487 Y8.7237
G01 X-27.0305 Y8.7273
G01 X-26.9068 Y8.7583
G01 X-26.8891 Y8.7637
G01 X-26.7603 Y8.8100
G01 X-26.6365 Y8.8683
G01 X-26.6202 Y8.8770
G01 X-26.5107 Y8.9426
G01 X-26.4953 Y8.9529
G01 X-26.3856 Y9.0346
G01 X-26.2840 Y9.1263
G01 X-26.2709 Y9.1394
G01 X-26.1792 Y9.2410
G01 X-26.0922 Y9.3583
G01 X-26.0171 Y9.4836
G01 X-25.9546 Y9.6157
G01 X-25.9054 Y9.7532
G01 X-25.8719 Y9.8859
G01 X-25.8683 Y9.9041
G01 X-25.8496 Y10.0303
G01 X-25.8478 Y10.0487
G01 X-25.8413 Y10.1854
G01 X-25.8478 Y10.3221
G01 X-25.8496 Y10.3405
G01 X-25.8699 Y10.4758
G01 X-25.9054 Y10.6176
G01 X-25.9546 Y10.7551
G01 X-26.0171 Y10.8872
G01 X-26.0922 Y11.0125
G01 X-26.1735 Y11.1225
G01 X-26.1853 Y11.1368
G01 X-26.2709 Y11.2314
G01 X-26.2840 Y11.2445
G01 X-26.3856 Y11.3362
G01 X-26.5029 Y11.4232
G01 X-26.6282 Y11.4983
G01 X-26.7603 Y11.5608
G01 X-26.8978 Y11.6100
G01 X-27.0396 Y11.6455
G01 X-27.1841 Y11.6670
G01 X-27.3207 Y11.6739
G01 X-27.3393 Y11.6739
G01 X-27.4759 Y11.6670
