(G-CODE GENERATED BY FLATCAM v8.993 - www.flatcam.org - Version Date: 2020/08/01)

(Name: Wasserhahn-B_Cu.gbl_iso4_cnc)
(Type: G-code from Geometry)
(Units: MM)

(Created on Samstag, 16 Mai 2020 at 20:59)

(This preprocessor is the default preprocessor used by FlatCAM.)
(It is made to work with MACH3 compatible motion controllers.)

(TOOL DIAMETER: 0.2 mm)
(Feedrate_XY: 120.0 mm/min)
(Feedrate_Z: 60.0 mm/min)
(Feedrate rapids 1500.0 mm/min)

(Z_Cut: -2.4 mm)
(Z_Move: 2.0 mm)
(Z Start: None mm)
(Z End: 15.0 mm)
(Steps per circle: 64)
(Preprocessor Geometry: default)

(X range:  116.8350 ...  186.3520  mm)
(Y range: -105.5343 ...  -29.0400  mm)

(Spindle Speed: None RPM)
G21
G90
G94



G01 F120.00
G00 Z2.0000

M03
G00 X119.0095 Y-94.0431
G01 F60.00
G01 Z-2.4000
G01 F120.00
G01 X118.9815 Y-94.0617
G01 X118.9563 Y-94.0805
G01 X118.9440 Y-94.0903
G01 X118.9202 Y-94.1108
G01 X118.9087 Y-94.1215
G01 X118.8865 Y-94.1437
G01 X118.8654 Y-94.1670
G01 X118.8455 Y-94.1913
G01 X118.8359 Y-94.2038
G01 X118.8267 Y-94.2165
G01 X118.8093 Y-94.2426
G01 X118.7931 Y-94.2695
G01 X118.7856 Y-94.2833
G01 X118.7714 Y-94.3114
G01 X118.7587 Y-94.3401
G01 X118.7474 Y-94.3694
G01 X118.7376 Y-94.3992
G01 X118.7332 Y-94.4143
G01 X118.7292 Y-94.4295
G01 X118.7223 Y-94.4601
G01 X118.7169 Y-94.4911
G01 X118.7131 Y-94.5223
G01 X118.7117 Y-94.5379
G01 X118.7102 Y-94.5693
G01 X118.7100 Y-97.1850
G01 X118.7108 Y-97.2164
G01 X118.7131 Y-97.2477
G01 X118.7148 Y-97.2633
G01 X118.7194 Y-97.2944
G01 X118.7256 Y-97.3252
G01 X118.7332 Y-97.3557
G01 X118.7423 Y-97.3858
G01 X118.7529 Y-97.4153
G01 X118.7587 Y-97.4299
G01 X118.7714 Y-97.4586
G01 X118.7856 Y-97.4867
G01 X118.8011 Y-97.5140
G01 X118.8179 Y-97.5406
G01 X118.8359 Y-97.5662
G01 X118.8455 Y-97.5787
G01 X118.8654 Y-97.6030
G01 X118.8865 Y-97.6263
G01 X118.9087 Y-97.6485
G01 X118.9320 Y-97.6696
G01 X118.9563 Y-97.6895
G01 X118.9815 Y-97.7083
G01 X119.0076 Y-97.7257
G01 X119.0210 Y-97.7339
G01 X119.0483 Y-97.7494
G01 X119.0764 Y-97.7636
G01 X119.1051 Y-97.7763
G01 X119.1344 Y-97.7876
G01 X119.1642 Y-97.7974
G01 X119.1945 Y-97.8058
G01 X119.2251 Y-97.8127
G01 X119.2561 Y-97.8181
G01 X119.2873 Y-97.8219
G01 X119.3186 Y-97.8242
G01 X119.3500 Y-97.8250
G01 X121.9500 Y-97.8250
G01 X121.9814 Y-97.8242
G01 X122.0127 Y-97.8219
G01 X122.0283 Y-97.8202
G01 X122.0594 Y-97.8156
G01 X122.0902 Y-97.8094
G01 X122.1055 Y-97.8058
G01 X122.1358 Y-97.7974
G01 X122.1656 Y-97.7876
G01 X122.1949 Y-97.7763
G01 X122.2236 Y-97.7636
G01 X122.2517 Y-97.7494
G01 X122.2790 Y-97.7339
G01 X122.3056 Y-97.7171
G01 X122.3185 Y-97.7083
G01 X122.3437 Y-97.6895
G01 X122.3680 Y-97.6696
G01 X122.3913 Y-97.6485
G01 X122.4135 Y-97.6263
G01 X122.4346 Y-97.6030
G01 X122.4545 Y-97.5787
G01 X122.4641 Y-97.5662
G01 X122.4821 Y-97.5406
G01 X122.4989 Y-97.5140
G01 X122.5144 Y-97.4867
G01 X122.5286 Y-97.4586
G01 X122.5413 Y-97.4299
G01 X122.5526 Y-97.4006
G01 X122.5624 Y-97.3708
G01 X122.5708 Y-97.3405
G01 X122.5777 Y-97.3099
G01 X122.5806 Y-97.2944
G01 X122.5852 Y-97.2633
G01 X122.5883 Y-97.2321
G01 X122.5898 Y-97.2007
G01 X122.5900 Y-97.1850
G01 X122.5900 Y-94.5850
G01 X122.5898 Y-94.5693
G01 X122.5883 Y-94.5379
G01 X122.5852 Y-94.5067
G01 X122.5806 Y-94.4756
G01 X122.5744 Y-94.4448
G01 X122.5708 Y-94.4295
G01 X122.5624 Y-94.3992
G01 X122.5577 Y-94.3842
G01 X122.5471 Y-94.3547
G01 X122.5351 Y-94.3256
G01 X122.5286 Y-94.3114
G01 X122.5144 Y-94.2833
G01 X122.5069 Y-94.2695
G01 X122.4907 Y-94.2426
G01 X122.4733 Y-94.2165
G01 X122.4641 Y-94.2038
G01 X122.4545 Y-94.1913
G01 X122.4346 Y-94.1670
G01 X122.4135 Y-94.1437
G01 X122.3913 Y-94.1215
G01 X122.3680 Y-94.1004
G01 X122.3560 Y-94.0903
G01 X122.3312 Y-94.0709
G01 X122.3185 Y-94.0617
G01 X122.2905 Y-94.0431
G01 X122.2905 Y-85.1545
G01 X123.1050 Y-84.3400
G01 X124.8250 Y-84.3400
G01 X124.8564 Y-84.3392
G01 X124.8877 Y-84.3369
G01 X124.9033 Y-84.3352
G01 X124.9344 Y-84.3306
G01 X124.9499 Y-84.3277
G01 X124.9805 Y-84.3208
G01 X125.0108 Y-84.3124
G01 X125.0406 Y-84.3026
G01 X125.0699 Y-84.2913
G01 X125.0986 Y-84.2786
G01 X125.1267 Y-84.2644
G01 X125.1540 Y-84.2489
G01 X125.1674 Y-84.2407
G01 X125.1935 Y-84.2233
G01 X125.2062 Y-84.2141
G01 X125.2310 Y-84.1947
G01 X125.2548 Y-84.1742
G01 X125.2775 Y-84.1525
G01 X125.2992 Y-84.1298
G01 X125.3096 Y-84.1180
G01 X125.3295 Y-84.0937
G01 X125.3483 Y-84.0685
G01 X125.3657 Y-84.0424
G01 X125.3819 Y-84.0155
G01 X125.3967 Y-83.9878
G01 X125.4036 Y-83.9736
G01 X125.4163 Y-83.9449
G01 X125.4221 Y-83.9303
G01 X125.4327 Y-83.9008
G01 X125.4374 Y-83.8858
G01 X125.4458 Y-83.8555
G01 X125.4494 Y-83.8402
G01 X125.4556 Y-83.8094
G01 X125.4581 Y-83.7939
G01 X125.4602 Y-83.7783
G01 X125.4633 Y-83.7471
G01 X125.4648 Y-83.7157
G01 X125.4650 Y-82.5741
G01 X125.4655 Y-82.5500
G01 X125.4650 Y-82.5259
G01 X125.4650 Y-81.4000
G01 X125.4648 Y-81.3843
G01 X125.4633 Y-81.3529
G01 X125.4619 Y-81.3373
G01 X125.4581 Y-81.3061
G01 X125.4527 Y-81.2751
G01 X125.4494 Y-81.2598
G01 X125.4418 Y-81.2293
G01 X125.4374 Y-81.2142
G01 X125.4276 Y-81.1844
G01 X125.4163 Y-81.1551
G01 X125.4036 Y-81.1264
G01 X125.3967 Y-81.1122
G01 X125.3819 Y-81.0845
G01 X125.3739 Y-81.0710
G01 X125.3571 Y-81.0444
G01 X125.3391 Y-81.0188
G01 X125.3197 Y-80.9940
G01 X125.3096 Y-80.9820
G01 X125.2885 Y-80.9587
G01 X125.2775 Y-80.9475
G01 X125.2663 Y-80.9365
G01 X125.2430 Y-80.9154
G01 X125.2187 Y-80.8955
G01 X125.2062 Y-80.8859
G01 X125.1935 Y-80.8767
G01 X125.1674 Y-80.8593
G01 X125.1540 Y-80.8511
G01 X125.1267 Y-80.8356
G01 X125.0986 Y-80.8214
G01 X125.0699 Y-80.8087
G01 X125.0406 Y-80.7974
G01 X125.0108 Y-80.7876
G01 X124.9805 Y-80.7792
G01 X124.9652 Y-80.7756
G01 X124.9344 Y-80.7694
G01 X124.9033 Y-80.7648
G01 X124.8721 Y-80.7617
G01 X124.8407 Y-80.7602
G01 X122.8250 Y-80.7600
G01 X122.8093 Y-80.7602
G01 X122.7779 Y-80.7617
G01 X122.7623 Y-80.7631
G01 X122.7311 Y-80.7669
G01 X122.7156 Y-80.7694
G01 X122.6848 Y-80.7756
G01 X122.6543 Y-80.7832
G01 X122.6242 Y-80.7923
G01 X122.6094 Y-80.7974
G01 X122.5801 Y-80.8087
G01 X122.5514 Y-80.8214
G01 X122.5372 Y-80.8283
G01 X122.5095 Y-80.8431
G01 X122.4826 Y-80.8593
G01 X122.4565 Y-80.8767
G01 X122.4438 Y-80.8859
G01 X122.4190 Y-80.9053
G01 X122.4033 Y-80.9186
G01 X122.3830 Y-80.9212
G01 X122.2859 Y-80.9357
G01 X122.2550 Y-80.9410
G01 X122.2243 Y-80.9479
G01 X122.1291 Y-80.9718
G01 X122.0988 Y-80.9801
G01 X122.0690 Y-80.9900
G01 X121.9765 Y-81.0231
G01 X121.9472 Y-81.0344
G01 X121.9185 Y-81.0471
G01 X121.8156 Y-81.0960
G01 X121.7879 Y-81.1108
G01 X121.7743 Y-81.1187
G01 X121.6901 Y-81.1692
G01 X121.6636 Y-81.1860
G01 X121.6379 Y-81.2041
G01 X121.5590 Y-81.2626
G01 X121.5343 Y-81.2819
G01 X121.5105 Y-81.3024
G01 X121.4262 Y-81.3790
G01 X119.4900 Y-83.3150
G01 X119.4683 Y-83.3377
G01 X119.4024 Y-83.4105
G01 X119.3819 Y-83.4343
G01 X119.3626 Y-83.4590
G01 X119.3041 Y-83.5379
G01 X119.2860 Y-83.5636
G01 X119.2692 Y-83.5901
G01 X119.2187 Y-83.6743
G01 X119.2032 Y-83.7017
G01 X119.1891 Y-83.7297
G01 X119.1471 Y-83.8185
G01 X119.1344 Y-83.8472
G01 X119.1285 Y-83.8618
G01 X119.0849 Y-83.9838
G01 X119.0801 Y-83.9988
G01 X119.0718 Y-84.0291
G01 X119.0443 Y-84.1396
G01 X119.0410 Y-84.1550
G01 X119.0357 Y-84.1859
G01 X119.0212 Y-84.2830
G01 X119.0174 Y-84.3142
G01 X119.0151 Y-84.3455
G01 X119.0097 Y-84.4593
G01 X119.0095 Y-94.0431
G00 Z2.0000
G00 X123.7232 Y-96.1063
G01 F60.00
G01 Z-2.4000
G01 F120.00
G01 X123.7444 Y-96.2480
G01 X123.7473 Y-96.2635
G01 X123.7542 Y-96.2941
G01 X123.7852 Y-96.4179
G01 X123.7935 Y-96.4482
G01 X123.8034 Y-96.4780
G01 X123.8464 Y-96.5981
G01 X123.8577 Y-96.6274
G01 X123.8704 Y-96.6561
G01 X123.9249 Y-96.7715
G01 X123.9391 Y-96.7995
G01 X123.9546 Y-96.8268
G01 X124.0201 Y-96.9363
G01 X124.0369 Y-96.9628
G01 X124.0550 Y-96.9885
G01 X124.1310 Y-97.0910
G01 X124.1504 Y-97.1157
G01 X124.1709 Y-97.1395
G01 X124.2566 Y-97.2340
G01 X124.2782 Y-97.2568
G01 X124.3010 Y-97.2784
G01 X124.3955 Y-97.3641
G01 X124.4193 Y-97.3846
G01 X124.4440 Y-97.4040
G01 X124.5465 Y-97.4800
G01 X124.5592 Y-97.4892
G01 X124.5854 Y-97.5066
G01 X124.7082 Y-97.5804
G01 X124.7355 Y-97.5959
G01 X124.7635 Y-97.6101
G01 X124.8789 Y-97.6646
G01 X124.9076 Y-97.6773
G01 X124.9369 Y-97.6886
G01 X125.0570 Y-97.7316
G01 X125.0868 Y-97.7415
G01 X125.1171 Y-97.7498
G01 X125.2409 Y-97.7808
G01 X125.2715 Y-97.7877
G01 X125.3025 Y-97.7931
G01 X125.4287 Y-97.8118
G01 X125.4598 Y-97.8157
G01 X125.4912 Y-97.8180
G01 X125.6186 Y-97.8242
G01 X125.6500 Y-97.8250
G01 X125.6814 Y-97.8242
G01 X125.8088 Y-97.8180
G01 X125.8245 Y-97.8170
G01 X125.8558 Y-97.8139
G01 X125.9975 Y-97.7931
G01 X126.0285 Y-97.7877
G01 X126.0591 Y-97.7808
G01 X126.1829 Y-97.7498
G01 X126.2132 Y-97.7415
G01 X126.2430 Y-97.7316
G01 X126.3631 Y-97.6886
G01 X126.3924 Y-97.6773
G01 X126.4211 Y-97.6646
G01 X126.5365 Y-97.6101
G01 X126.5645 Y-97.5959
G01 X126.5918 Y-97.5804
G01 X126.7013 Y-97.5149
G01 X126.7278 Y-97.4981
G01 X126.7535 Y-97.4800
G01 X126.8560 Y-97.4040
G01 X126.8807 Y-97.3846
G01 X126.9045 Y-97.3641
G01 X126.9990 Y-97.2784
G01 X127.0218 Y-97.2568
G01 X127.0434 Y-97.2340
G01 X127.1291 Y-97.1395
G01 X127.1496 Y-97.1157
G01 X127.1690 Y-97.0910
G01 X127.2450 Y-96.9885
G01 X127.2631 Y-96.9628
G01 X127.2799 Y-96.9363
G01 X127.3454 Y-96.8268
G01 X127.3609 Y-96.7995
G01 X127.3751 Y-96.7715
G01 X127.4296 Y-96.6561
G01 X127.4423 Y-96.6274
G01 X127.4536 Y-96.5981
G01 X127.4966 Y-96.4780
G01 X127.5065 Y-96.4482
G01 X127.5148 Y-96.4179
G01 X127.5408 Y-96.3142
G01 X129.9960 Y-93.8588
G01 X130.0726 Y-93.7745
G01 X130.0931 Y-93.7507
G01 X130.1124 Y-93.7260
G01 X130.1709 Y-93.6471
G01 X130.1890 Y-93.6214
G01 X130.2058 Y-93.5949
G01 X130.2563 Y-93.5107
G01 X130.2718 Y-93.4833
G01 X130.2859 Y-93.4553
G01 X130.3279 Y-93.3665
G01 X130.3406 Y-93.3378
G01 X130.3465 Y-93.3232
G01 X130.3850 Y-93.2160
G01 X130.3949 Y-93.1862
G01 X130.4032 Y-93.1559
G01 X130.4271 Y-93.0607
G01 X130.4340 Y-93.0300
G01 X130.4393 Y-92.9991
G01 X130.4538 Y-92.9020
G01 X130.4576 Y-92.8708
G01 X130.4599 Y-92.8395
G01 X130.4647 Y-92.7414
G01 X130.4655 Y-92.7100
G01 X130.4655 Y-83.2648
G01 X130.4787 Y-83.2350
G01 X130.4900 Y-83.2057
G01 X130.5281 Y-83.0994
G01 X130.5379 Y-83.0696
G01 X130.5463 Y-83.0393
G01 X130.5737 Y-82.9299
G01 X130.5806 Y-82.8992
G01 X130.5835 Y-82.8838
G01 X130.6046 Y-82.7411
G01 X130.6064 Y-82.7255
G01 X130.6087 Y-82.6941
G01 X130.6142 Y-82.5814
G01 X130.6150 Y-82.5500
G01 X130.6142 Y-82.5186
G01 X130.6077 Y-82.3902
G01 X130.6064 Y-82.3745
G01 X130.6025 Y-82.3434
G01 X130.5860 Y-82.2317
G01 X130.5835 Y-82.2162
G01 X130.5774 Y-82.1854
G01 X130.5463 Y-82.0607
G01 X130.5379 Y-82.0304
G01 X130.5281 Y-82.0006
G01 X130.4900 Y-81.8943
G01 X130.4787 Y-81.8650
G01 X130.4660 Y-81.8363
G01 X130.4178 Y-81.7343
G01 X130.4036 Y-81.7062
G01 X130.3882 Y-81.6789
G01 X130.3301 Y-81.5821
G01 X130.3133 Y-81.5555
G01 X130.2952 Y-81.5298
G01 X130.2280 Y-81.4392
G01 X130.2087 Y-81.4144
G01 X130.1882 Y-81.3907
G01 X130.1017 Y-81.2955
G01 X130.0907 Y-81.2843
G01 X130.0680 Y-81.2626
G01 X129.9843 Y-81.1868
G01 X129.9726 Y-81.1764
G01 X129.9483 Y-81.1565
G01 X129.8452 Y-81.0798
G01 X129.8195 Y-81.0617
G01 X129.7929 Y-81.0449
G01 X129.6961 Y-80.9868
G01 X129.6688 Y-80.9714
G01 X129.6407 Y-80.9572
G01 X129.5387 Y-80.9090
G01 X129.5100 Y-80.8963
G01 X129.4954 Y-80.8904
G01 X129.3744 Y-80.8469
G01 X129.3446 Y-80.8371
G01 X129.3143 Y-80.8287
G01 X129.2049 Y-80.8013
G01 X129.1742 Y-80.7944
G01 X129.1433 Y-80.7890
G01 X129.0316 Y-80.7725
G01 X129.0005 Y-80.7686
G01 X128.9691 Y-80.7663
G01 X128.8564 Y-80.7608
G01 X128.8250 Y-80.7600
G01 X128.7936 Y-80.7608
G01 X128.6809 Y-80.7663
G01 X128.6495 Y-80.7686
G01 X128.6184 Y-80.7725
G01 X128.5067 Y-80.7890
G01 X128.4758 Y-80.7944
G01 X128.4451 Y-80.8013
G01 X128.3357 Y-80.8287
G01 X128.3054 Y-80.8371
G01 X128.2756 Y-80.8469
G01 X128.1693 Y-80.8850
G01 X128.1400 Y-80.8963
G01 X128.1113 Y-80.9090
G01 X128.0093 Y-80.9572
G01 X127.9812 Y-80.9714
G01 X127.9539 Y-80.9868
G01 X127.8571 Y-81.0449
G01 X127.8305 Y-81.0617
G01 X127.8048 Y-81.0798
G01 X127.7142 Y-81.1470
G01 X127.6894 Y-81.1663
G01 X127.6657 Y-81.1868
G01 X127.5820 Y-81.2626
G01 X127.5593 Y-81.2843
G01 X127.5376 Y-81.3070
G01 X127.4618 Y-81.3907
G01 X127.4413 Y-81.4144
G01 X127.4220 Y-81.4392
G01 X127.3548 Y-81.5298
G01 X127.3367 Y-81.5555
G01 X127.3199 Y-81.5821
G01 X127.2618 Y-81.6789
G01 X127.2464 Y-81.7062
G01 X127.2322 Y-81.7343
G01 X127.1840 Y-81.8363
G01 X127.1713 Y-81.8650
G01 X127.1654 Y-81.8796
G01 X127.1219 Y-82.0006
G01 X127.1121 Y-82.0304
G01 X127.1037 Y-82.0607
G01 X127.0763 Y-82.1701
G01 X127.0694 Y-82.2008
G01 X127.0640 Y-82.2317
G01 X127.0475 Y-82.3434
G01 X127.0436 Y-82.3745
G01 X127.0413 Y-82.4059
G01 X127.0358 Y-82.5186
G01 X127.0350 Y-82.5500
G01 X127.0358 Y-82.5814
G01 X127.0413 Y-82.6941
G01 X127.0436 Y-82.7255
G01 X127.0475 Y-82.7566
G01 X127.0640 Y-82.8683
G01 X127.0694 Y-82.8992
G01 X127.0763 Y-82.9299
G01 X127.1037 Y-83.0393
G01 X127.1121 Y-83.0696
G01 X127.1219 Y-83.0994
G01 X127.1600 Y-83.2057
G01 X127.1713 Y-83.2350
G01 X127.1845 Y-83.2648
G01 X127.1845 Y-92.0305
G01 X125.2208 Y-93.9942
G01 X125.1171 Y-94.0202
G01 X125.0868 Y-94.0285
G01 X125.0570 Y-94.0384
G01 X124.9369 Y-94.0814
G01 X124.9076 Y-94.0927
G01 X124.8789 Y-94.1054
G01 X124.7635 Y-94.1599
G01 X124.7355 Y-94.1741
G01 X124.7082 Y-94.1896
G01 X124.5987 Y-94.2551
G01 X124.5722 Y-94.2719
G01 X124.5465 Y-94.2900
G01 X124.4440 Y-94.3660
G01 X124.4193 Y-94.3854
G01 X124.4073 Y-94.3955
G01 X124.3010 Y-94.4916
G01 X124.2782 Y-94.5132
G01 X124.2566 Y-94.5360
G01 X124.1605 Y-94.6423
G01 X124.1405 Y-94.6665
G01 X124.1310 Y-94.6790
G01 X124.0550 Y-94.7815
G01 X124.0369 Y-94.8072
G01 X124.0201 Y-94.8337
G01 X123.9546 Y-94.9432
G01 X123.9391 Y-94.9705
G01 X123.9249 Y-94.9985
G01 X123.8704 Y-95.1139
G01 X123.8577 Y-95.1426
G01 X123.8464 Y-95.1719
G01 X123.8034 Y-95.2920
G01 X123.7935 Y-95.3218
G01 X123.7852 Y-95.3521
G01 X123.7542 Y-95.4759
G01 X123.7473 Y-95.5065
G01 X123.7419 Y-95.5375
G01 X123.7232 Y-95.6637
G01 X123.7193 Y-95.6948
G01 X123.7170 Y-95.7262
G01 X123.7108 Y-95.8536
G01 X123.7100 Y-95.8850
G01 X123.7108 Y-95.9164
G01 X123.7170 Y-96.0438
G01 X123.7193 Y-96.0752
G01 X123.7232 Y-96.1063
G00 Z2.0000
G00 X149.0658 Y-82.7223
G01 F60.00
G01 Z-2.4000
G01 F120.00
G01 X149.0619 Y-82.6911
G01 X149.0606 Y-82.6755
G01 X149.0558 Y-82.5814
G01 X149.0550 Y-82.5500
G01 X149.0558 Y-82.5186
G01 X149.0596 Y-82.4402
G01 X149.0606 Y-82.4245
G01 X149.0637 Y-82.3932
G01 X149.0773 Y-82.3000
G01 X149.0827 Y-82.2691
G01 X149.0896 Y-82.2384
G01 X149.1086 Y-82.1623
G01 X149.1126 Y-82.1471
G01 X149.1217 Y-82.1170
G01 X149.1588 Y-82.0135
G01 X149.1646 Y-81.9989
G01 X149.1773 Y-81.9702
G01 X149.2109 Y-81.8992
G01 X149.2250 Y-81.8712
G01 X149.2405 Y-81.8439
G01 X149.2891 Y-81.7631
G01 X149.2977 Y-81.7500
G01 X149.3158 Y-81.7243
G01 X149.3625 Y-81.6612
G01 X149.3819 Y-81.6365
G01 X149.4024 Y-81.6127
G01 X149.4551 Y-81.5545
G01 X149.4768 Y-81.5318
G01 X149.4880 Y-81.5208
G01 X149.5695 Y-81.4470
G01 X149.5937 Y-81.4271
G01 X149.6062 Y-81.4175
G01 X149.6693 Y-81.3708
G01 X149.6950 Y-81.3527
G01 X149.7215 Y-81.3359
G01 X149.8024 Y-81.2876
G01 X149.8162 Y-81.2800
G01 X149.8442 Y-81.2659
G01 X149.9152 Y-81.2323
G01 X149.9439 Y-81.2196
G01 X149.9732 Y-81.2083
G01 X150.0472 Y-81.1819
G01 X150.0620 Y-81.1767
G01 X150.0921 Y-81.1676
G01 X150.1834 Y-81.1446
G01 X150.2141 Y-81.1377
G01 X150.2450 Y-81.1323
G01 X150.3227 Y-81.1208
G01 X150.3539 Y-81.1169
G01 X150.3852 Y-81.1146
G01 X150.4793 Y-81.1102
G01 X150.5107 Y-81.1102
G01 X150.5264 Y-81.1108
G01 X150.6048 Y-81.1146
G01 X150.6361 Y-81.1169
G01 X150.6673 Y-81.1208
G01 X150.7450 Y-81.1323
G01 X150.7605 Y-81.1348
G01 X150.7913 Y-81.1409
G01 X150.8979 Y-81.1676
G01 X150.9130 Y-81.1720
G01 X150.9428 Y-81.1819
G01 X151.0168 Y-81.2083
G01 X151.0461 Y-81.2196
G01 X151.0748 Y-81.2323
G01 X151.1599 Y-81.2728
G01 X151.1738 Y-81.2800
G01 X151.2011 Y-81.2955
G01 X151.2685 Y-81.3359
G01 X151.2950 Y-81.3527
G01 X151.3207 Y-81.3708
G01 X151.3838 Y-81.4175
G01 X151.4085 Y-81.4369
G01 X151.4205 Y-81.4470
G01 X151.5020 Y-81.5208
G01 X151.5132 Y-81.5318
G01 X151.5349 Y-81.5545
G01 X151.5876 Y-81.6127
G01 X151.6081 Y-81.6365
G01 X151.6275 Y-81.6612
G01 X151.6742 Y-81.7243
G01 X151.6834 Y-81.7370
G01 X151.7009 Y-81.7631
G01 X151.7574 Y-81.8574
G01 X151.7722 Y-81.8851
G01 X151.7791 Y-81.8992
G01 X151.8127 Y-81.9702
G01 X151.8254 Y-81.9989
G01 X151.8367 Y-82.0282
G01 X151.8631 Y-82.1022
G01 X151.8683 Y-82.1170
G01 X151.8774 Y-82.1471
G01 X151.9004 Y-82.2384
G01 X151.9073 Y-82.2691
G01 X151.9127 Y-82.3000
G01 X151.9242 Y-82.3777
G01 X151.9281 Y-82.4089
G01 X151.9294 Y-82.4245
G01 X151.9348 Y-82.5343
G01 X151.9348 Y-82.5657
G01 X151.9342 Y-82.5814
G01 X151.9304 Y-82.6598
G01 X151.9281 Y-82.6911
G01 X151.9242 Y-82.7223
G01 X151.9127 Y-82.8000
G01 X151.9102 Y-82.8155
G01 X151.9041 Y-82.8463
G01 X151.8814 Y-82.9377
G01 X151.8730 Y-82.9680
G01 X151.8631 Y-82.9978
G01 X151.8367 Y-83.0718
G01 X151.8254 Y-83.1011
G01 X151.8127 Y-83.1298
G01 X151.7791 Y-83.2008
G01 X151.7650 Y-83.2288
G01 X151.7574 Y-83.2426
G01 X151.7009 Y-83.3369
G01 X151.6834 Y-83.3630
G01 X151.6696 Y-83.3820
G01 X152.2373 Y-83.9497
G01 X153.3357 Y-83.9497
G01 X153.2823 Y-83.9364
G01 X153.2520 Y-83.9280
G01 X153.2222 Y-83.9181
G01 X153.1335 Y-83.8862
G01 X153.1045 Y-83.8742
G01 X153.0902 Y-83.8677
G01 X153.0051 Y-83.8272
G01 X152.9774 Y-83.8124
G01 X152.8831 Y-83.7559
G01 X152.8570 Y-83.7384
G01 X152.8443 Y-83.7292
G01 X152.7812 Y-83.6825
G01 X152.7565 Y-83.6631
G01 X152.7327 Y-83.6426
G01 X152.6630 Y-83.5792
G01 X152.6518 Y-83.5682
G01 X152.6301 Y-83.5455
G01 X152.5774 Y-83.4873
G01 X152.5569 Y-83.4635
G01 X152.5375 Y-83.4388
G01 X152.4816 Y-83.3630
G01 X152.4641 Y-83.3369
G01 X152.4559 Y-83.3235
G01 X152.4155 Y-83.2561
G01 X152.4000 Y-83.2288
G01 X152.3859 Y-83.2008
G01 X152.3523 Y-83.1298
G01 X152.3458 Y-83.1155
G01 X152.3338 Y-83.0865
G01 X152.2967 Y-82.9830
G01 X152.2920 Y-82.9680
G01 X152.2836 Y-82.9377
G01 X152.2646 Y-82.8616
G01 X152.2577 Y-82.8309
G01 X152.2523 Y-82.8000
G01 X152.2387 Y-82.7068
G01 X152.2369 Y-82.6911
G01 X152.2346 Y-82.6598
G01 X152.2308 Y-82.5814
G01 X152.2300 Y-82.5500
G01 X152.2308 Y-82.5186
G01 X152.2346 Y-82.4402
G01 X152.2356 Y-82.4245
G01 X152.2387 Y-82.3932
G01 X152.2548 Y-82.2845
G01 X152.2609 Y-82.2537
G01 X152.2646 Y-82.2384
G01 X152.2836 Y-82.1623
G01 X152.2920 Y-82.1320
G01 X152.3019 Y-82.1022
G01 X152.3283 Y-82.0282
G01 X152.3338 Y-82.0135
G01 X152.3458 Y-81.9845
G01 X152.3928 Y-81.8851
G01 X152.4000 Y-81.8712
G01 X152.4155 Y-81.8439
G01 X152.4559 Y-81.7765
G01 X152.4727 Y-81.7500
G01 X152.4908 Y-81.7243
G01 X152.5297 Y-81.6717
G01 X152.5297 Y-81.5373
G01 X149.6027 Y-78.6103
G01 X144.0153 Y-78.6103
G01 X144.0153 Y-82.0777
G01 X148.4273 Y-86.4897
G01 X152.7917 Y-86.4897
G01 X152.8570 Y-86.4416
G01 X152.8831 Y-86.4241
G01 X152.9774 Y-86.3676
G01 X153.0051 Y-86.3528
G01 X153.0192 Y-86.3459
G01 X153.1045 Y-86.3058
G01 X153.1335 Y-86.2938
G01 X153.1482 Y-86.2883
G01 X153.2222 Y-86.2619
G01 X153.2520 Y-86.2520
G01 X153.2823 Y-86.2436
G01 X153.3357 Y-86.2303
G01 X151.7650 Y-86.2303
G01 X151.7336 Y-86.2295
G01 X151.6846 Y-86.2271
G01 X151.6689 Y-86.2261
G01 X151.6376 Y-86.2230
G01 X151.5735 Y-86.2137
G01 X151.5425 Y-86.2083
G01 X151.5119 Y-86.2015
G01 X151.4643 Y-86.1895
G01 X151.4340 Y-86.1812
G01 X151.4190 Y-86.1764
G01 X151.3580 Y-86.1548
G01 X151.3286 Y-86.1435
G01 X151.2999 Y-86.1307
G01 X151.2555 Y-86.1097
G01 X151.2275 Y-86.0956
G01 X151.2002 Y-86.0801
G01 X151.1581 Y-86.0549
G01 X151.1447 Y-86.0466
G01 X151.1186 Y-86.0292
G01 X151.0664 Y-85.9908
G01 X151.0416 Y-85.9714
G01 X151.0178 Y-85.9509
G01 X150.9815 Y-85.9179
G01 X150.9587 Y-85.8963
G01 X149.6887 Y-84.6263
G01 X149.6671 Y-84.6035
G01 X149.6341 Y-84.5672
G01 X149.6136 Y-84.5434
G01 X149.6038 Y-84.5311
G01 X149.5558 Y-84.4664
G01 X149.5469 Y-84.4535
G01 X149.5301 Y-84.4269
G01 X149.4970 Y-84.3713
G01 X149.4822 Y-84.3436
G01 X149.4477 Y-84.2708
G01 X149.4357 Y-84.2418
G01 X149.4086 Y-84.1660
G01 X149.3995 Y-84.1359
G01 X149.3799 Y-84.0578
G01 X149.3738 Y-84.0270
G01 X149.3641 Y-83.9629
G01 X149.3602 Y-83.9318
G01 X149.3579 Y-83.9004
G01 X149.3549 Y-83.8357
G01 X149.3547 Y-83.4283
G01 X149.3158 Y-83.3757
G01 X149.2977 Y-83.3500
G01 X149.2809 Y-83.3235
G01 X149.2326 Y-83.2426
G01 X149.2178 Y-83.2149
G01 X149.2109 Y-83.2008
G01 X149.1773 Y-83.1298
G01 X149.1646 Y-83.1011
G01 X149.1533 Y-83.0718
G01 X149.1217 Y-82.9830
G01 X149.1170 Y-82.9680
G01 X149.1086 Y-82.9377
G01 X149.0896 Y-82.8616
G01 X149.0827 Y-82.8309
G01 X149.0773 Y-82.8000
G01 X149.0658 Y-82.7223
G00 Z2.0000
G00 X154.0043 Y-83.9497
G01 F60.00
G01 Z-2.4000
G01 F120.00
G01 X154.9400 Y-83.9497
G01 X154.9714 Y-83.9505
G01 X155.0361 Y-83.9539
G01 X155.0518 Y-83.9552
G01 X155.0829 Y-83.9591
G01 X155.1315 Y-83.9663
G01 X155.1625 Y-83.9717
G01 X155.1931 Y-83.9785
G01 X155.2559 Y-83.9945
G01 X155.2710 Y-83.9988
G01 X155.3008 Y-84.0087
G01 X155.3470 Y-84.0252
G01 X155.3764 Y-84.0365
G01 X155.4051 Y-84.0493
G01 X155.4495 Y-84.0703
G01 X155.4636 Y-84.0772
G01 X155.4913 Y-84.0920
G01 X155.5469 Y-84.1251
G01 X155.5735 Y-84.1419
G01 X155.5992 Y-84.1600
G01 X155.6386 Y-84.1892
G01 X155.6511 Y-84.1988
G01 X155.6754 Y-84.2187
G01 X155.7235 Y-84.2621
G01 X155.7463 Y-84.2837
G01 X159.5563 Y-88.0937
G01 X159.5779 Y-88.1165
G01 X159.6109 Y-88.1528
G01 X159.6314 Y-88.1766
G01 X159.6508 Y-88.2014
G01 X159.6892 Y-88.2536
G01 X159.6981 Y-88.2665
G01 X159.7149 Y-88.2931
G01 X159.7480 Y-88.3487
G01 X159.7628 Y-88.3764
G01 X159.7907 Y-88.4349
G01 X159.8035 Y-88.4636
G01 X159.8148 Y-88.4930
G01 X159.8364 Y-88.5540
G01 X159.8412 Y-88.5690
G01 X159.8495 Y-88.5993
G01 X159.8651 Y-88.6622
G01 X159.8712 Y-88.6930
G01 X159.8809 Y-88.7571
G01 X159.8848 Y-88.7882
G01 X159.8871 Y-88.8196
G01 X159.8895 Y-88.8686
G01 X159.8903 Y-88.9000
G01 X159.8903 Y-92.3757
G01 X159.9036 Y-92.3223
G01 X159.9120 Y-92.2920
G01 X159.9219 Y-92.2622
G01 X159.9483 Y-92.1882
G01 X159.9596 Y-92.1589
G01 X159.9658 Y-92.1445
G01 X160.0059 Y-92.0592
G01 X160.0128 Y-92.0451
G01 X160.0276 Y-92.0174
G01 X160.0841 Y-91.9231
G01 X160.1016 Y-91.8970
G01 X160.1497 Y-91.8317
G01 X160.1497 Y-83.9586
G01 X160.1505 Y-83.9272
G01 X160.1529 Y-83.8782
G01 X160.1539 Y-83.8625
G01 X160.1570 Y-83.8313
G01 X160.1663 Y-83.7671
G01 X160.1717 Y-83.7362
G01 X160.1785 Y-83.7055
G01 X160.1905 Y-83.6579
G01 X160.1945 Y-83.6427
G01 X160.2036 Y-83.6127
G01 X160.2252 Y-83.5516
G01 X160.2365 Y-83.5223
G01 X160.2493 Y-83.4936
G01 X160.2703 Y-83.4492
G01 X160.2844 Y-83.4211
G01 X160.2999 Y-83.3938
G01 X160.3251 Y-83.3517
G01 X160.3419 Y-83.3251
G01 X160.3508 Y-83.3122
G01 X160.3892 Y-83.2600
G01 X160.4086 Y-83.2353
G01 X160.4291 Y-83.2115
G01 X160.4621 Y-83.1751
G01 X160.4837 Y-83.1524
G01 X161.6585 Y-81.9776
G01 X161.6300 Y-81.9392
G01 X161.6119 Y-81.9135
G01 X161.5951 Y-81.8869
G01 X161.5620 Y-81.8313
G01 X161.5472 Y-81.8036
G01 X161.5403 Y-81.7895
G01 X161.5127 Y-81.7308
G01 X161.5007 Y-81.7018
G01 X161.4787 Y-81.6408
G01 X161.4688 Y-81.6110
G01 X161.4605 Y-81.5807
G01 X161.4449 Y-81.5178
G01 X161.4388 Y-81.4870
G01 X161.4291 Y-81.4229
G01 X161.4270 Y-81.4074
G01 X161.4239 Y-81.3761
G01 X161.4205 Y-81.3114
G01 X161.4197 Y-81.2800
G01 X161.4197 Y-78.8904
G01 X161.3945 Y-78.8769
G01 X161.3810 Y-78.8689
G01 X161.3544 Y-78.8521
G01 X161.3288 Y-78.8341
G01 X161.3040 Y-78.8147
G01 X161.2802 Y-78.7942
G01 X161.2575 Y-78.7725
G01 X161.2358 Y-78.7498
G01 X161.2153 Y-78.7260
G01 X161.1959 Y-78.7012
G01 X161.1779 Y-78.6756
G01 X161.1611 Y-78.6490
G01 X161.1456 Y-78.6217
G01 X161.1314 Y-78.5936
G01 X161.1187 Y-78.5649
G01 X161.1074 Y-78.5356
G01 X161.1023 Y-78.5208
G01 X161.0959 Y-78.5001
G01 X161.0846 Y-78.5123
G01 X161.0623 Y-78.5346
G01 X160.9890 Y-78.6013
G01 X160.9652 Y-78.6218
G01 X160.9405 Y-78.6411
G01 X160.8608 Y-78.7000
G01 X160.8478 Y-78.7089
G01 X160.8213 Y-78.7257
G01 X160.7497 Y-78.7686
G01 X160.7224 Y-78.7841
G01 X160.6943 Y-78.7982
G01 X160.6189 Y-78.8339
G01 X160.6046 Y-78.8404
G01 X160.5756 Y-78.8524
G01 X160.4824 Y-78.8860
G01 X160.4525 Y-78.8958
G01 X160.4222 Y-78.9042
G01 X160.3261 Y-78.9281
G01 X160.3107 Y-78.9314
G01 X160.2797 Y-78.9367
G01 X160.1972 Y-78.9490
G01 X160.1660 Y-78.9528
G01 X160.1347 Y-78.9551
G01 X160.0514 Y-78.9592
G01 X160.0200 Y-78.9600
G01 X160.0043 Y-78.9598
G01 X159.9053 Y-78.9551
G01 X159.8740 Y-78.9528
G01 X159.8428 Y-78.9490
G01 X159.7448 Y-78.9342
G01 X159.7293 Y-78.9314
G01 X159.6987 Y-78.9245
G01 X159.6026 Y-78.9002
G01 X159.5725 Y-78.8911
G01 X159.4791 Y-78.8579
G01 X159.4644 Y-78.8524
G01 X159.4354 Y-78.8404
G01 X159.3457 Y-78.7982
G01 X159.3176 Y-78.7841
G01 X159.2903 Y-78.7686
G01 X159.2187 Y-78.7257
G01 X159.2054 Y-78.7175
G01 X159.1792 Y-78.7000
G01 X159.0995 Y-78.6411
G01 X159.0748 Y-78.6218
G01 X159.0510 Y-78.6013
G01 X158.9892 Y-78.5452
G01 X158.9664 Y-78.5236
G01 X158.9554 Y-78.5123
G01 X158.8887 Y-78.4390
G01 X158.8783 Y-78.4273
G01 X158.8584 Y-78.4030
G01 X158.7900 Y-78.3108
G01 X158.7725 Y-78.2846
G01 X158.7500 Y-78.2474
G01 X158.7275 Y-78.2846
G01 X158.7100 Y-78.3108
G01 X158.6416 Y-78.4030
G01 X158.6318 Y-78.4152
G01 X158.6113 Y-78.4390
G01 X158.5446 Y-78.5123
G01 X158.5223 Y-78.5346
G01 X158.4490 Y-78.6013
G01 X158.4252 Y-78.6218
G01 X158.4005 Y-78.6411
G01 X158.3335 Y-78.6908
G01 X158.3078 Y-78.7089
G01 X158.2813 Y-78.7257
G01 X158.1961 Y-78.7765
G01 X158.1684 Y-78.7913
G01 X158.0789 Y-78.8339
G01 X158.0502 Y-78.8466
G01 X158.0209 Y-78.8579
G01 X157.9424 Y-78.8860
G01 X157.9125 Y-78.8958
G01 X157.8974 Y-78.9002
G01 X157.8013 Y-78.9245
G01 X157.7707 Y-78.9314
G01 X157.7397 Y-78.9367
G01 X157.6572 Y-78.9490
G01 X157.6260 Y-78.9528
G01 X157.5947 Y-78.9551
G01 X157.5114 Y-78.9592
G01 X157.4800 Y-78.9600
G01 X157.4486 Y-78.9592
G01 X157.3496 Y-78.9542
G01 X157.3183 Y-78.9511
G01 X157.2048 Y-78.9342
G01 X157.1893 Y-78.9314
G01 X157.1587 Y-78.9245
G01 X157.0778 Y-78.9042
G01 X157.0475 Y-78.8958
G01 X157.0176 Y-78.8860
G01 X156.9391 Y-78.8579
G01 X156.9098 Y-78.8466
G01 X156.8954 Y-78.8404
G01 X156.7916 Y-78.7913
G01 X156.7776 Y-78.7841
G01 X156.7503 Y-78.7686
G01 X156.6654 Y-78.7175
G01 X156.6522 Y-78.7089
G01 X156.6265 Y-78.6908
G01 X156.5595 Y-78.6411
G01 X156.5348 Y-78.6218
G01 X156.5110 Y-78.6013
G01 X156.4492 Y-78.5452
G01 X156.4264 Y-78.5236
G01 X156.4154 Y-78.5123
G01 X156.3487 Y-78.4390
G01 X156.3383 Y-78.4273
G01 X156.3184 Y-78.4030
G01 X156.2500 Y-78.3108
G01 X156.2325 Y-78.2846
G01 X156.2100 Y-78.2474
G01 X156.1875 Y-78.2846
G01 X156.1700 Y-78.3108
G01 X156.1111 Y-78.3905
G01 X156.1016 Y-78.4030
G01 X156.0817 Y-78.4273
G01 X156.0152 Y-78.5008
G01 X155.9936 Y-78.5236
G01 X155.9708 Y-78.5452
G01 X155.8973 Y-78.6117
G01 X155.8730 Y-78.6316
G01 X155.7935 Y-78.6908
G01 X155.7678 Y-78.7089
G01 X155.7413 Y-78.7257
G01 X155.6697 Y-78.7686
G01 X155.6424 Y-78.7841
G01 X155.6143 Y-78.7982
G01 X155.5246 Y-78.8404
G01 X155.4956 Y-78.8524
G01 X155.4024 Y-78.8860
G01 X155.3725 Y-78.8958
G01 X155.3422 Y-78.9042
G01 X155.2613 Y-78.9245
G01 X155.2307 Y-78.9314
G01 X155.1997 Y-78.9367
G01 X155.1172 Y-78.9490
G01 X155.0860 Y-78.9528
G01 X155.0547 Y-78.9551
G01 X154.9714 Y-78.9592
G01 X154.9400 Y-78.9600
G01 X154.9086 Y-78.9592
G01 X154.8253 Y-78.9551
G01 X154.7940 Y-78.9528
G01 X154.7628 Y-78.9490
G01 X154.6648 Y-78.9342
G01 X154.6339 Y-78.9281
G01 X154.5378 Y-78.9042
G01 X154.5075 Y-78.8958
G01 X154.4776 Y-78.8860
G01 X154.3991 Y-78.8579
G01 X154.3698 Y-78.8466
G01 X154.3554 Y-78.8404
G01 X154.2657 Y-78.7982
G01 X154.2376 Y-78.7841
G01 X154.2103 Y-78.7686
G01 X154.1387 Y-78.7257
G01 X154.1122 Y-78.7089
G01 X154.0865 Y-78.6908
G01 X154.0195 Y-78.6411
G01 X153.9948 Y-78.6218
G01 X153.9710 Y-78.6013
G01 X153.8977 Y-78.5346
G01 X153.8754 Y-78.5123
G01 X153.8087 Y-78.4390
G01 X153.7882 Y-78.4152
G01 X153.7689 Y-78.3905
G01 X153.7192 Y-78.3235
G01 X153.7011 Y-78.2978
G01 X153.6843 Y-78.2713
G01 X153.6414 Y-78.1997
G01 X153.6259 Y-78.1724
G01 X153.6118 Y-78.1443
G01 X153.5761 Y-78.0689
G01 X153.5634 Y-78.0402
G01 X153.5521 Y-78.0109
G01 X153.5189 Y-77.9175
G01 X153.5142 Y-77.9025
G01 X153.5058 Y-77.8722
G01 X153.4819 Y-77.7761
G01 X153.4758 Y-77.7452
G01 X153.4610 Y-77.6472
G01 X153.4572 Y-77.6160
G01 X153.4557 Y-77.5983
G01 X152.4677 Y-76.6103
G01 X150.8234 Y-76.6103
G01 X150.8585 Y-76.6421
G01 X150.8813 Y-76.6637
G01 X154.4872 Y-80.2700
G01 X154.5309 Y-80.3178
G01 X154.5514 Y-80.3416
G01 X154.5708 Y-80.3664
G01 X154.6000 Y-80.4058
G01 X154.6181 Y-80.4315
G01 X154.6349 Y-80.4581
G01 X154.6601 Y-80.5002
G01 X154.6756 Y-80.5275
G01 X154.6897 Y-80.5555
G01 X154.7173 Y-80.6142
G01 X154.7293 Y-80.6432
G01 X154.7513 Y-80.7042
G01 X154.7612 Y-80.7340
G01 X154.7695 Y-80.7643
G01 X154.7815 Y-80.8119
G01 X154.7883 Y-80.8425
G01 X154.7937 Y-80.8735
G01 X154.8009 Y-80.9221
G01 X154.8048 Y-80.9532
G01 X154.8071 Y-80.9846
G01 X154.8095 Y-81.0336
G01 X154.8103 Y-81.0650
G01 X154.8103 Y-81.6717
G01 X154.8492 Y-81.7243
G01 X154.8673 Y-81.7500
G01 X154.8841 Y-81.7765
G01 X154.9245 Y-81.8439
G01 X154.9324 Y-81.8574
G01 X154.9472 Y-81.8851
G01 X154.9942 Y-81.9845
G01 X155.0004 Y-81.9989
G01 X155.0117 Y-82.0282
G01 X155.0381 Y-82.1022
G01 X155.0480 Y-82.1320
G01 X155.0564 Y-82.1623
G01 X155.0754 Y-82.2384
G01 X155.0823 Y-82.2691
G01 X155.0852 Y-82.2845
G01 X155.0992 Y-82.3777
G01 X155.1031 Y-82.4089
G01 X155.1054 Y-82.4402
G01 X155.1092 Y-82.5186
G01 X155.1100 Y-82.5500
G01 X155.1092 Y-82.5814
G01 X155.1054 Y-82.6598
G01 X155.1031 Y-82.6911
G01 X155.0992 Y-82.7223
G01 X155.0877 Y-82.8000
G01 X155.0852 Y-82.8155
G01 X155.0791 Y-82.8463
G01 X155.0564 Y-82.9377
G01 X155.0480 Y-82.9680
G01 X155.0381 Y-82.9978
G01 X155.0117 Y-83.0718
G01 X155.0062 Y-83.0865
G01 X154.9942 Y-83.1155
G01 X154.9541 Y-83.2008
G01 X154.9400 Y-83.2288
G01 X154.9245 Y-83.2561
G01 X154.8759 Y-83.3369
G01 X154.8673 Y-83.3500
G01 X154.8492 Y-83.3757
G01 X154.8025 Y-83.4388
G01 X154.7831 Y-83.4635
G01 X154.7626 Y-83.4873
G01 X154.6992 Y-83.5570
G01 X154.6770 Y-83.5792
G01 X154.6073 Y-83.6426
G01 X154.5835 Y-83.6631
G01 X154.5588 Y-83.6825
G01 X154.4957 Y-83.7292
G01 X154.4700 Y-83.7473
G01 X154.4435 Y-83.7641
G01 X154.3626 Y-83.8124
G01 X154.3349 Y-83.8272
G01 X154.2498 Y-83.8677
G01 X154.2355 Y-83.8742
G01 X154.2065 Y-83.8862
G01 X154.1178 Y-83.9181
G01 X154.0880 Y-83.9280
G01 X154.0577 Y-83.9364
G01 X154.0043 Y-83.9497
G00 Z2.0000
G00 X156.5145 Y-88.2770
G01 F60.00
G01 Z-2.4000
G01 F120.00
G01 X154.4677 Y-86.2303
G01 X154.0043 Y-86.2303
G01 X154.0577 Y-86.2436
G01 X154.0880 Y-86.2520
G01 X154.1178 Y-86.2619
G01 X154.2065 Y-86.2938
G01 X154.2211 Y-86.2996
G01 X154.2498 Y-86.3123
G01 X154.3349 Y-86.3528
G01 X154.3626 Y-86.3676
G01 X154.4569 Y-86.4241
G01 X154.4830 Y-86.4416
G01 X154.4957 Y-86.4508
G01 X154.5588 Y-86.4975
G01 X154.5835 Y-86.5169
G01 X154.6073 Y-86.5374
G01 X154.6770 Y-86.6008
G01 X154.6992 Y-86.6230
G01 X154.7099 Y-86.6345
G01 X154.7626 Y-86.6927
G01 X154.7831 Y-86.7165
G01 X154.8025 Y-86.7412
G01 X154.8584 Y-86.8170
G01 X154.8673 Y-86.8300
G01 X154.8841 Y-86.8565
G01 X154.9245 Y-86.9239
G01 X154.9400 Y-86.9512
G01 X154.9541 Y-86.9792
G01 X154.9877 Y-87.0502
G01 X155.0004 Y-87.0789
G01 X155.0062 Y-87.0935
G01 X155.0433 Y-87.1970
G01 X155.0524 Y-87.2271
G01 X155.0564 Y-87.2423
G01 X155.0754 Y-87.3184
G01 X155.0823 Y-87.3491
G01 X155.0877 Y-87.3800
G01 X155.1013 Y-87.4732
G01 X155.1031 Y-87.4889
G01 X155.1054 Y-87.5202
G01 X155.1092 Y-87.5986
G01 X155.1100 Y-87.6300
G01 X155.1092 Y-87.6614
G01 X155.1054 Y-87.7398
G01 X155.1044 Y-87.7555
G01 X155.1013 Y-87.7868
G01 X155.0852 Y-87.8955
G01 X155.0823 Y-87.9109
G01 X155.0754 Y-87.9416
G01 X155.0564 Y-88.0177
G01 X155.0480 Y-88.0480
G01 X155.0381 Y-88.0778
G01 X155.0117 Y-88.1518
G01 X155.0062 Y-88.1665
G01 X154.9942 Y-88.1955
G01 X154.9472 Y-88.2949
G01 X154.9324 Y-88.3226
G01 X154.9245 Y-88.3361
G01 X154.8841 Y-88.4035
G01 X154.8673 Y-88.4300
G01 X154.8492 Y-88.4557
G01 X154.8103 Y-88.5083
G01 X154.8103 Y-88.6233
G01 X155.6756 Y-88.6233
G01 X155.7029 Y-88.5997
G01 X155.7276 Y-88.5803
G01 X155.8034 Y-88.5244
G01 X155.8295 Y-88.5069
G01 X155.9103 Y-88.4583
G01 X155.9376 Y-88.4428
G01 X155.9656 Y-88.4287
G01 X156.0366 Y-88.3951
G01 X156.0653 Y-88.3824
G01 X156.0946 Y-88.3711
G01 X156.1686 Y-88.3447
G01 X156.1984 Y-88.3348
G01 X156.2287 Y-88.3264
G01 X156.3201 Y-88.3037
G01 X156.3509 Y-88.2976
G01 X156.4441 Y-88.2836
G01 X156.4753 Y-88.2797
G01 X156.4909 Y-88.2784
G01 X156.5145 Y-88.2770
G00 Z2.0000
G00 X162.4303 Y-87.9643
G01 F60.00
G01 Z-2.4000
G01 F120.00
G01 X162.4303 Y-91.8317
G01 X162.4692 Y-91.8843
G01 X162.4873 Y-91.9100
G01 X162.5041 Y-91.9365
G01 X162.5445 Y-92.0039
G01 X162.5524 Y-92.0174
G01 X162.5672 Y-92.0451
G01 X162.6142 Y-92.1445
G01 X162.6204 Y-92.1589
G01 X162.6317 Y-92.1882
G01 X162.6581 Y-92.2622
G01 X162.6680 Y-92.2920
G01 X162.6764 Y-92.3223
G01 X162.6954 Y-92.3984
G01 X162.7023 Y-92.4291
G01 X162.7052 Y-92.4445
G01 X162.7213 Y-92.5532
G01 X162.7244 Y-92.5845
G01 X162.7254 Y-92.6002
G01 X162.7292 Y-92.6786
G01 X162.7300 Y-92.7100
G01 X162.7292 Y-92.7414
G01 X162.7254 Y-92.8198
G01 X162.7231 Y-92.8511
G01 X162.7213 Y-92.8668
G01 X162.7077 Y-92.9600
G01 X162.7023 Y-92.9909
G01 X162.6954 Y-93.0216
G01 X162.6764 Y-93.0977
G01 X162.6680 Y-93.1280
G01 X162.6581 Y-93.1578
G01 X162.6317 Y-93.2318
G01 X162.6204 Y-93.2611
G01 X162.6077 Y-93.2898
G01 X162.5741 Y-93.3608
G01 X162.5672 Y-93.3749
G01 X162.5524 Y-93.4026
G01 X162.5041 Y-93.4835
G01 X162.4873 Y-93.5100
G01 X162.4692 Y-93.5357
G01 X162.4225 Y-93.5988
G01 X162.4031 Y-93.6235
G01 X162.3826 Y-93.6473
G01 X162.3299 Y-93.7055
G01 X162.3082 Y-93.7282
G01 X162.2855 Y-93.7499
G01 X162.2273 Y-93.8026
G01 X162.2035 Y-93.8231
G01 X162.1788 Y-93.8425
G01 X162.1157 Y-93.8892
G01 X162.0900 Y-93.9073
G01 X162.0635 Y-93.9241
G01 X161.9826 Y-93.9724
G01 X161.9688 Y-93.9800
G01 X161.9408 Y-93.9941
G01 X161.8698 Y-94.0277
G01 X161.8411 Y-94.0404
G01 X161.8118 Y-94.0517
G01 X161.7378 Y-94.0781
G01 X161.7080 Y-94.0880
G01 X161.6777 Y-94.0964
G01 X161.6016 Y-94.1154
G01 X161.5709 Y-94.1223
G01 X161.5400 Y-94.1277
G01 X161.4623 Y-94.1392
G01 X161.4311 Y-94.1431
G01 X161.3998 Y-94.1454
G01 X161.3057 Y-94.1498
G01 X161.2743 Y-94.1498
G01 X161.1802 Y-94.1454
G01 X161.1489 Y-94.1431
G01 X161.1177 Y-94.1392
G01 X161.0245 Y-94.1252
G01 X160.9937 Y-94.1191
G01 X160.9023 Y-94.0964
G01 X160.8720 Y-94.0880
G01 X160.8422 Y-94.0781
G01 X160.7682 Y-94.0517
G01 X160.7389 Y-94.0404
G01 X160.7102 Y-94.0277
G01 X160.6392 Y-93.9941
G01 X160.6112 Y-93.9800
G01 X160.5839 Y-93.9645
G01 X160.5165 Y-93.9241
G01 X160.4900 Y-93.9073
G01 X160.4643 Y-93.8892
G01 X160.3887 Y-93.8330
G01 X160.3645 Y-93.8130
G01 X160.2945 Y-93.7499
G01 X160.2718 Y-93.7282
G01 X160.2501 Y-93.7055
G01 X160.1870 Y-93.6355
G01 X160.1671 Y-93.6113
G01 X160.1108 Y-93.5357
G01 X160.0927 Y-93.5100
G01 X160.0841 Y-93.4969
G01 X160.0355 Y-93.4161
G01 X160.0200 Y-93.3888
G01 X160.0059 Y-93.3608
G01 X159.9723 Y-93.2898
G01 X159.9596 Y-93.2611
G01 X159.9483 Y-93.2318
G01 X159.9167 Y-93.1430
G01 X159.9076 Y-93.1129
G01 X159.8903 Y-93.0443
G01 X159.8903 Y-96.6497
G01 X170.3097 Y-96.6497
G01 X170.3097 Y-93.5883
G01 X170.2708 Y-93.5357
G01 X170.2527 Y-93.5100
G01 X170.2359 Y-93.4835
G01 X170.1955 Y-93.4161
G01 X170.1800 Y-93.3888
G01 X170.1728 Y-93.3749
G01 X170.1258 Y-93.2755
G01 X170.1138 Y-93.2465
G01 X170.1083 Y-93.2318
G01 X170.0819 Y-93.1578
G01 X170.0720 Y-93.1280
G01 X170.0636 Y-93.0977
G01 X170.0446 Y-93.0216
G01 X170.0377 Y-92.9909
G01 X170.0323 Y-92.9600
G01 X170.0208 Y-92.8823
G01 X170.0169 Y-92.8511
G01 X170.0146 Y-92.8198
G01 X170.0102 Y-92.7257
G01 X170.0102 Y-92.6943
G01 X170.0108 Y-92.6786
G01 X170.0156 Y-92.5845
G01 X170.0169 Y-92.5689
G01 X170.0208 Y-92.5377
G01 X170.0323 Y-92.4600
G01 X170.0377 Y-92.4291
G01 X170.0446 Y-92.3984
G01 X170.0636 Y-92.3223
G01 X170.0720 Y-92.2920
G01 X170.0819 Y-92.2622
G01 X170.1138 Y-92.1735
G01 X170.1196 Y-92.1589
G01 X170.1323 Y-92.1302
G01 X170.1728 Y-92.0451
G01 X170.1876 Y-92.0174
G01 X170.2441 Y-91.9231
G01 X170.2527 Y-91.9100
G01 X170.2708 Y-91.8843
G01 X170.3270 Y-91.8087
G01 X170.3470 Y-91.7845
G01 X170.4101 Y-91.7145
G01 X170.4318 Y-91.6918
G01 X170.4430 Y-91.6808
G01 X170.5127 Y-91.6174
G01 X170.5365 Y-91.5969
G01 X170.5612 Y-91.5775
G01 X170.6243 Y-91.5308
G01 X170.6500 Y-91.5127
G01 X170.6631 Y-91.5041
G01 X170.7439 Y-91.4555
G01 X170.7712 Y-91.4400
G01 X170.7992 Y-91.4259
G01 X170.8702 Y-91.3923
G01 X170.8989 Y-91.3796
G01 X170.9282 Y-91.3683
G01 X171.0022 Y-91.3419
G01 X171.0320 Y-91.3320
G01 X171.0623 Y-91.3236
G01 X171.1384 Y-91.3046
G01 X171.1691 Y-91.2977
G01 X171.2000 Y-91.2923
G01 X171.2777 Y-91.2808
G01 X171.3089 Y-91.2769
G01 X171.3402 Y-91.2746
G01 X171.4186 Y-91.2708
G01 X171.4500 Y-91.2700
G01 X171.4814 Y-91.2708
G01 X171.5598 Y-91.2746
G01 X171.5911 Y-91.2769
G01 X171.6223 Y-91.2808
G01 X171.7000 Y-91.2923
G01 X171.7155 Y-91.2948
G01 X171.7463 Y-91.3009
G01 X171.8377 Y-91.3236
G01 X171.8680 Y-91.3320
G01 X171.8978 Y-91.3419
G01 X171.9718 Y-91.3683
G01 X172.0011 Y-91.3796
G01 X172.0298 Y-91.3923
G01 X172.1008 Y-91.4259
G01 X172.1288 Y-91.4400
G01 X172.1561 Y-91.4555
G01 X172.2235 Y-91.4959
G01 X172.2500 Y-91.5127
G01 X172.2757 Y-91.5308
G01 X172.3388 Y-91.5775
G01 X172.3635 Y-91.5969
G01 X172.3755 Y-91.6070
G01 X172.4455 Y-91.6701
G01 X172.4682 Y-91.6918
G01 X172.4899 Y-91.7145
G01 X172.5426 Y-91.7727
G01 X172.5631 Y-91.7965
G01 X172.5825 Y-91.8212
G01 X172.6292 Y-91.8843
G01 X172.6473 Y-91.9100
G01 X172.6641 Y-91.9365
G01 X172.7045 Y-92.0039
G01 X172.7200 Y-92.0312
G01 X172.7341 Y-92.0592
G01 X172.7742 Y-92.1445
G01 X172.7862 Y-92.1735
G01 X172.8181 Y-92.2622
G01 X172.8280 Y-92.2920
G01 X172.8364 Y-92.3223
G01 X172.8591 Y-92.4137
G01 X172.8652 Y-92.4445
G01 X172.8792 Y-92.5377
G01 X172.8831 Y-92.5689
G01 X172.8844 Y-92.5845
G01 X172.8892 Y-92.6786
G01 X172.8900 Y-92.7100
G01 X172.8892 Y-92.7414
G01 X172.8854 Y-92.8198
G01 X172.8831 Y-92.8511
G01 X172.8792 Y-92.8823
G01 X172.8677 Y-92.9600
G01 X172.8623 Y-92.9909
G01 X172.8554 Y-93.0216
G01 X172.8364 Y-93.0977
G01 X172.8280 Y-93.1280
G01 X172.8181 Y-93.1578
G01 X172.7917 Y-93.2318
G01 X172.7804 Y-93.2611
G01 X172.7677 Y-93.2898
G01 X172.7272 Y-93.3749
G01 X172.7124 Y-93.4026
G01 X172.7045 Y-93.4161
G01 X172.6559 Y-93.4969
G01 X172.6384 Y-93.5230
G01 X172.5903 Y-93.5883
G01 X172.5903 Y-97.7900
G01 X172.5895 Y-97.8214
G01 X172.5871 Y-97.8704
G01 X172.5848 Y-97.9018
G01 X172.5809 Y-97.9329
G01 X172.5737 Y-97.9815
G01 X172.5683 Y-98.0125
G01 X172.5615 Y-98.0431
G01 X172.5495 Y-98.0907
G01 X172.5412 Y-98.1210
G01 X172.5313 Y-98.1508
G01 X172.5148 Y-98.1970
G01 X172.5035 Y-98.2264
G01 X172.4907 Y-98.2551
G01 X172.4628 Y-98.3136
G01 X172.4480 Y-98.3413
G01 X172.4066 Y-98.4103
G01 X172.3892 Y-98.4364
G01 X172.3508 Y-98.4886
G01 X172.3314 Y-98.5134
G01 X172.3213 Y-98.5254
G01 X172.2779 Y-98.5735
G01 X172.2563 Y-98.5963
G01 X172.2335 Y-98.6179
G01 X172.1854 Y-98.6613
G01 X172.1611 Y-98.6812
G01 X172.0964 Y-98.7292
G01 X172.0703 Y-98.7466
G01 X172.0148 Y-98.7801
G01 X171.9875 Y-98.7956
G01 X171.9595 Y-98.8097
G01 X171.9151 Y-98.8307
G01 X171.8864 Y-98.8435
G01 X171.8570 Y-98.8548
G01 X171.8108 Y-98.8713
G01 X171.7810 Y-98.8812
G01 X171.7507 Y-98.8895
G01 X171.7031 Y-98.9015
G01 X171.6725 Y-98.9083
G01 X171.6415 Y-98.9137
G01 X171.5929 Y-98.9209
G01 X171.5618 Y-98.9248
G01 X171.5304 Y-98.9271
G01 X171.4657 Y-98.9301
G01 X157.6304 Y-98.9303
G01 X157.6169 Y-98.9555
G01 X157.6089 Y-98.9690
G01 X157.5921 Y-98.9956
G01 X157.5833 Y-99.0085
G01 X157.5741 Y-99.0212
G01 X157.5547 Y-99.0460
G01 X157.5342 Y-99.0698
G01 X157.5235 Y-99.0813
G01 X157.5125 Y-99.0925
G01 X157.4898 Y-99.1142
G01 X157.4660 Y-99.1347
G01 X157.4412 Y-99.1541
G01 X157.4285 Y-99.1633
G01 X157.4024 Y-99.1807
G01 X157.3890 Y-99.1889
G01 X157.3617 Y-99.2044
G01 X157.3336 Y-99.2186
G01 X157.3194 Y-99.2251
G01 X157.3049 Y-99.2313
G01 X157.2756 Y-99.2426
G01 X157.2458 Y-99.2524
G01 X157.2307 Y-99.2568
G01 X157.2002 Y-99.2644
G01 X157.1849 Y-99.2677
G01 X157.1539 Y-99.2731
G01 X157.1383 Y-99.2752
G01 X157.1227 Y-99.2769
G01 X157.0914 Y-99.2792
G01 X157.0600 Y-99.2800
G01 X155.3600 Y-99.2800
G01 X155.3286 Y-99.2792
G01 X155.2973 Y-99.2769
G01 X155.2661 Y-99.2731
G01 X155.2351 Y-99.2677
G01 X155.2045 Y-99.2608
G01 X155.1893 Y-99.2568
G01 X155.1592 Y-99.2477
G01 X155.1444 Y-99.2426
G01 X155.1151 Y-99.2313
G01 X155.1006 Y-99.2251
G01 X155.0722 Y-99.2117
G01 X155.0583 Y-99.2044
G01 X155.0310 Y-99.1889
G01 X155.0044 Y-99.1721
G01 X154.9788 Y-99.1541
G01 X154.9663 Y-99.1445
G01 X154.9540 Y-99.1347
G01 X154.9302 Y-99.1142
G01 X154.9075 Y-99.0925
G01 X154.8858 Y-99.0698
G01 X154.8754 Y-99.0580
G01 X154.8555 Y-99.0337
G01 X154.8459 Y-99.0212
G01 X154.8279 Y-98.9956
G01 X154.8193 Y-98.9824
G01 X154.8031 Y-98.9555
G01 X154.7956 Y-98.9417
G01 X154.7883 Y-98.9278
G01 X154.7749 Y-98.8994
G01 X154.7687 Y-98.8849
G01 X154.7574 Y-98.8556
G01 X154.7523 Y-98.8408
G01 X154.7459 Y-98.8201
G01 X154.7346 Y-98.8323
G01 X154.7123 Y-98.8546
G01 X154.6390 Y-98.9213
G01 X154.6152 Y-98.9418
G01 X154.5905 Y-98.9611
G01 X154.5235 Y-99.0108
G01 X154.4978 Y-99.0289
G01 X154.4846 Y-99.0375
G01 X154.3997 Y-99.0886
G01 X154.3724 Y-99.1041
G01 X154.3443 Y-99.1182
G01 X154.2689 Y-99.1539
G01 X154.2402 Y-99.1666
G01 X154.2256 Y-99.1724
G01 X154.1175 Y-99.2111
G01 X154.0874 Y-99.2202
G01 X154.0722 Y-99.2242
G01 X153.9913 Y-99.2445
G01 X153.9607 Y-99.2514
G01 X153.9297 Y-99.2567
G01 X153.8317 Y-99.2711
G01 X153.8160 Y-99.2728
G01 X153.7847 Y-99.2751
G01 X153.7014 Y-99.2792
G01 X153.6700 Y-99.2800
G01 X153.6386 Y-99.2792
G01 X153.5553 Y-99.2751
G01 X153.5240 Y-99.2728
G01 X153.5083 Y-99.2711
G01 X153.3948 Y-99.2542
G01 X153.3793 Y-99.2514
G01 X153.3487 Y-99.2445
G01 X153.2526 Y-99.2202
G01 X153.2225 Y-99.2111
G01 X153.1291 Y-99.1779
G01 X153.0998 Y-99.1666
G01 X153.0711 Y-99.1539
G01 X152.9957 Y-99.1182
G01 X152.9676 Y-99.1041
G01 X152.9539 Y-99.0965
G01 X152.8687 Y-99.0457
G01 X152.8422 Y-99.0289
G01 X152.8165 Y-99.0108
G01 X152.7370 Y-98.9516
G01 X152.7127 Y-98.9317
G01 X152.7010 Y-98.9213
G01 X152.6392 Y-98.8652
G01 X152.6164 Y-98.8436
G01 X152.5948 Y-98.8208
G01 X152.5387 Y-98.7590
G01 X152.5283 Y-98.7473
G01 X152.5084 Y-98.7230
G01 X152.4492 Y-98.6435
G01 X152.4311 Y-98.6178
G01 X152.4143 Y-98.5913
G01 X152.3714 Y-98.5197
G01 X152.3559 Y-98.4924
G01 X152.3418 Y-98.4643
G01 X152.3061 Y-98.3889
G01 X152.2996 Y-98.3746
G01 X152.2876 Y-98.3456
G01 X152.2540 Y-98.2524
G01 X152.2442 Y-98.2225
G01 X152.2358 Y-98.1922
G01 X152.2155 Y-98.1113
G01 X152.2086 Y-98.0807
G01 X152.2033 Y-98.0497
G01 X152.1910 Y-97.9672
G01 X152.1872 Y-97.9360
G01 X152.1849 Y-97.9047
G01 X152.1808 Y-97.8214
G01 X152.1800 Y-97.7900
G01 X152.1808 Y-97.7586
G01 X152.1858 Y-97.6596
G01 X152.1872 Y-97.6440
G01 X152.1910 Y-97.6128
G01 X152.2033 Y-97.5303
G01 X152.2086 Y-97.4993
G01 X152.2155 Y-97.4687
G01 X152.2398 Y-97.3726
G01 X152.2489 Y-97.3425
G01 X152.2821 Y-97.2491
G01 X152.2934 Y-97.2198
G01 X152.2996 Y-97.2054
G01 X152.3418 Y-97.1157
G01 X152.3559 Y-97.0876
G01 X152.3714 Y-97.0603
G01 X152.4143 Y-96.9887
G01 X152.4311 Y-96.9622
G01 X152.4492 Y-96.9365
G01 X152.5084 Y-96.8570
G01 X152.5297 Y-96.8311
G01 X152.5297 Y-96.2089
G01 X152.5084 Y-96.1830
G01 X152.4492 Y-96.1035
G01 X152.4311 Y-96.0778
G01 X152.4143 Y-96.0513
G01 X152.3714 Y-95.9797
G01 X152.3559 Y-95.9524
G01 X152.3418 Y-95.9243
G01 X152.3061 Y-95.8489
G01 X152.2934 Y-95.8202
G01 X152.2821 Y-95.7909
G01 X152.2540 Y-95.7124
G01 X152.2442 Y-95.6825
G01 X152.2358 Y-95.6522
G01 X152.2155 Y-95.5713
G01 X152.2086 Y-95.5407
G01 X152.2033 Y-95.5097
G01 X152.1889 Y-95.4117
G01 X152.1857 Y-95.3783
G01 X150.6577 Y-93.8503
G01 X145.2523 Y-93.8503
G01 X144.0640 Y-95.0386
G01 X144.1061 Y-95.1282
G01 X144.1182 Y-95.1572
G01 X144.1666 Y-95.2920
G01 X144.1765 Y-95.3218
G01 X144.1808 Y-95.3369
G01 X144.2158 Y-95.4759
G01 X144.2227 Y-95.5065
G01 X144.2281 Y-95.5375
G01 X144.2489 Y-95.6792
G01 X144.2507 Y-95.6948
G01 X144.2530 Y-95.7262
G01 X144.2592 Y-95.8536
G01 X144.2600 Y-95.8850
G01 X144.2592 Y-95.9164
G01 X144.2530 Y-96.0438
G01 X144.2507 Y-96.0752
G01 X144.2468 Y-96.1063
G01 X144.2281 Y-96.2325
G01 X144.2227 Y-96.2635
G01 X144.2195 Y-96.2788
G01 X144.1848 Y-96.4179
G01 X144.1765 Y-96.4482
G01 X144.1666 Y-96.4780
G01 X144.1236 Y-96.5981
G01 X144.1123 Y-96.6274
G01 X144.0996 Y-96.6561
G01 X144.0451 Y-96.7715
G01 X144.0309 Y-96.7995
G01 X144.0154 Y-96.8268
G01 X143.9416 Y-96.9496
G01 X143.9242 Y-96.9758
G01 X143.9150 Y-96.9885
G01 X143.8390 Y-97.0910
G01 X143.8196 Y-97.1157
G01 X143.7991 Y-97.1395
G01 X143.7028 Y-97.2455
G01 X143.6805 Y-97.2678
G01 X143.6690 Y-97.2784
G01 X143.5627 Y-97.3745
G01 X143.5385 Y-97.3945
G01 X143.4603 Y-97.4527
G01 X143.4603 Y-97.7235
G01 X143.4595 Y-97.7549
G01 X143.4571 Y-97.8039
G01 X143.4548 Y-97.8352
G01 X143.4509 Y-97.8664
G01 X143.4437 Y-97.9150
G01 X143.4383 Y-97.9459
G01 X143.4315 Y-97.9766
G01 X143.4195 Y-98.0242
G01 X143.4112 Y-98.0545
G01 X143.4013 Y-98.0843
G01 X143.3793 Y-98.1452
G01 X143.3673 Y-98.1743
G01 X143.3328 Y-98.2470
G01 X143.3180 Y-98.2747
G01 X143.2849 Y-98.3304
G01 X143.2766 Y-98.3438
G01 X143.2592 Y-98.3699
G01 X143.2112 Y-98.4346
G01 X143.1913 Y-98.4589
G01 X143.1809 Y-98.4706
G01 X143.1479 Y-98.5070
G01 X143.1263 Y-98.5298
G01 X143.1035 Y-98.5514
G01 X143.0554 Y-98.5948
G01 X143.0311 Y-98.6147
G01 X143.0175 Y-98.6250
G01 X141.3126 Y-100.3300
G01 X144.2363 Y-103.2537
G01 X182.6617 Y-103.2537
G01 X183.7717 Y-102.1437
G01 X183.7717 Y-83.4283
G01 X183.7236 Y-83.3630
G01 X183.7061 Y-83.3369
G01 X183.6496 Y-83.2426
G01 X183.6348 Y-83.2149
G01 X183.6279 Y-83.2008
G01 X183.5878 Y-83.1155
G01 X183.5816 Y-83.1011
G01 X183.5703 Y-83.0718
G01 X183.5439 Y-82.9978
G01 X183.5340 Y-82.9680
G01 X183.5256 Y-82.9377
G01 X183.5123 Y-82.8843
G01 X183.5123 Y-101.3460
G01 X183.5115 Y-101.3774
G01 X183.5091 Y-101.4264
G01 X183.5068 Y-101.4578
G01 X183.5029 Y-101.4889
G01 X183.4932 Y-101.5530
G01 X183.4871 Y-101.5838
G01 X183.4715 Y-101.6467
G01 X183.4632 Y-101.6770
G01 X183.4533 Y-101.7068
G01 X183.4313 Y-101.7678
G01 X183.4193 Y-101.7968
G01 X183.3917 Y-101.8555
G01 X183.3848 Y-101.8696
G01 X183.3700 Y-101.8973
G01 X183.3369 Y-101.9529
G01 X183.3201 Y-101.9795
G01 X183.3020 Y-102.0052
G01 X183.2632 Y-102.0571
G01 X183.2433 Y-102.0814
G01 X183.2329 Y-102.0932
G01 X183.1999 Y-102.1295
G01 X183.1783 Y-102.1523
G01 X182.9243 Y-102.4063
G01 X182.9015 Y-102.4279
G01 X182.8652 Y-102.4609
G01 X182.8414 Y-102.4814
G01 X182.8166 Y-102.5008
G01 X182.7772 Y-102.5300
G01 X182.7515 Y-102.5481
G01 X182.7249 Y-102.5649
G01 X182.6828 Y-102.5901
G01 X182.6555 Y-102.6056
G01 X182.6275 Y-102.6197
G01 X182.5688 Y-102.6473
G01 X182.5398 Y-102.6593
G01 X182.4788 Y-102.6813
G01 X182.4490 Y-102.6912
G01 X182.4187 Y-102.6995
G01 X182.3711 Y-102.7115
G01 X182.3405 Y-102.7183
G01 X182.3095 Y-102.7237
G01 X182.2609 Y-102.7309
G01 X182.2298 Y-102.7348
G01 X182.1984 Y-102.7371
G01 X182.1494 Y-102.7395
G01 X182.1180 Y-102.7403
G01 X147.3200 Y-102.7403
G01 X147.2886 Y-102.7395
G01 X147.2239 Y-102.7361
G01 X147.2082 Y-102.7348
G01 X147.1771 Y-102.7309
G01 X147.1285 Y-102.7237
G01 X147.0975 Y-102.7183
G01 X147.0669 Y-102.7115
G01 X147.0041 Y-102.6955
G01 X146.9890 Y-102.6912
G01 X146.9592 Y-102.6813
G01 X146.8982 Y-102.6593
G01 X146.8692 Y-102.6473
G01 X146.8105 Y-102.6197
G01 X146.7825 Y-102.6056
G01 X146.7552 Y-102.5901
G01 X146.7131 Y-102.5649
G01 X146.6865 Y-102.5481
G01 X146.6736 Y-102.5392
G01 X146.6214 Y-102.5008
G01 X146.5966 Y-102.4814
G01 X146.5728 Y-102.4609
G01 X146.5250 Y-102.4172
G01 X146.5137 Y-102.4063
G01 X146.4921 Y-102.3835
G01 X146.4591 Y-102.3472
G01 X146.4386 Y-102.3234
G01 X146.4192 Y-102.2986
G01 X146.3900 Y-102.2592
G01 X146.3719 Y-102.2335
G01 X146.3551 Y-102.2069
G01 X146.3220 Y-102.1513
G01 X146.3144 Y-102.1375
G01 X146.3003 Y-102.1095
G01 X146.2793 Y-102.0651
G01 X146.2665 Y-102.0364
G01 X146.2552 Y-102.0070
G01 X146.2336 Y-101.9460
G01 X146.2245 Y-101.9159
G01 X146.2085 Y-101.8531
G01 X146.2049 Y-101.8378
G01 X146.1988 Y-101.8070
G01 X146.1891 Y-101.7429
G01 X146.1852 Y-101.7118
G01 X146.1829 Y-101.6804
G01 X146.1799 Y-101.6157
G01 X146.1797 Y-97.8250
G01 X146.0200 Y-97.8250
G01 X145.9886 Y-97.8242
G01 X145.9573 Y-97.8219
G01 X145.9261 Y-97.8181
G01 X145.8951 Y-97.8127
G01 X145.8645 Y-97.8058
G01 X145.8342 Y-97.7974
G01 X145.8044 Y-97.7876
G01 X145.7751 Y-97.7763
G01 X145.7606 Y-97.7701
G01 X145.7322 Y-97.7567
G01 X145.7045 Y-97.7419
G01 X145.6776 Y-97.7257
G01 X145.6515 Y-97.7083
G01 X145.6263 Y-97.6895
G01 X145.6020 Y-97.6696
G01 X145.5787 Y-97.6485
G01 X145.5565 Y-97.6263
G01 X145.5354 Y-97.6030
G01 X145.5253 Y-97.5910
G01 X145.5059 Y-97.5662
G01 X145.4879 Y-97.5406
G01 X145.4711 Y-97.5140
G01 X145.4556 Y-97.4867
G01 X145.4414 Y-97.4586
G01 X145.4349 Y-97.4444
G01 X145.4229 Y-97.4153
G01 X145.4123 Y-97.3858
G01 X145.4032 Y-97.3557
G01 X145.3956 Y-97.3252
G01 X145.3894 Y-97.2944
G01 X145.3869 Y-97.2789
G01 X145.3831 Y-97.2477
G01 X145.3808 Y-97.2164
G01 X145.3800 Y-97.1850
G01 X145.3800 Y-94.5850
G01 X145.3808 Y-94.5536
G01 X145.3831 Y-94.5223
G01 X145.3869 Y-94.4911
G01 X145.3923 Y-94.4601
G01 X145.3956 Y-94.4448
G01 X145.4032 Y-94.4143
G01 X145.4123 Y-94.3842
G01 X145.4229 Y-94.3547
G01 X145.4349 Y-94.3256
G01 X145.4414 Y-94.3114
G01 X145.4556 Y-94.2833
G01 X145.4711 Y-94.2560
G01 X145.4879 Y-94.2294
G01 X145.5059 Y-94.2038
G01 X145.5253 Y-94.1790
G01 X145.5458 Y-94.1552
G01 X145.5675 Y-94.1325
G01 X145.5902 Y-94.1108
G01 X145.6140 Y-94.0903
G01 X145.6263 Y-94.0805
G01 X145.6515 Y-94.0617
G01 X145.6776 Y-94.0443
G01 X145.7045 Y-94.0281
G01 X145.7322 Y-94.0133
G01 X145.7606 Y-93.9999
G01 X145.7897 Y-93.9879
G01 X145.8192 Y-93.9773
G01 X145.8493 Y-93.9682
G01 X145.8645 Y-93.9642
G01 X145.8951 Y-93.9573
G01 X145.9261 Y-93.9519
G01 X145.9573 Y-93.9481
G01 X145.9886 Y-93.9458
G01 X146.0200 Y-93.9450
G01 X148.6200 Y-93.9450
G01 X148.6514 Y-93.9458
G01 X148.6827 Y-93.9481
G01 X148.6983 Y-93.9498
G01 X148.7294 Y-93.9544
G01 X148.7602 Y-93.9606
G01 X148.7907 Y-93.9682
G01 X148.8208 Y-93.9773
G01 X148.8503 Y-93.9879
G01 X148.8649 Y-93.9937
G01 X148.8936 Y-94.0064
G01 X148.9078 Y-94.0133
G01 X148.9355 Y-94.0281
G01 X148.9624 Y-94.0443
G01 X148.9885 Y-94.0617
G01 X149.0137 Y-94.0805
G01 X149.0260 Y-94.0903
G01 X149.0380 Y-94.1004
G01 X149.0613 Y-94.1215
G01 X149.0835 Y-94.1437
G01 X149.0942 Y-94.1552
G01 X149.1046 Y-94.1670
G01 X149.1245 Y-94.1913
G01 X149.1341 Y-94.2038
G01 X149.1521 Y-94.2294
G01 X149.1689 Y-94.2560
G01 X149.1844 Y-94.2833
G01 X149.1986 Y-94.3114
G01 X149.2113 Y-94.3401
G01 X149.2226 Y-94.3694
G01 X149.2277 Y-94.3842
G01 X149.2324 Y-94.3992
G01 X149.2408 Y-94.4295
G01 X149.2477 Y-94.4601
G01 X149.2506 Y-94.4756
G01 X149.2531 Y-94.4911
G01 X149.2569 Y-94.5223
G01 X149.2592 Y-94.5536
G01 X149.2600 Y-94.5850
G01 X149.2598 Y-97.2007
G01 X149.2583 Y-97.2321
G01 X149.2552 Y-97.2633
G01 X149.2506 Y-97.2944
G01 X149.2477 Y-97.3099
G01 X149.2408 Y-97.3405
G01 X149.2324 Y-97.3708
G01 X149.2277 Y-97.3858
G01 X149.2171 Y-97.4153
G01 X149.2051 Y-97.4444
G01 X149.1917 Y-97.4728
G01 X149.1769 Y-97.5005
G01 X149.1607 Y-97.5274
G01 X149.1521 Y-97.5406
G01 X149.1341 Y-97.5662
G01 X149.1147 Y-97.5910
G01 X149.0942 Y-97.6148
G01 X149.0725 Y-97.6375
G01 X149.0613 Y-97.6485
G01 X149.0380 Y-97.6696
G01 X149.0137 Y-97.6895
G01 X148.9885 Y-97.7083
G01 X148.9756 Y-97.7171
G01 X148.9490 Y-97.7339
G01 X148.9217 Y-97.7494
G01 X148.8936 Y-97.7636
G01 X148.8649 Y-97.7763
G01 X148.8356 Y-97.7876
G01 X148.8058 Y-97.7974
G01 X148.7755 Y-97.8058
G01 X148.7449 Y-97.8127
G01 X148.7139 Y-97.8181
G01 X148.6827 Y-97.8219
G01 X148.6514 Y-97.8242
G01 X148.6200 Y-97.8250
G01 X148.4603 Y-97.8250
G01 X148.4603 Y-100.4597
G01 X181.2317 Y-100.4597
G01 X181.2317 Y-37.8702
G01 X181.0638 Y-37.8702
G01 X181.0840 Y-37.9043
G01 X181.0988 Y-37.9320
G01 X181.1333 Y-38.0048
G01 X181.1395 Y-38.0192
G01 X181.1508 Y-38.0486
G01 X181.1724 Y-38.1096
G01 X181.1815 Y-38.1397
G01 X181.1975 Y-38.2025
G01 X181.2043 Y-38.2331
G01 X181.2097 Y-38.2641
G01 X181.2169 Y-38.3127
G01 X181.2208 Y-38.3438
G01 X181.2221 Y-38.3595
G01 X181.2255 Y-38.4242
G01 X181.2263 Y-38.4556
G01 X181.2263 Y-78.7400
G01 X181.2255 Y-78.7714
G01 X181.2231 Y-78.8204
G01 X181.2208 Y-78.8518
G01 X181.2169 Y-78.8829
G01 X181.2097 Y-78.9315
G01 X181.2043 Y-78.9625
G01 X181.1975 Y-78.9931
G01 X181.1855 Y-79.0407
G01 X181.1772 Y-79.0710
G01 X181.1673 Y-79.1008
G01 X181.1453 Y-79.1618
G01 X181.1333 Y-79.1908
G01 X181.0988 Y-79.2636
G01 X181.0840 Y-79.2913
G01 X181.0509 Y-79.3469
G01 X181.0341 Y-79.3735
G01 X181.0160 Y-79.3992
G01 X180.9772 Y-79.4511
G01 X180.9573 Y-79.4754
G01 X180.9469 Y-79.4872
G01 X180.9139 Y-79.5235
G01 X180.8923 Y-79.5463
G01 X180.1303 Y-80.3083
G01 X180.1075 Y-80.3299
G01 X180.0594 Y-80.3733
G01 X180.0351 Y-80.3932
G01 X179.9832 Y-80.4320
G01 X179.9575 Y-80.4501
G01 X179.9443 Y-80.4586
G01 X179.8888 Y-80.4921
G01 X179.8615 Y-80.5076
G01 X179.8335 Y-80.5217
G01 X179.7748 Y-80.5493
G01 X179.7458 Y-80.5613
G01 X179.6848 Y-80.5833
G01 X179.6550 Y-80.5932
G01 X179.6399 Y-80.5975
G01 X179.5771 Y-80.6135
G01 X179.5465 Y-80.6203
G01 X179.5155 Y-80.6257
G01 X179.4669 Y-80.6329
G01 X179.4358 Y-80.6368
G01 X179.4201 Y-80.6381
G01 X179.3554 Y-80.6415
G01 X179.3240 Y-80.6423
G01 X170.5583 Y-80.6423
G01 X170.5583 Y-87.6300
G01 X170.5575 Y-87.6614
G01 X170.5541 Y-87.7261
G01 X170.5510 Y-87.7574
G01 X170.5489 Y-87.7729
G01 X170.5417 Y-87.8215
G01 X170.5363 Y-87.8525
G01 X170.5295 Y-87.8831
G01 X170.5135 Y-87.9459
G01 X170.5092 Y-87.9610
G01 X170.4993 Y-87.9908
G01 X170.4828 Y-88.0370
G01 X170.4715 Y-88.0664
G01 X170.4587 Y-88.0951
G01 X170.4308 Y-88.1536
G01 X170.4160 Y-88.1813
G01 X170.3829 Y-88.2369
G01 X170.3661 Y-88.2635
G01 X170.3572 Y-88.2764
G01 X170.3188 Y-88.3286
G01 X170.2994 Y-88.3534
G01 X170.2789 Y-88.3772
G01 X170.2459 Y-88.4135
G01 X170.2243 Y-88.4363
G01 X170.2130 Y-88.4472
G01 X170.1652 Y-88.4909
G01 X170.1414 Y-88.5114
G01 X170.1166 Y-88.5308
G01 X170.0772 Y-88.5600
G01 X170.0644 Y-88.5692
G01 X170.0383 Y-88.5866
G01 X169.9828 Y-88.6201
G01 X169.9555 Y-88.6356
G01 X169.9275 Y-88.6497
G01 X169.8831 Y-88.6707
G01 X169.8544 Y-88.6835
G01 X169.8398 Y-88.6893
G01 X169.7640 Y-88.7164
G01 X169.7339 Y-88.7255
G01 X169.6558 Y-88.7451
G01 X169.6250 Y-88.7512
G01 X169.5454 Y-88.7630
G01 X169.5141 Y-88.7661
G01 X169.4337 Y-88.7701
G01 X164.7083 Y-88.7703
G01 X164.6430 Y-88.8184
G01 X164.6169 Y-88.8359
G01 X164.5361 Y-88.8845
G01 X164.5088 Y-88.9000
G01 X164.4949 Y-88.9072
G01 X164.4098 Y-88.9477
G01 X164.3811 Y-88.9604
G01 X164.3518 Y-88.9717
G01 X164.2778 Y-88.9981
G01 X164.2480 Y-89.0080
G01 X164.2329 Y-89.0124
G01 X164.1416 Y-89.0354
G01 X164.1109 Y-89.0423
G01 X164.0800 Y-89.0477
G01 X164.0023 Y-89.0592
G01 X163.9711 Y-89.0631
G01 X163.9398 Y-89.0654
G01 X163.8614 Y-89.0692
G01 X163.8300 Y-89.0700
G01 X163.7986 Y-89.0692
G01 X163.7202 Y-89.0654
G01 X163.6889 Y-89.0631
G01 X163.6577 Y-89.0592
G01 X163.5800 Y-89.0477
G01 X163.5491 Y-89.0423
G01 X163.5184 Y-89.0354
G01 X163.4423 Y-89.0164
G01 X163.4271 Y-89.0124
G01 X163.3970 Y-89.0033
G01 X163.3082 Y-88.9717
G01 X163.2789 Y-88.9604
G01 X163.2502 Y-88.9477
G01 X163.1792 Y-88.9141
G01 X163.1512 Y-88.9000
G01 X163.1239 Y-88.8845
G01 X163.0565 Y-88.8441
G01 X163.0300 Y-88.8273
G01 X163.0043 Y-88.8092
G01 X162.9287 Y-88.7530
G01 X162.9045 Y-88.7330
G01 X162.8345 Y-88.6699
G01 X162.8118 Y-88.6482
G01 X162.7901 Y-88.6255
G01 X162.7374 Y-88.5673
G01 X162.7169 Y-88.5435
G01 X162.6975 Y-88.5188
G01 X162.6416 Y-88.4430
G01 X162.6241 Y-88.4169
G01 X162.5755 Y-88.3361
G01 X162.5600 Y-88.3088
G01 X162.5459 Y-88.2808
G01 X162.5123 Y-88.2098
G01 X162.4996 Y-88.1811
G01 X162.4883 Y-88.1518
G01 X162.4567 Y-88.0630
G01 X162.4476 Y-88.0329
G01 X162.4303 Y-87.9643
G00 Z2.0000
G00 X168.2777 Y-83.7814
G01 F60.00
G01 Z-2.4000
G01 F120.00
G01 X168.2575 Y-83.8025
G01 X168.2348 Y-83.8242
G01 X168.2110 Y-83.8447
G01 X168.1862 Y-83.8641
G01 X168.1606 Y-83.8821
G01 X168.1340 Y-83.8989
G01 X168.1067 Y-83.9144
G01 X168.0928 Y-83.9217
G01 X168.0644 Y-83.9351
G01 X168.0353 Y-83.9471
G01 X168.0206 Y-83.9526
G01 X167.9908 Y-83.9624
G01 X167.9605 Y-83.9708
G01 X167.9299 Y-83.9777
G01 X167.8989 Y-83.9831
G01 X167.8677 Y-83.9869
G01 X167.8364 Y-83.9892
G01 X167.8050 Y-83.9900
G01 X166.1893 Y-83.9898
G01 X166.1736 Y-83.9892
G01 X166.1423 Y-83.9869
G01 X166.1111 Y-83.9831
G01 X166.0801 Y-83.9777
G01 X166.0648 Y-83.9744
G01 X166.0343 Y-83.9668
G01 X166.0042 Y-83.9577
G01 X165.9747 Y-83.9471
G01 X165.9601 Y-83.9413
G01 X165.9456 Y-83.9351
G01 X165.9172 Y-83.9217
G01 X165.8895 Y-83.9069
G01 X165.8626 Y-83.8907
G01 X165.8494 Y-83.8821
G01 X165.8238 Y-83.8641
G01 X165.7990 Y-83.8447
G01 X165.7870 Y-83.8346
G01 X165.7637 Y-83.8135
G01 X165.7415 Y-83.7913
G01 X165.7308 Y-83.7798
G01 X165.7103 Y-83.7560
G01 X165.6909 Y-83.7312
G01 X165.6817 Y-83.7185
G01 X165.6630 Y-83.6903
G01 X164.7083 Y-83.6903
G01 X164.6430 Y-83.7384
G01 X164.6169 Y-83.7559
G01 X164.5361 Y-83.8045
G01 X164.5088 Y-83.8200
G01 X164.4808 Y-83.8341
G01 X164.4098 Y-83.8677
G01 X164.3811 Y-83.8804
G01 X164.3518 Y-83.8917
G01 X164.2630 Y-83.9233
G01 X164.2329 Y-83.9324
G01 X164.1416 Y-83.9554
G01 X164.1109 Y-83.9623
G01 X164.0800 Y-83.9677
G01 X164.0023 Y-83.9792
G01 X163.9711 Y-83.9831
G01 X163.9398 Y-83.9854
G01 X163.8614 Y-83.9892
G01 X163.8300 Y-83.9900
G01 X163.7986 Y-83.9892
G01 X163.7045 Y-83.9844
G01 X163.6889 Y-83.9831
G01 X163.6577 Y-83.9792
G01 X163.5800 Y-83.9677
G01 X163.5491 Y-83.9623
G01 X163.5184 Y-83.9554
G01 X163.4271 Y-83.9324
G01 X163.3970 Y-83.9233
G01 X163.3822 Y-83.9181
G01 X163.2935 Y-83.8862
G01 X163.2645 Y-83.8742
G01 X163.1792 Y-83.8341
G01 X163.1512 Y-83.8200
G01 X163.1239 Y-83.8045
G01 X163.0819 Y-83.7793
G01 X162.4303 Y-84.4309
G01 X162.4303 Y-87.2957
G01 X162.4476 Y-87.2271
G01 X162.4567 Y-87.1970
G01 X162.4883 Y-87.1082
G01 X162.4996 Y-87.0789
G01 X162.5123 Y-87.0502
G01 X162.5459 Y-86.9792
G01 X162.5600 Y-86.9512
G01 X162.5755 Y-86.9239
G01 X162.6159 Y-86.8565
G01 X162.6327 Y-86.8300
G01 X162.6508 Y-86.8043
G01 X162.7070 Y-86.7287
G01 X162.7270 Y-86.7045
G01 X162.7901 Y-86.6345
G01 X162.8118 Y-86.6118
G01 X162.8345 Y-86.5901
G01 X162.8927 Y-86.5374
G01 X162.9165 Y-86.5169
G01 X162.9412 Y-86.4975
G01 X163.0170 Y-86.4416
G01 X163.0431 Y-86.4241
G01 X163.1239 Y-86.3755
G01 X163.1512 Y-86.3600
G01 X163.1792 Y-86.3459
G01 X163.2645 Y-86.3058
G01 X163.2935 Y-86.2938
G01 X163.3822 Y-86.2619
G01 X163.4120 Y-86.2520
G01 X163.4271 Y-86.2476
G01 X163.5184 Y-86.2246
G01 X163.5491 Y-86.2177
G01 X163.5800 Y-86.2123
G01 X163.6577 Y-86.2008
G01 X163.6889 Y-86.1969
G01 X163.7045 Y-86.1956
G01 X163.8143 Y-86.1902
G01 X163.8457 Y-86.1902
G01 X163.8614 Y-86.1908
G01 X163.9555 Y-86.1956
G01 X163.9868 Y-86.1987
G01 X164.0023 Y-86.2008
G01 X164.0800 Y-86.2123
G01 X164.1109 Y-86.2177
G01 X164.1416 Y-86.2246
G01 X164.2329 Y-86.2476
G01 X164.2480 Y-86.2520
G01 X164.2778 Y-86.2619
G01 X164.3518 Y-86.2883
G01 X164.3811 Y-86.2996
G01 X164.4098 Y-86.3123
G01 X164.4949 Y-86.3528
G01 X164.5088 Y-86.3600
G01 X164.5361 Y-86.3755
G01 X164.6169 Y-86.4241
G01 X164.6430 Y-86.4416
G01 X164.7083 Y-86.4897
G01 X168.2777 Y-86.4897
G01 X168.2777 Y-83.7814
G00 Z2.0000
G00 X170.5758 Y-82.7223
G01 F60.00
G01 Z-2.4000
G01 F120.00
G01 X170.5873 Y-82.8000
G01 X170.5927 Y-82.8309
G01 X170.5996 Y-82.8616
G01 X170.6186 Y-82.9377
G01 X170.6270 Y-82.9680
G01 X170.6369 Y-82.9978
G01 X170.6633 Y-83.0718
G01 X170.6746 Y-83.1011
G01 X170.6873 Y-83.1298
G01 X170.7209 Y-83.2008
G01 X170.7350 Y-83.2288
G01 X170.7505 Y-83.2561
G01 X170.7991 Y-83.3369
G01 X170.8166 Y-83.3630
G01 X170.8725 Y-83.4388
G01 X170.8919 Y-83.4635
G01 X170.9124 Y-83.4873
G01 X170.9758 Y-83.5570
G01 X170.9980 Y-83.5792
G01 X171.0677 Y-83.6426
G01 X171.0915 Y-83.6631
G01 X171.1162 Y-83.6825
G01 X171.1793 Y-83.7292
G01 X171.2050 Y-83.7473
G01 X171.2315 Y-83.7641
G01 X171.2989 Y-83.8045
G01 X171.3262 Y-83.8200
G01 X171.3542 Y-83.8341
G01 X171.4252 Y-83.8677
G01 X171.4539 Y-83.8804
G01 X171.4832 Y-83.8917
G01 X171.5572 Y-83.9181
G01 X171.5870 Y-83.9280
G01 X171.6173 Y-83.9364
G01 X171.7087 Y-83.9591
G01 X171.7395 Y-83.9652
G01 X171.8327 Y-83.9792
G01 X171.8639 Y-83.9831
G01 X171.8952 Y-83.9854
G01 X171.9736 Y-83.9892
G01 X171.9893 Y-83.9898
G01 X172.0207 Y-83.9898
G01 X172.1148 Y-83.9854
G01 X172.1461 Y-83.9831
G01 X172.1618 Y-83.9813
G01 X172.2705 Y-83.9652
G01 X172.3013 Y-83.9591
G01 X172.3166 Y-83.9554
G01 X172.4079 Y-83.9324
G01 X172.4380 Y-83.9233
G01 X172.5415 Y-83.8862
G01 X172.5705 Y-83.8742
G01 X172.5848 Y-83.8677
G01 X172.6699 Y-83.8272
G01 X172.6976 Y-83.8124
G01 X172.7111 Y-83.8045
G01 X172.7785 Y-83.7641
G01 X172.8050 Y-83.7473
G01 X172.8307 Y-83.7292
G01 X172.8833 Y-83.6903
G01 X177.5567 Y-83.6903
G01 X177.6220 Y-83.7384
G01 X177.6481 Y-83.7559
G01 X177.7289 Y-83.8045
G01 X177.7562 Y-83.8200
G01 X177.7842 Y-83.8341
G01 X177.8552 Y-83.8677
G01 X177.8839 Y-83.8804
G01 X177.9132 Y-83.8917
G01 X178.0020 Y-83.9233
G01 X178.0170 Y-83.9280
G01 X178.0473 Y-83.9364
G01 X178.1387 Y-83.9591
G01 X178.1695 Y-83.9652
G01 X178.2627 Y-83.9792
G01 X178.2939 Y-83.9831
G01 X178.3252 Y-83.9854
G01 X178.4193 Y-83.9898
G01 X178.4507 Y-83.9898
G01 X178.5448 Y-83.9854
G01 X178.5761 Y-83.9831
G01 X178.6073 Y-83.9792
G01 X178.6850 Y-83.9677
G01 X178.7159 Y-83.9623
G01 X178.7466 Y-83.9554
G01 X178.8227 Y-83.9364
G01 X178.8530 Y-83.9280
G01 X178.8828 Y-83.9181
G01 X178.9568 Y-83.8917
G01 X178.9861 Y-83.8804
G01 X179.0148 Y-83.8677
G01 X179.0858 Y-83.8341
G01 X179.1138 Y-83.8200
G01 X179.1411 Y-83.8045
G01 X179.2085 Y-83.7641
G01 X179.2350 Y-83.7473
G01 X179.2607 Y-83.7292
G01 X179.3238 Y-83.6825
G01 X179.3485 Y-83.6631
G01 X179.3723 Y-83.6426
G01 X179.4305 Y-83.5899
G01 X179.4532 Y-83.5682
G01 X179.4749 Y-83.5455
G01 X179.5276 Y-83.4873
G01 X179.5481 Y-83.4635
G01 X179.5675 Y-83.4388
G01 X179.6142 Y-83.3757
G01 X179.6323 Y-83.3500
G01 X179.6491 Y-83.3235
G01 X179.6895 Y-83.2561
G01 X179.7050 Y-83.2288
G01 X179.7191 Y-83.2008
G01 X179.7527 Y-83.1298
G01 X179.7654 Y-83.1011
G01 X179.7767 Y-83.0718
G01 X179.8031 Y-82.9978
G01 X179.8130 Y-82.9680
G01 X179.8214 Y-82.9377
G01 X179.8404 Y-82.8616
G01 X179.8473 Y-82.8309
G01 X179.8527 Y-82.8000
G01 X179.8642 Y-82.7223
G01 X179.8681 Y-82.6911
G01 X179.8704 Y-82.6598
G01 X179.8742 Y-82.5814
G01 X179.8748 Y-82.5657
G01 X179.8748 Y-82.5343
G01 X179.8704 Y-82.4402
G01 X179.8681 Y-82.4089
G01 X179.8642 Y-82.3777
G01 X179.8527 Y-82.3000
G01 X179.8473 Y-82.2691
G01 X179.8404 Y-82.2384
G01 X179.8214 Y-82.1623
G01 X179.8130 Y-82.1320
G01 X179.8031 Y-82.1022
G01 X179.7767 Y-82.0282
G01 X179.7654 Y-81.9989
G01 X179.7527 Y-81.9702
G01 X179.7122 Y-81.8851
G01 X179.6974 Y-81.8574
G01 X179.6895 Y-81.8439
G01 X179.6491 Y-81.7765
G01 X179.6323 Y-81.7500
G01 X179.6142 Y-81.7243
G01 X179.5675 Y-81.6612
G01 X179.5481 Y-81.6365
G01 X179.5276 Y-81.6127
G01 X179.4749 Y-81.5545
G01 X179.4532 Y-81.5318
G01 X179.4305 Y-81.5101
G01 X179.3723 Y-81.4574
G01 X179.3485 Y-81.4369
G01 X179.3238 Y-81.4175
G01 X179.2607 Y-81.3708
G01 X179.2350 Y-81.3527
G01 X179.2085 Y-81.3359
G01 X179.1411 Y-81.2955
G01 X179.1138 Y-81.2800
G01 X179.0999 Y-81.2728
G01 X179.0148 Y-81.2323
G01 X178.9861 Y-81.2196
G01 X178.9568 Y-81.2083
G01 X178.8680 Y-81.1767
G01 X178.8379 Y-81.1676
G01 X178.7466 Y-81.1446
G01 X178.7313 Y-81.1409
G01 X178.7005 Y-81.1348
G01 X178.6073 Y-81.1208
G01 X178.5761 Y-81.1169
G01 X178.5448 Y-81.1146
G01 X178.4664 Y-81.1108
G01 X178.4507 Y-81.1102
G01 X178.4193 Y-81.1102
G01 X178.3252 Y-81.1146
G01 X178.2939 Y-81.1169
G01 X178.2782 Y-81.1187
G01 X178.1695 Y-81.1348
G01 X178.1541 Y-81.1377
G01 X178.1234 Y-81.1446
G01 X178.0321 Y-81.1676
G01 X178.0020 Y-81.1767
G01 X177.8985 Y-81.2138
G01 X177.8695 Y-81.2258
G01 X177.8552 Y-81.2323
G01 X177.7701 Y-81.2728
G01 X177.7562 Y-81.2800
G01 X177.7289 Y-81.2955
G01 X177.6615 Y-81.3359
G01 X177.6350 Y-81.3527
G01 X177.6093 Y-81.3708
G01 X177.5567 Y-81.4097
G01 X172.8833 Y-81.4097
G01 X172.8180 Y-81.3616
G01 X172.7919 Y-81.3441
G01 X172.7111 Y-81.2955
G01 X172.6838 Y-81.2800
G01 X172.6558 Y-81.2659
G01 X172.5848 Y-81.2323
G01 X172.5561 Y-81.2196
G01 X172.5268 Y-81.2083
G01 X172.4380 Y-81.1767
G01 X172.4230 Y-81.1720
G01 X172.3927 Y-81.1636
G01 X172.3013 Y-81.1409
G01 X172.2705 Y-81.1348
G01 X172.1773 Y-81.1208
G01 X172.1461 Y-81.1169
G01 X172.1148 Y-81.1146
G01 X172.0207 Y-81.1102
G01 X171.9893 Y-81.1102
G01 X171.8952 Y-81.1146
G01 X171.8639 Y-81.1169
G01 X171.8327 Y-81.1208
G01 X171.7550 Y-81.1323
G01 X171.7395 Y-81.1348
G01 X171.7087 Y-81.1409
G01 X171.6173 Y-81.1636
G01 X171.6021 Y-81.1676
G01 X171.5720 Y-81.1767
G01 X171.4685 Y-81.2138
G01 X171.4395 Y-81.2258
G01 X171.4252 Y-81.2323
G01 X171.3542 Y-81.2659
G01 X171.3262 Y-81.2800
G01 X171.2989 Y-81.2955
G01 X171.2315 Y-81.3359
G01 X171.2050 Y-81.3527
G01 X171.1920 Y-81.3616
G01 X171.1162 Y-81.4175
G01 X171.1037 Y-81.4271
G01 X171.0795 Y-81.4470
G01 X170.9980 Y-81.5208
G01 X170.9758 Y-81.5430
G01 X170.9651 Y-81.5545
G01 X170.9020 Y-81.6245
G01 X170.8820 Y-81.6487
G01 X170.8725 Y-81.6612
G01 X170.8258 Y-81.7243
G01 X170.8077 Y-81.7500
G01 X170.7909 Y-81.7765
G01 X170.7505 Y-81.8439
G01 X170.7350 Y-81.8712
G01 X170.7209 Y-81.8992
G01 X170.6873 Y-81.9702
G01 X170.6746 Y-81.9989
G01 X170.6633 Y-82.0282
G01 X170.6369 Y-82.1022
G01 X170.6270 Y-82.1320
G01 X170.6186 Y-82.1623
G01 X170.5996 Y-82.2384
G01 X170.5927 Y-82.2691
G01 X170.5873 Y-82.3000
G01 X170.5758 Y-82.3777
G01 X170.5719 Y-82.4089
G01 X170.5696 Y-82.4402
G01 X170.5658 Y-82.5186
G01 X170.5650 Y-82.5500
G01 X170.5658 Y-82.5814
G01 X170.5706 Y-82.6755
G01 X170.5719 Y-82.6911
G01 X170.5758 Y-82.7223
G00 Z2.0000
G00 X161.1603 Y-76.2924
G01 F60.00
G01 Z-2.4000
G01 F120.00
G01 X161.1779 Y-76.2644
G01 X161.1959 Y-76.2388
G01 X161.2153 Y-76.2140
G01 X161.2358 Y-76.1902
G01 X161.2465 Y-76.1787
G01 X161.2575 Y-76.1675
G01 X161.2802 Y-76.1458
G01 X161.3040 Y-76.1253
G01 X161.3288 Y-76.1059
G01 X161.3544 Y-76.0879
G01 X161.3810 Y-76.0711
G01 X161.4083 Y-76.0556
G01 X161.4364 Y-76.0414
G01 X161.4651 Y-76.0287
G01 X161.4797 Y-76.0229
G01 X161.5092 Y-76.0123
G01 X161.5393 Y-76.0032
G01 X161.5698 Y-75.9956
G01 X161.6006 Y-75.9894
G01 X161.6161 Y-75.9869
G01 X161.6473 Y-75.9831
G01 X161.6629 Y-75.9817
G01 X161.6943 Y-75.9802
G01 X161.7100 Y-75.9800
G01 X163.4100 Y-75.9800
G01 X163.4414 Y-75.9808
G01 X163.4727 Y-75.9831
G01 X163.4883 Y-75.9848
G01 X163.5194 Y-75.9894
G01 X163.5349 Y-75.9923
G01 X163.5655 Y-75.9992
G01 X163.5807 Y-76.0032
G01 X163.5958 Y-76.0076
G01 X163.6256 Y-76.0174
G01 X163.6403 Y-76.0229
G01 X163.6694 Y-76.0349
G01 X163.6836 Y-76.0414
G01 X163.7117 Y-76.0556
G01 X163.7390 Y-76.0711
G01 X163.7656 Y-76.0879
G01 X163.7912 Y-76.1059
G01 X163.8037 Y-76.1155
G01 X163.8280 Y-76.1354
G01 X163.8398 Y-76.1458
G01 X163.8625 Y-76.1675
G01 X163.8735 Y-76.1787
G01 X163.8842 Y-76.1902
G01 X163.9047 Y-76.2140
G01 X163.9145 Y-76.2263
G01 X163.9333 Y-76.2515
G01 X163.9421 Y-76.2644
G01 X163.9589 Y-76.2910
G01 X163.9669 Y-76.3045
G01 X163.9804 Y-76.3297
G01 X164.5947 Y-76.3297
G01 X164.5947 Y-75.6426
G01 X164.5635 Y-75.6312
G01 X164.5345 Y-75.6192
G01 X164.4351 Y-75.5722
G01 X164.4212 Y-75.5650
G01 X164.3939 Y-75.5495
G01 X164.3265 Y-75.5091
G01 X164.3000 Y-75.4923
G01 X164.2743 Y-75.4742
G01 X164.2112 Y-75.4275
G01 X164.1865 Y-75.4081
G01 X164.1627 Y-75.3876
G01 X164.0930 Y-75.3242
G01 X164.0818 Y-75.3132
G01 X164.0601 Y-75.2905
G01 X164.0074 Y-75.2323
G01 X163.9869 Y-75.2085
G01 X163.9675 Y-75.1838
G01 X163.9208 Y-75.1207
G01 X163.9116 Y-75.1080
G01 X163.8941 Y-75.0819
G01 X163.8376 Y-74.9876
G01 X163.8228 Y-74.9599
G01 X163.8159 Y-74.9458
G01 X163.7823 Y-74.8748
G01 X163.7696 Y-74.8461
G01 X163.7583 Y-74.8168
G01 X163.7267 Y-74.7280
G01 X163.7176 Y-74.6979
G01 X163.7136 Y-74.6827
G01 X163.6909 Y-74.5913
G01 X163.6848 Y-74.5605
G01 X163.6708 Y-74.4673
G01 X163.6669 Y-74.4361
G01 X163.6656 Y-74.4205
G01 X163.6608 Y-74.3264
G01 X163.6602 Y-74.3107
G01 X163.6602 Y-74.2793
G01 X163.6656 Y-74.1695
G01 X163.6687 Y-74.1382
G01 X163.6708 Y-74.1227
G01 X163.6848 Y-74.0295
G01 X163.6909 Y-73.9987
G01 X163.7176 Y-73.8921
G01 X163.7267 Y-73.8620
G01 X163.7319 Y-73.8472
G01 X163.7638 Y-73.7585
G01 X163.7696 Y-73.7439
G01 X163.7823 Y-73.7152
G01 X163.8159 Y-73.6442
G01 X163.8300 Y-73.6162
G01 X163.8455 Y-73.5889
G01 X163.8717 Y-73.5452
G01 X163.8415 Y-73.5512
G01 X163.7483 Y-73.5652
G01 X163.7171 Y-73.5691
G01 X163.6858 Y-73.5714
G01 X163.6074 Y-73.5752
G01 X163.5760 Y-73.5760
G01 X163.5446 Y-73.5752
G01 X163.4662 Y-73.5714
G01 X163.4349 Y-73.5691
G01 X163.4037 Y-73.5652
G01 X163.3260 Y-73.5537
G01 X163.2951 Y-73.5483
G01 X163.2644 Y-73.5414
G01 X163.1883 Y-73.5224
G01 X163.1731 Y-73.5184
G01 X163.1430 Y-73.5093
G01 X163.0542 Y-73.4777
G01 X163.0249 Y-73.4664
G01 X162.9962 Y-73.4537
G01 X162.9252 Y-73.4201
G01 X162.8972 Y-73.4060
G01 X162.8699 Y-73.3905
G01 X162.8025 Y-73.3501
G01 X162.7891 Y-73.3419
G01 X162.7630 Y-73.3244
G01 X162.6872 Y-73.2685
G01 X162.6625 Y-73.2491
G01 X162.6387 Y-73.2286
G01 X162.5805 Y-73.1759
G01 X162.5578 Y-73.1542
G01 X162.5361 Y-73.1315
G01 X162.4834 Y-73.0733
G01 X162.4629 Y-73.0495
G01 X162.4435 Y-73.0248
G01 X162.3876 Y-72.9490
G01 X162.3687 Y-72.9206
G01 X162.3372 Y-72.9550
G01 X162.3263 Y-72.9663
G01 X161.1603 Y-74.1323
G01 X161.1603 Y-76.2924
G00 Z2.0000
G00 X159.0411 Y-73.0765
G01 F60.00
G01 Z-2.4000
G01 F120.00
G01 X158.6203 Y-73.4973
G01 X158.6203 Y-76.5111
G01 X158.6318 Y-76.5248
G01 X158.6511 Y-76.5495
G01 X158.7100 Y-76.6292
G01 X158.7275 Y-76.6554
G01 X158.7500 Y-76.6926
G01 X158.7725 Y-76.6554
G01 X158.7900 Y-76.6292
G01 X158.8489 Y-76.5495
G01 X158.8682 Y-76.5248
G01 X158.8797 Y-76.5111
G01 X158.8797 Y-73.6600
G01 X158.8805 Y-73.6286
G01 X158.8839 Y-73.5639
G01 X158.8870 Y-73.5326
G01 X158.8891 Y-73.5171
G01 X158.8963 Y-73.4685
G01 X158.9017 Y-73.4375
G01 X158.9085 Y-73.4069
G01 X158.9205 Y-73.3593
G01 X158.9245 Y-73.3441
G01 X158.9336 Y-73.3140
G01 X158.9607 Y-73.2382
G01 X158.9727 Y-73.2092
G01 X159.0072 Y-73.1364
G01 X159.0220 Y-73.1087
G01 X159.0411 Y-73.0765
G00 Z2.0000
G00 X156.3397 Y-73.9607
G01 F60.00
G01 Z-2.4000
G01 F120.00
G01 X156.3397 Y-73.0250
G01 X156.3405 Y-72.9936
G01 X156.3429 Y-72.9446
G01 X156.3452 Y-72.9132
G01 X156.3491 Y-72.8821
G01 X156.3588 Y-72.8180
G01 X156.3649 Y-72.7872
G01 X156.3805 Y-72.7243
G01 X156.3888 Y-72.6940
G01 X156.3987 Y-72.6642
G01 X156.4207 Y-72.6032
G01 X156.4327 Y-72.5742
G01 X156.4672 Y-72.5014
G01 X156.4820 Y-72.4737
G01 X156.5151 Y-72.4181
G01 X156.5319 Y-72.3915
G01 X156.5500 Y-72.3658
G01 X156.5888 Y-72.3139
G01 X156.6087 Y-72.2896
G01 X156.6521 Y-72.2415
G01 X156.6737 Y-72.2187
G01 X157.2036 Y-71.6889
G01 X157.1474 Y-71.6970
G01 X157.1161 Y-71.7001
G01 X157.0357 Y-71.7041
G01 X156.9843 Y-71.7043
G01 X156.0803 Y-72.6083
G01 X156.0803 Y-73.4167
G01 X156.1284 Y-73.4820
G01 X156.1459 Y-73.5081
G01 X156.2024 Y-73.6024
G01 X156.2100 Y-73.6162
G01 X156.2241 Y-73.6442
G01 X156.2642 Y-73.7295
G01 X156.2762 Y-73.7585
G01 X156.2817 Y-73.7732
G01 X156.3081 Y-73.8472
G01 X156.3180 Y-73.8770
G01 X156.3264 Y-73.9073
G01 X156.3397 Y-73.9607
G00 Z2.0000
G00 X156.2100 Y-76.6926
G01 F60.00
G01 Z-2.4000
G01 F120.00
G01 X156.2325 Y-76.6554
G01 X156.2500 Y-76.6292
G01 X156.3089 Y-76.5495
G01 X156.3282 Y-76.5248
G01 X156.3397 Y-76.5111
G01 X156.3397 Y-74.6293
G01 X156.3224 Y-74.6979
G01 X156.3133 Y-74.7280
G01 X156.2817 Y-74.8168
G01 X156.2704 Y-74.8461
G01 X156.2642 Y-74.8605
G01 X156.2241 Y-74.9458
G01 X156.2100 Y-74.9738
G01 X156.1945 Y-75.0011
G01 X156.1541 Y-75.0685
G01 X156.1373 Y-75.0950
G01 X156.1284 Y-75.1080
G01 X156.0725 Y-75.1838
G01 X156.0531 Y-75.2085
G01 X156.0326 Y-75.2323
G01 X155.9799 Y-75.2905
G01 X155.9582 Y-75.3132
G01 X155.9355 Y-75.3349
G01 X155.8773 Y-75.3876
G01 X155.8535 Y-75.4081
G01 X155.8288 Y-75.4275
G01 X155.7530 Y-75.4834
G01 X155.7400 Y-75.4923
G01 X155.7135 Y-75.5091
G01 X155.6326 Y-75.5574
G01 X155.6049 Y-75.5722
G01 X155.5198 Y-75.6127
G01 X155.4911 Y-75.6254
G01 X155.4765 Y-75.6312
G01 X155.3878 Y-75.6631
G01 X155.3580 Y-75.6730
G01 X155.3277 Y-75.6814
G01 X155.2516 Y-75.7004
G01 X155.2209 Y-75.7073
G01 X155.1900 Y-75.7127
G01 X155.1123 Y-75.7242
G01 X155.0811 Y-75.7281
G01 X155.0498 Y-75.7304
G01 X154.9714 Y-75.7342
G01 X154.9400 Y-75.7350
G01 X154.9086 Y-75.7342
G01 X154.8117 Y-75.7292
G01 X155.0683 Y-75.9857
G01 X155.0860 Y-75.9872
G01 X155.1172 Y-75.9910
G01 X155.1997 Y-76.0033
G01 X155.2307 Y-76.0086
G01 X155.2613 Y-76.0155
G01 X155.3574 Y-76.0398
G01 X155.3725 Y-76.0442
G01 X155.4024 Y-76.0540
G01 X155.4809 Y-76.0821
G01 X155.5102 Y-76.0934
G01 X155.5389 Y-76.1061
G01 X155.6284 Y-76.1487
G01 X155.6561 Y-76.1635
G01 X155.6697 Y-76.1714
G01 X155.7546 Y-76.2225
G01 X155.7808 Y-76.2400
G01 X155.8605 Y-76.2989
G01 X155.8852 Y-76.3182
G01 X155.9090 Y-76.3387
G01 X155.9708 Y-76.3948
G01 X155.9936 Y-76.4164
G01 X156.0046 Y-76.4277
G01 X156.0713 Y-76.5010
G01 X156.0918 Y-76.5248
G01 X156.1016 Y-76.5370
G01 X156.1700 Y-76.6292
G01 X156.1875 Y-76.6554
G01 X156.2100 Y-76.6926
G00 Z2.0000
G00 X153.5134 Y-74.4850
G01 F60.00
G01 Z-2.4000
G01 F120.00
G01 X153.5087 Y-74.4518
G01 X153.5056 Y-74.4205
G01 X153.5002 Y-74.3107
G01 X153.5002 Y-74.2793
G01 X153.5008 Y-74.2636
G01 X153.5056 Y-74.1695
G01 X153.5087 Y-74.1382
G01 X153.5108 Y-74.1227
G01 X153.5223 Y-74.0450
G01 X153.5277 Y-74.0141
G01 X153.5346 Y-73.9834
G01 X153.5576 Y-73.8921
G01 X153.5667 Y-73.8620
G01 X153.5719 Y-73.8472
G01 X153.5983 Y-73.7732
G01 X153.6096 Y-73.7439
G01 X153.6223 Y-73.7152
G01 X153.6628 Y-73.6301
G01 X153.6700 Y-73.6162
G01 X153.6855 Y-73.5889
G01 X153.7341 Y-73.5081
G01 X153.7516 Y-73.4820
G01 X153.7997 Y-73.4167
G01 X153.7997 Y-72.1360
G01 X153.8005 Y-72.1046
G01 X153.8029 Y-72.0556
G01 X153.8052 Y-72.0242
G01 X153.8091 Y-71.9931
G01 X153.8178 Y-71.9353
G01 X152.6163 Y-73.1365
G01 X152.5639 Y-73.1840
G01 X152.5396 Y-73.2039
G01 X152.4829 Y-73.2460
G01 X152.4699 Y-73.2549
G01 X152.4434 Y-73.2717
G01 X152.3961 Y-73.2998
G01 X152.3684 Y-73.3146
G01 X152.3045 Y-73.3448
G01 X152.2755 Y-73.3569
G01 X152.2089 Y-73.3807
G01 X152.1789 Y-73.3898
G01 X152.1103 Y-73.4070
G01 X152.0795 Y-73.4131
G01 X152.0251 Y-73.4213
G01 X151.9940 Y-73.4252
G01 X151.9626 Y-73.4275
G01 X151.9077 Y-73.4300
G01 X151.4901 Y-73.4302
G01 X151.4323 Y-73.4826
G01 X151.4085 Y-73.5031
G01 X151.3838 Y-73.5225
G01 X151.3080 Y-73.5784
G01 X151.2950 Y-73.5873
G01 X151.2685 Y-73.6041
G01 X151.1876 Y-73.6524
G01 X151.1599 Y-73.6672
G01 X151.0748 Y-73.7077
G01 X151.0461 Y-73.7204
G01 X151.0168 Y-73.7317
G01 X150.9428 Y-73.7581
G01 X150.9130 Y-73.7680
G01 X150.8827 Y-73.7764
G01 X150.7913 Y-73.7991
G01 X150.7605 Y-73.8052
G01 X150.6673 Y-73.8192
G01 X150.6361 Y-73.8231
G01 X150.6048 Y-73.8254
G01 X150.5264 Y-73.8292
G01 X150.4950 Y-73.8300
G01 X150.4636 Y-73.8292
G01 X150.3852 Y-73.8254
G01 X150.3539 Y-73.8231
G01 X150.3227 Y-73.8192
G01 X150.2450 Y-73.8077
G01 X150.2141 Y-73.8023
G01 X150.1834 Y-73.7954
G01 X150.1073 Y-73.7764
G01 X150.0770 Y-73.7680
G01 X150.0472 Y-73.7581
G01 X149.9732 Y-73.7317
G01 X149.9439 Y-73.7204
G01 X149.9152 Y-73.7077
G01 X149.8442 Y-73.6741
G01 X149.8162 Y-73.6600
G01 X149.7889 Y-73.6445
G01 X149.7081 Y-73.5959
G01 X149.6820 Y-73.5784
G01 X149.6693 Y-73.5692
G01 X149.6062 Y-73.5225
G01 X149.5815 Y-73.5031
G01 X149.5577 Y-73.4826
G01 X149.4995 Y-73.4299
G01 X149.4768 Y-73.4082
G01 X149.4551 Y-73.3855
G01 X149.4024 Y-73.3273
G01 X149.3819 Y-73.3035
G01 X149.3625 Y-73.2788
G01 X149.3066 Y-73.2030
G01 X149.2977 Y-73.1900
G01 X149.2809 Y-73.1635
G01 X149.2405 Y-73.0961
G01 X149.2250 Y-73.0688
G01 X149.2109 Y-73.0408
G01 X149.1708 Y-72.9555
G01 X149.1646 Y-72.9411
G01 X149.1533 Y-72.9118
G01 X149.1217 Y-72.8230
G01 X149.1126 Y-72.7929
G01 X149.0953 Y-72.7243
G01 X149.0953 Y-74.3297
G01 X152.9557 Y-74.3299
G01 X153.0361 Y-74.3339
G01 X153.0518 Y-74.3352
G01 X153.0829 Y-74.3391
G01 X153.1315 Y-74.3463
G01 X153.1625 Y-74.3517
G01 X153.1931 Y-74.3585
G01 X153.2559 Y-74.3745
G01 X153.2710 Y-74.3788
G01 X153.3008 Y-74.3887
G01 X153.3618 Y-74.4107
G01 X153.3908 Y-74.4227
G01 X153.4636 Y-74.4572
G01 X153.4913 Y-74.4720
G01 X153.5134 Y-74.4850
G00 Z2.0000
G00 X150.8293 Y-70.9903
G01 F60.00
G01 Z-2.4000
G01 F120.00
G01 X150.8827 Y-71.0036
G01 X150.9130 Y-71.0120
G01 X150.9428 Y-71.0219
G01 X151.0315 Y-71.0538
G01 X151.0605 Y-71.0658
G01 X151.0748 Y-71.0723
G01 X151.1458 Y-71.1059
G01 X151.1738 Y-71.1200
G01 X151.2011 Y-71.1355
G01 X151.2685 Y-71.1759
G01 X151.2819 Y-71.1841
G01 X151.3080 Y-71.2016
G01 X151.3838 Y-71.2575
G01 X151.4085 Y-71.2769
G01 X151.4323 Y-71.2974
G01 X151.4749 Y-71.3360
G01 X151.8207 Y-70.9903
G01 X150.8293 Y-70.9903
G00 Z2.0000
G00 X149.0953 Y-72.0557
G01 F60.00
G01 Z-2.4000
G01 F120.00
G01 X149.1086 Y-72.0023
G01 X149.1170 Y-71.9720
G01 X149.1269 Y-71.9422
G01 X149.1588 Y-71.8535
G01 X149.1646 Y-71.8389
G01 X149.1773 Y-71.8102
G01 X149.2178 Y-71.7251
G01 X149.2326 Y-71.6974
G01 X149.2809 Y-71.6165
G01 X149.2977 Y-71.5900
G01 X149.3158 Y-71.5643
G01 X149.3625 Y-71.5012
G01 X149.3720 Y-71.4887
G01 X149.3920 Y-71.4645
G01 X149.4551 Y-71.3945
G01 X149.4768 Y-71.3718
G01 X149.4995 Y-71.3501
G01 X149.5695 Y-71.2870
G01 X149.5937 Y-71.2671
G01 X149.6062 Y-71.2575
G01 X149.6693 Y-71.2108
G01 X149.6950 Y-71.1927
G01 X149.7215 Y-71.1759
G01 X149.8024 Y-71.1276
G01 X149.8301 Y-71.1128
G01 X149.9152 Y-71.0723
G01 X149.9439 Y-71.0596
G01 X149.9585 Y-71.0538
G01 X150.0472 Y-71.0219
G01 X150.0770 Y-71.0120
G01 X150.1073 Y-71.0036
G01 X150.1607 Y-70.9903
G01 X149.6973 Y-70.9903
G01 X149.0953 Y-71.5923
G01 X149.0953 Y-72.0557
G00 Z2.0000
G00 X155.0602 Y-66.0925
G01 F60.00
G01 Z-2.4000
G01 F120.00
G01 X155.9762 Y-66.0925
G01 X156.0077 Y-66.0933
G01 X156.0233 Y-66.0942
G01 X156.0546 Y-66.0973
G01 X156.0857 Y-66.1019
G01 X156.1165 Y-66.1081
G01 X156.1469 Y-66.1157
G01 X156.1770 Y-66.1248
G01 X156.2066 Y-66.1354
G01 X156.2356 Y-66.1474
G01 X156.2499 Y-66.1539
G01 X156.2700 Y-66.1639
G01 X156.2901 Y-66.1539
G01 X156.3044 Y-66.1474
G01 X156.3334 Y-66.1354
G01 X156.3630 Y-66.1248
G01 X156.3931 Y-66.1157
G01 X156.4082 Y-66.1117
G01 X156.4389 Y-66.1048
G01 X156.4543 Y-66.1019
G01 X156.4854 Y-66.0973
G01 X156.5167 Y-66.0942
G01 X156.5480 Y-66.0927
G01 X156.5638 Y-66.0925
G01 X157.4762 Y-66.0925
G01 X157.5077 Y-66.0933
G01 X157.5233 Y-66.0942
G01 X157.5546 Y-66.0973
G01 X157.5857 Y-66.1019
G01 X157.6165 Y-66.1081
G01 X157.6469 Y-66.1157
G01 X157.6770 Y-66.1248
G01 X157.7066 Y-66.1354
G01 X157.7356 Y-66.1474
G01 X157.7499 Y-66.1539
G01 X157.7700 Y-66.1639
G01 X157.7901 Y-66.1539
G01 X157.8044 Y-66.1474
G01 X157.8334 Y-66.1354
G01 X157.8630 Y-66.1248
G01 X157.8931 Y-66.1157
G01 X157.9082 Y-66.1117
G01 X157.9389 Y-66.1048
G01 X157.9698 Y-66.0994
G01 X157.9854 Y-66.0973
G01 X158.0010 Y-66.0956
G01 X158.0323 Y-66.0933
G01 X158.0638 Y-66.0925
G01 X158.9762 Y-66.0925
G01 X159.0077 Y-66.0933
G01 X159.0390 Y-66.0956
G01 X159.0702 Y-66.0994
G01 X159.0857 Y-66.1019
G01 X159.1165 Y-66.1081
G01 X159.1469 Y-66.1157
G01 X159.1770 Y-66.1248
G01 X159.2066 Y-66.1354
G01 X159.2356 Y-66.1474
G01 X159.2499 Y-66.1539
G01 X159.2700 Y-66.1639
G01 X159.2901 Y-66.1539
G01 X159.3044 Y-66.1474
G01 X159.3334 Y-66.1354
G01 X159.3630 Y-66.1248
G01 X159.3931 Y-66.1157
G01 X159.4082 Y-66.1117
G01 X159.4389 Y-66.1048
G01 X159.4543 Y-66.1019
G01 X159.4854 Y-66.0973
G01 X159.5167 Y-66.0942
G01 X159.5480 Y-66.0927
G01 X159.5638 Y-66.0925
G01 X160.4762 Y-66.0925
G01 X160.5077 Y-66.0933
G01 X160.5233 Y-66.0942
G01 X160.5546 Y-66.0973
G01 X160.5857 Y-66.1019
G01 X160.6165 Y-66.1081
G01 X160.6469 Y-66.1157
G01 X160.6770 Y-66.1248
G01 X160.7066 Y-66.1354
G01 X160.7356 Y-66.1474
G01 X160.7499 Y-66.1539
G01 X160.7700 Y-66.1639
G01 X160.7901 Y-66.1539
G01 X160.8044 Y-66.1474
G01 X160.8334 Y-66.1354
G01 X160.8630 Y-66.1248
G01 X160.8931 Y-66.1157
G01 X160.9082 Y-66.1117
G01 X160.9389 Y-66.1048
G01 X160.9543 Y-66.1019
G01 X160.9854 Y-66.0973
G01 X161.0167 Y-66.0942
G01 X161.0480 Y-66.0927
G01 X161.0638 Y-66.0925
G01 X161.9762 Y-66.0925
G01 X162.0077 Y-66.0933
G01 X162.0233 Y-66.0942
G01 X162.0546 Y-66.0973
G01 X162.0857 Y-66.1019
G01 X162.1165 Y-66.1081
G01 X162.1469 Y-66.1157
G01 X162.1770 Y-66.1248
G01 X162.2066 Y-66.1354
G01 X162.2356 Y-66.1474
G01 X162.2499 Y-66.1539
G01 X162.2700 Y-66.1639
G01 X162.2901 Y-66.1539
G01 X162.3044 Y-66.1474
G01 X162.3334 Y-66.1354
G01 X162.3630 Y-66.1248
G01 X162.3931 Y-66.1157
G01 X162.4082 Y-66.1117
G01 X162.4389 Y-66.1048
G01 X162.4698 Y-66.0994
G01 X162.4854 Y-66.0973
G01 X162.5010 Y-66.0956
G01 X162.5323 Y-66.0933
G01 X162.5638 Y-66.0925
G01 X163.4762 Y-66.0925
G01 X163.5077 Y-66.0933
G01 X163.5390 Y-66.0956
G01 X163.5702 Y-66.0994
G01 X163.5857 Y-66.1019
G01 X163.6165 Y-66.1081
G01 X163.6469 Y-66.1157
G01 X163.6770 Y-66.1248
G01 X163.7066 Y-66.1354
G01 X163.7356 Y-66.1474
G01 X163.7499 Y-66.1539
G01 X163.7700 Y-66.1639
G01 X163.7901 Y-66.1539
G01 X163.8044 Y-66.1474
G01 X163.8334 Y-66.1354
G01 X163.8630 Y-66.1248
G01 X163.8931 Y-66.1157
G01 X163.9082 Y-66.1117
G01 X163.9389 Y-66.1048
G01 X163.9543 Y-66.1019
G01 X163.9854 Y-66.0973
G01 X164.0167 Y-66.0942
G01 X164.0480 Y-66.0927
G01 X164.9762 Y-66.0925
G01 X165.0077 Y-66.0933
G01 X165.0233 Y-66.0942
G01 X165.0546 Y-66.0973
G01 X165.0857 Y-66.1019
G01 X165.1165 Y-66.1081
G01 X165.1469 Y-66.1157
G01 X165.1770 Y-66.1248
G01 X165.2066 Y-66.1354
G01 X165.2356 Y-66.1474
G01 X165.2499 Y-66.1539
G01 X165.2700 Y-66.1639
G01 X165.2901 Y-66.1539
G01 X165.3044 Y-66.1474
G01 X165.3334 Y-66.1354
G01 X165.3630 Y-66.1248
G01 X165.3931 Y-66.1157
G01 X165.4082 Y-66.1117
G01 X165.4389 Y-66.1048
G01 X165.4543 Y-66.1019
G01 X165.4854 Y-66.0973
G01 X165.5167 Y-66.0942
G01 X165.5480 Y-66.0927
G01 X166.4920 Y-66.0927
G01 X166.5233 Y-66.0942
G01 X166.5390 Y-66.0956
G01 X166.5546 Y-66.0973
G01 X166.5857 Y-66.1019
G01 X166.6165 Y-66.1081
G01 X166.6318 Y-66.1117
G01 X166.6469 Y-66.1157
G01 X166.6770 Y-66.1248
G01 X166.6919 Y-66.1299
G01 X166.7212 Y-66.1412
G01 X166.7499 Y-66.1539
G01 X166.7640 Y-66.1608
G01 X166.7779 Y-66.1681
G01 X166.8053 Y-66.1836
G01 X166.8186 Y-66.1918
G01 X166.8448 Y-66.2092
G01 X166.8575 Y-66.2184
G01 X166.8823 Y-66.2378
G01 X166.9060 Y-66.2583
G01 X166.9288 Y-66.2800
G01 X166.9398 Y-66.2912
G01 X166.9609 Y-66.3145
G01 X166.9710 Y-66.3265
G01 X166.9903 Y-66.3513
G01 X166.9995 Y-66.3640
G01 X167.0084 Y-66.3769
G01 X167.0252 Y-66.4035
G01 X167.0407 Y-66.4308
G01 X167.0479 Y-66.4447
G01 X167.0613 Y-66.4731
G01 X167.0675 Y-66.4876
G01 X167.0788 Y-66.5169
G01 X167.0839 Y-66.5317
G01 X167.0887 Y-66.5467
G01 X167.0971 Y-66.5770
G01 X167.1007 Y-66.5923
G01 X167.1068 Y-66.6231
G01 X167.1093 Y-66.6386
G01 X167.1132 Y-66.6698
G01 X167.1155 Y-66.7011
G01 X167.1162 Y-66.7325
G01 X167.1162 Y-67.5825
G01 X167.1155 Y-67.6139
G01 X167.1132 Y-67.6452
G01 X167.1093 Y-67.6764
G01 X167.1040 Y-67.7074
G01 X167.0971 Y-67.7380
G01 X167.0887 Y-67.7683
G01 X167.0788 Y-67.7981
G01 X167.0675 Y-67.8274
G01 X167.0602 Y-67.8444
G01 X167.0602 Y-69.6688
G01 X167.0735 Y-69.6986
G01 X167.0848 Y-69.7280
G01 X167.1064 Y-69.7890
G01 X167.1155 Y-69.8191
G01 X167.1195 Y-69.8343
G01 X167.1351 Y-69.8972
G01 X167.1412 Y-69.9280
G01 X167.1530 Y-70.0076
G01 X167.1561 Y-70.0389
G01 X167.1595 Y-70.1036
G01 X167.1603 Y-70.1350
G01 X167.1603 Y-71.0891
G01 X167.2225 Y-71.0330
G01 X167.2467 Y-71.0131
G01 X167.3223 Y-70.9568
G01 X167.3350 Y-70.9476
G01 X167.3611 Y-70.9301
G01 X167.4419 Y-70.8815
G01 X167.4692 Y-70.8660
G01 X167.4972 Y-70.8519
G01 X167.5682 Y-70.8183
G01 X167.5825 Y-70.8118
G01 X167.6115 Y-70.7998
G01 X167.7002 Y-70.7679
G01 X167.7300 Y-70.7580
G01 X167.7603 Y-70.7496
G01 X167.8364 Y-70.7306
G01 X167.8671 Y-70.7237
G01 X167.8980 Y-70.7183
G01 X167.9757 Y-70.7068
G01 X168.0069 Y-70.7029
G01 X168.0382 Y-70.7006
G01 X168.1166 Y-70.6968
G01 X168.1480 Y-70.6960
G01 X168.1794 Y-70.6968
G01 X168.2578 Y-70.7006
G01 X168.2891 Y-70.7029
G01 X168.3203 Y-70.7068
G01 X168.3980 Y-70.7183
G01 X168.4289 Y-70.7237
G01 X168.4596 Y-70.7306
G01 X168.5509 Y-70.7536
G01 X168.5810 Y-70.7627
G01 X168.6698 Y-70.7943
G01 X168.6991 Y-70.8056
G01 X168.7278 Y-70.8183
G01 X168.7988 Y-70.8519
G01 X168.8268 Y-70.8660
G01 X168.8541 Y-70.8815
G01 X168.9349 Y-70.9301
G01 X168.9610 Y-70.9476
G01 X169.0263 Y-70.9957
G01 X177.5460 Y-70.9957
G01 X177.5774 Y-70.9965
G01 X177.6264 Y-70.9989
G01 X177.6578 Y-71.0012
G01 X177.6734 Y-71.0030
G01 X177.7375 Y-71.0123
G01 X177.7685 Y-71.0177
G01 X177.7991 Y-71.0245
G01 X177.8467 Y-71.0365
G01 X177.8770 Y-71.0448
G01 X177.8920 Y-71.0496
G01 X177.9678 Y-71.0767
G01 X177.9824 Y-71.0825
G01 X178.0111 Y-71.0953
G01 X178.0555 Y-71.1163
G01 X178.0835 Y-71.1304
G01 X178.1108 Y-71.1459
G01 X178.1529 Y-71.1711
G01 X178.1663 Y-71.1794
G01 X178.1924 Y-71.1968
G01 X178.2571 Y-71.2448
G01 X178.2694 Y-71.2546
G01 X178.2932 Y-71.2751
G01 X178.3295 Y-71.3081
G01 X178.3523 Y-71.3297
G01 X178.3739 Y-71.3525
G01 X178.4069 Y-71.3888
G01 X178.4274 Y-71.4126
G01 X178.4372 Y-71.4249
G01 X178.4852 Y-71.4896
G01 X178.5026 Y-71.5157
G01 X178.5109 Y-71.5291
G01 X178.5361 Y-71.5712
G01 X178.5516 Y-71.5985
G01 X178.5657 Y-71.6265
G01 X178.5933 Y-71.6852
G01 X178.5995 Y-71.6996
G01 X178.6108 Y-71.7290
G01 X178.6273 Y-71.7752
G01 X178.6372 Y-71.8050
G01 X178.6455 Y-71.8353
G01 X178.6575 Y-71.8829
G01 X178.6643 Y-71.9135
G01 X178.6697 Y-71.9445
G01 X178.6769 Y-71.9931
G01 X178.6808 Y-72.0242
G01 X178.6831 Y-72.0556
G01 X178.6855 Y-72.1046
G01 X178.6863 Y-72.1360
G01 X178.6863 Y-73.5437
G01 X178.7344 Y-73.6090
G01 X178.7519 Y-73.6351
G01 X178.8084 Y-73.7294
G01 X178.8232 Y-73.7571
G01 X178.8301 Y-73.7712
G01 X178.8702 Y-73.8565
G01 X178.8764 Y-73.8709
G01 X178.8877 Y-73.9002
G01 X178.9141 Y-73.9742
G01 X178.9240 Y-74.0040
G01 X178.9324 Y-74.0343
G01 X178.9457 Y-74.0877
G01 X178.9457 Y-70.5558
G01 X178.9221 Y-70.5684
G01 X178.9080 Y-70.5753
G01 X178.8370 Y-70.6089
G01 X178.8083 Y-70.6216
G01 X178.7790 Y-70.6329
G01 X178.6902 Y-70.6645
G01 X178.6601 Y-70.6736
G01 X178.6449 Y-70.6776
G01 X178.5688 Y-70.6966
G01 X178.5381 Y-70.7035
G01 X178.5072 Y-70.7089
G01 X178.4295 Y-70.7204
G01 X178.3983 Y-70.7243
G01 X178.3827 Y-70.7256
G01 X178.2886 Y-70.7304
G01 X178.2572 Y-70.7312
G01 X178.2258 Y-70.7304
G01 X178.1317 Y-70.7256
G01 X178.1004 Y-70.7225
G01 X178.0849 Y-70.7204
G01 X178.0072 Y-70.7089
G01 X177.9763 Y-70.7035
G01 X177.9456 Y-70.6966
G01 X177.8695 Y-70.6776
G01 X177.8543 Y-70.6736
G01 X177.8242 Y-70.6645
G01 X177.7354 Y-70.6329
G01 X177.7061 Y-70.6216
G01 X177.6774 Y-70.6089
G01 X177.6064 Y-70.5753
G01 X177.5784 Y-70.5612
G01 X177.5511 Y-70.5457
G01 X177.4837 Y-70.5053
G01 X177.4572 Y-70.4885
G01 X177.4315 Y-70.4704
G01 X177.3559 Y-70.4142
G01 X177.3437 Y-70.4043
G01 X177.3199 Y-70.3838
G01 X177.2617 Y-70.3311
G01 X177.2390 Y-70.3094
G01 X177.2173 Y-70.2867
G01 X177.1646 Y-70.2285
G01 X177.1441 Y-70.2047
G01 X177.1343 Y-70.1925
G01 X177.0780 Y-70.1169
G01 X177.0599 Y-70.0912
G01 X177.0431 Y-70.0647
G01 X176.9948 Y-69.9838
G01 X176.9872 Y-69.9700
G01 X176.9731 Y-69.9420
G01 X176.9395 Y-69.8710
G01 X176.9268 Y-69.8423
G01 X176.9155 Y-69.8130
G01 X176.8891 Y-69.7390
G01 X176.8839 Y-69.7242
G01 X176.8748 Y-69.6941
G01 X176.8518 Y-69.6028
G01 X176.8449 Y-69.5721
G01 X176.8395 Y-69.5412
G01 X176.8259 Y-69.4480
G01 X176.8241 Y-69.4323
G01 X176.8218 Y-69.4010
G01 X176.8180 Y-69.3226
G01 X176.8172 Y-69.2912
G01 X176.8180 Y-69.2598
G01 X176.8218 Y-69.1814
G01 X176.8241 Y-69.1501
G01 X176.8280 Y-69.1189
G01 X176.8395 Y-69.0412
G01 X176.8449 Y-69.0103
G01 X176.8518 Y-68.9796
G01 X176.8708 Y-68.9035
G01 X176.8792 Y-68.8732
G01 X176.8891 Y-68.8434
G01 X176.9155 Y-68.7694
G01 X176.9268 Y-68.7401
G01 X176.9395 Y-68.7114
G01 X176.9800 Y-68.6263
G01 X176.9948 Y-68.5986
G01 X177.0027 Y-68.5851
G01 X177.0513 Y-68.5043
G01 X177.0688 Y-68.4782
G01 X177.1169 Y-68.4129
G01 X177.1169 Y-41.3231
G01 X174.0343 Y-41.3231
G01 X174.0442 Y-41.3445
G01 X174.0562 Y-41.3735
G01 X174.0933 Y-41.4770
G01 X174.1024 Y-41.5071
G01 X174.1064 Y-41.5223
G01 X174.1254 Y-41.5984
G01 X174.1323 Y-41.6291
G01 X174.1377 Y-41.6600
G01 X174.1492 Y-41.7377
G01 X174.1531 Y-41.7689
G01 X174.1554 Y-41.8002
G01 X174.1592 Y-41.8786
G01 X174.1598 Y-41.8943
G01 X174.1598 Y-41.9257
G01 X174.1544 Y-42.0355
G01 X174.1513 Y-42.0668
G01 X174.1492 Y-42.0823
G01 X174.1377 Y-42.1600
G01 X174.1323 Y-42.1909
G01 X174.1254 Y-42.2216
G01 X174.1064 Y-42.2977
G01 X174.1024 Y-42.3129
G01 X174.0933 Y-42.3430
G01 X174.0617 Y-42.4318
G01 X174.0504 Y-42.4611
G01 X174.0377 Y-42.4898
G01 X174.0041 Y-42.5608
G01 X173.9900 Y-42.5888
G01 X173.9745 Y-42.6161
G01 X173.9341 Y-42.6835
G01 X173.9173 Y-42.7100
G01 X173.8992 Y-42.7357
G01 X173.8430 Y-42.8113
G01 X173.8331 Y-42.8235
G01 X173.8126 Y-42.8473
G01 X173.7492 Y-42.9170
G01 X173.7382 Y-42.9282
G01 X173.7155 Y-42.9499
G01 X173.6573 Y-43.0026
G01 X173.6335 Y-43.0231
G01 X173.6088 Y-43.0425
G01 X173.5457 Y-43.0892
G01 X173.5200 Y-43.1073
G01 X173.5069 Y-43.1159
G01 X173.4261 Y-43.1645
G01 X173.3988 Y-43.1800
G01 X173.3708 Y-43.1941
G01 X173.2998 Y-43.2277
G01 X173.2711 Y-43.2404
G01 X173.2418 Y-43.2517
G01 X173.1678 Y-43.2781
G01 X173.1380 Y-43.2880
G01 X173.1077 Y-43.2964
G01 X173.0316 Y-43.3154
G01 X173.0009 Y-43.3223
G01 X172.9855 Y-43.3252
G01 X172.8923 Y-43.3392
G01 X172.8611 Y-43.3431
G01 X172.8298 Y-43.3454
G01 X172.7514 Y-43.3492
G01 X172.7357 Y-43.3498
G01 X172.7043 Y-43.3498
G01 X172.6102 Y-43.3454
G01 X172.5945 Y-43.3444
G01 X172.5632 Y-43.3413
G01 X172.4545 Y-43.3252
G01 X172.4391 Y-43.3223
G01 X172.4084 Y-43.3154
G01 X172.3171 Y-43.2924
G01 X172.2870 Y-43.2833
G01 X172.1835 Y-43.2462
G01 X172.1545 Y-43.2342
G01 X172.1402 Y-43.2277
G01 X172.0551 Y-43.1872
G01 X172.0412 Y-43.1800
G01 X172.0139 Y-43.1645
G01 X171.9465 Y-43.1241
G01 X171.9200 Y-43.1073
G01 X171.8943 Y-43.0892
G01 X171.8417 Y-43.0503
G01 X167.0602 Y-43.0503
G01 X167.0602 Y-48.9956
G01 X167.0675 Y-49.0126
G01 X167.0788 Y-49.0419
G01 X167.0887 Y-49.0717
G01 X167.0971 Y-49.1020
G01 X167.1040 Y-49.1326
G01 X167.1093 Y-49.1636
G01 X167.1132 Y-49.1948
G01 X167.1155 Y-49.2261
G01 X167.1162 Y-49.2575
G01 X167.1162 Y-50.1075
G01 X167.1155 Y-50.1389
G01 X167.1145 Y-50.1546
G01 X167.1114 Y-50.1858
G01 X167.1068 Y-50.2169
G01 X167.1007 Y-50.2477
G01 X167.0931 Y-50.2782
G01 X167.0839 Y-50.3083
G01 X167.0734 Y-50.3378
G01 X167.0602 Y-50.3694
G01 X167.0602 Y-51.7850
G01 X167.0594 Y-51.8164
G01 X167.0565 Y-51.8713
G01 X167.0535 Y-51.9026
G01 X167.0431 Y-51.9725
G01 X167.0370 Y-52.0033
G01 X167.0238 Y-52.0567
G01 X167.0154 Y-52.0870
G01 X167.0056 Y-52.1168
G01 X166.9923 Y-52.1538
G01 X166.9810 Y-52.1831
G01 X166.9683 Y-52.2118
G01 X166.9515 Y-52.2473
G01 X166.9374 Y-52.2753
G01 X166.9219 Y-52.3027
G01 X166.8935 Y-52.3497
G01 X166.8760 Y-52.3759
G01 X166.8434 Y-52.4201
G01 X166.8241 Y-52.4449
G01 X166.8022 Y-52.4702
G01 X166.7943 Y-52.4918
G01 X166.7823 Y-52.5208
G01 X166.7478 Y-52.5936
G01 X166.7330 Y-52.6213
G01 X166.6916 Y-52.6903
G01 X166.6742 Y-52.7164
G01 X166.6650 Y-52.7292
G01 X166.6358 Y-52.7686
G01 X166.6164 Y-52.7934
G01 X166.5959 Y-52.8172
G01 X166.5629 Y-52.8535
G01 X166.5413 Y-52.8763
G01 X166.5185 Y-52.8979
G01 X166.4822 Y-52.9309
G01 X166.4704 Y-52.9413
G01 X166.4461 Y-52.9612
G01 X166.3814 Y-53.0092
G01 X166.3553 Y-53.0266
G01 X166.3419 Y-53.0349
G01 X166.2998 Y-53.0601
G01 X166.2725 Y-53.0756
G01 X166.2445 Y-53.0897
G01 X166.2001 Y-53.1107
G01 X166.1858 Y-53.1173
G01 X166.1568 Y-53.1293
G01 X166.0810 Y-53.1564
G01 X166.0660 Y-53.1612
G01 X166.0357 Y-53.1695
G01 X165.9881 Y-53.1815
G01 X165.9575 Y-53.1883
G01 X165.9265 Y-53.1937
G01 X165.8779 Y-53.2009
G01 X165.8624 Y-53.2030
G01 X165.8311 Y-53.2061
G01 X165.7664 Y-53.2095
G01 X165.7350 Y-53.2103
G01 X160.5253 Y-53.2103
G01 X160.5253 Y-54.5100
G01 X161.6057 Y-54.5102
G01 X161.6371 Y-54.5117
G01 X161.6683 Y-54.5148
G01 X161.6839 Y-54.5169
G01 X161.7149 Y-54.5223
G01 X161.7302 Y-54.5256
G01 X161.7607 Y-54.5332
G01 X161.7758 Y-54.5376
G01 X161.8056 Y-54.5474
G01 X161.8203 Y-54.5529
G01 X161.8494 Y-54.5649
G01 X161.8636 Y-54.5714
G01 X161.8917 Y-54.5856
G01 X161.9055 Y-54.5931
G01 X161.9324 Y-54.6093
G01 X161.9456 Y-54.6179
G01 X161.9712 Y-54.6359
G01 X161.9960 Y-54.6553
G01 X162.0080 Y-54.6654
G01 X162.0313 Y-54.6865
G01 X162.0425 Y-54.6975
G01 X162.0642 Y-54.7202
G01 X162.0847 Y-54.7440
G01 X162.0945 Y-54.7563
G01 X162.1133 Y-54.7815
G01 X162.1307 Y-54.8076
G01 X162.1389 Y-54.8210
G01 X162.1469 Y-54.8345
G01 X162.1617 Y-54.8622
G01 X162.1751 Y-54.8906
G01 X162.1813 Y-54.9051
G01 X162.1926 Y-54.9344
G01 X162.1977 Y-54.9492
G01 X162.2068 Y-54.9793
G01 X162.2108 Y-54.9945
G01 X162.2177 Y-55.0251
G01 X162.2231 Y-55.0561
G01 X162.2269 Y-55.0873
G01 X162.2292 Y-55.1186
G01 X162.2300 Y-55.1500
G01 X162.2300 Y-59.4500
G01 X162.2292 Y-59.4814
G01 X162.2269 Y-59.5127
G01 X162.2252 Y-59.5283
G01 X162.2206 Y-59.5594
G01 X162.2177 Y-59.5749
G01 X162.2108 Y-59.6055
G01 X162.2024 Y-59.6358
G01 X162.1977 Y-59.6508
G01 X162.1871 Y-59.6803
G01 X162.1751 Y-59.7094
G01 X162.1686 Y-59.7236
G01 X162.1544 Y-59.7517
G01 X162.1389 Y-59.7790
G01 X162.1307 Y-59.7924
G01 X162.1133 Y-59.8185
G01 X162.0945 Y-59.8437
G01 X162.0746 Y-59.8680
G01 X162.0535 Y-59.8913
G01 X162.0425 Y-59.9025
G01 X162.0198 Y-59.9242
G01 X161.9960 Y-59.9447
G01 X161.9837 Y-59.9545
G01 X161.9585 Y-59.9733
G01 X161.9324 Y-59.9907
G01 X161.9190 Y-59.9989
G01 X161.9055 Y-60.0069
G01 X161.8778 Y-60.0217
G01 X161.8494 Y-60.0351
G01 X161.8203 Y-60.0471
G01 X161.8056 Y-60.0526
G01 X161.7908 Y-60.0577
G01 X161.7607 Y-60.0668
G01 X161.7455 Y-60.0708
G01 X161.7149 Y-60.0777
G01 X161.6839 Y-60.0831
G01 X161.6683 Y-60.0852
G01 X161.6371 Y-60.0883
G01 X161.6057 Y-60.0898
G01 X157.2900 Y-60.0900
G01 X157.2586 Y-60.0892
G01 X157.2273 Y-60.0869
G01 X157.2117 Y-60.0852
G01 X157.1961 Y-60.0831
G01 X157.1651 Y-60.0777
G01 X157.1345 Y-60.0708
G01 X157.1042 Y-60.0624
G01 X157.0892 Y-60.0577
G01 X157.0597 Y-60.0471
G01 X157.0451 Y-60.0413
G01 X157.0164 Y-60.0286
G01 X157.0022 Y-60.0217
G01 X156.9745 Y-60.0069
G01 X156.9476 Y-59.9907
G01 X156.9344 Y-59.9821
G01 X156.9088 Y-59.9641
G01 X156.8963 Y-59.9545
G01 X156.8720 Y-59.9346
G01 X156.8487 Y-59.9135
G01 X156.8265 Y-59.8913
G01 X156.8158 Y-59.8798
G01 X156.8054 Y-59.8680
G01 X156.7855 Y-59.8437
G01 X156.7667 Y-59.8185
G01 X156.7493 Y-59.7924
G01 X156.7411 Y-59.7790
G01 X156.7256 Y-59.7517
G01 X156.7114 Y-59.7236
G01 X156.7049 Y-59.7094
G01 X156.6929 Y-59.6803
G01 X156.6874 Y-59.6656
G01 X156.6776 Y-59.6358
G01 X156.6692 Y-59.6055
G01 X156.6623 Y-59.5749
G01 X156.6569 Y-59.5439
G01 X156.6548 Y-59.5283
G01 X156.6517 Y-59.4971
G01 X156.6502 Y-59.4657
G01 X156.6500 Y-55.1500
G01 X156.6508 Y-55.1186
G01 X156.6531 Y-55.0873
G01 X156.6548 Y-55.0717
G01 X156.6594 Y-55.0406
G01 X156.6656 Y-55.0098
G01 X156.6732 Y-54.9793
G01 X156.6776 Y-54.9642
G01 X156.6874 Y-54.9344
G01 X156.6929 Y-54.9197
G01 X156.7049 Y-54.8906
G01 X156.7183 Y-54.8622
G01 X156.7256 Y-54.8483
G01 X156.7331 Y-54.8345
G01 X156.7493 Y-54.8076
G01 X156.7667 Y-54.7815
G01 X156.7759 Y-54.7688
G01 X156.7855 Y-54.7563
G01 X156.8054 Y-54.7320
G01 X156.8265 Y-54.7087
G01 X156.8487 Y-54.6865
G01 X156.8720 Y-54.6654
G01 X156.8840 Y-54.6553
G01 X156.9088 Y-54.6359
G01 X156.9344 Y-54.6179
G01 X156.9476 Y-54.6093
G01 X156.9745 Y-54.5931
G01 X157.0022 Y-54.5783
G01 X157.0164 Y-54.5714
G01 X157.0451 Y-54.5587
G01 X157.0597 Y-54.5529
G01 X157.0892 Y-54.5423
G01 X157.1042 Y-54.5376
G01 X157.1345 Y-54.5292
G01 X157.1651 Y-54.5223
G01 X157.1806 Y-54.5194
G01 X157.2117 Y-54.5148
G01 X157.2273 Y-54.5131
G01 X157.2586 Y-54.5108
G01 X157.2743 Y-54.5102
G01 X158.2447 Y-54.5100
G01 X158.2447 Y-53.2103
G01 X156.6823 Y-53.2103
G01 X155.0602 Y-54.8324
G01 X155.0602 Y-66.0925
G00 Z2.0000
G00 X158.0602 Y-68.2225
G01 F60.00
G01 Z-2.4000
G01 F120.00
G01 X158.0602 Y-70.0978
G01 X158.0735 Y-70.1276
G01 X158.0848 Y-70.1570
G01 X158.1064 Y-70.2180
G01 X158.1155 Y-70.2481
G01 X158.1315 Y-70.3109
G01 X158.1383 Y-70.3415
G01 X158.1437 Y-70.3725
G01 X158.1530 Y-70.4366
G01 X158.1561 Y-70.4679
G01 X158.1571 Y-70.4836
G01 X158.1601 Y-70.5483
G01 X158.1601 Y-70.5797
G01 X158.1571 Y-70.6444
G01 X158.1548 Y-70.6758
G01 X158.1509 Y-70.7069
G01 X158.1449 Y-70.7476
G01 X158.9798 Y-69.9126
G01 X158.9798 Y-68.2225
G01 X158.0602 Y-68.2225
G00 Z2.0000
G00 X162.5602 Y-68.2225
G01 F60.00
G01 Z-2.4000
G01 F120.00
G01 X162.5602 Y-68.3803
G01 X162.5755 Y-68.3637
G01 X162.5865 Y-68.3525
G01 X162.7164 Y-68.2225
G01 X162.5602 Y-68.2225
G00 Z2.0000
G00 X164.8797 Y-71.5268
G01 F60.00
G01 Z-2.4000
G01 F120.00
G01 X164.8797 Y-71.2721
G01 X164.8345 Y-71.2652
G01 X164.8037 Y-71.2591
G01 X164.6970 Y-71.2324
G01 X164.7552 Y-71.3103
G01 X164.7733 Y-71.3360
G01 X164.7819 Y-71.3491
G01 X164.8384 Y-71.4434
G01 X164.8532 Y-71.4711
G01 X164.8797 Y-71.5268
G00 Z2.0000
G00 X164.8043 Y-72.8858
G01 F60.00
G01 Z-2.4000
G01 F120.00
G01 X164.8345 Y-72.8798
G01 X164.8797 Y-72.8729
G01 X164.8797 Y-72.7452
G01 X164.8601 Y-72.7868
G01 X164.8460 Y-72.8148
G01 X164.8305 Y-72.8421
G01 X164.8043 Y-72.8858
G00 Z2.0000
G00 X178.9457 Y-74.7563
G01 F60.00
G01 Z-2.4000
G01 F120.00
G01 X178.9284 Y-74.8249
G01 X178.9193 Y-74.8550
G01 X178.8877 Y-74.9438
G01 X178.8822 Y-74.9585
G01 X178.8702 Y-74.9875
G01 X178.8301 Y-75.0728
G01 X178.8160 Y-75.1008
G01 X178.8005 Y-75.1281
G01 X178.7601 Y-75.1955
G01 X178.7433 Y-75.2220
G01 X178.7344 Y-75.2350
G01 X178.6785 Y-75.3108
G01 X178.6591 Y-75.3355
G01 X178.6386 Y-75.3593
G01 X178.5859 Y-75.4175
G01 X178.5642 Y-75.4402
G01 X178.5415 Y-75.4619
G01 X178.4833 Y-75.5146
G01 X178.4595 Y-75.5351
G01 X178.4348 Y-75.5545
G01 X178.3717 Y-75.6012
G01 X178.3460 Y-75.6193
G01 X178.3195 Y-75.6361
G01 X178.2521 Y-75.6765
G01 X178.2248 Y-75.6920
G01 X178.1968 Y-75.7061
G01 X178.1258 Y-75.7397
G01 X178.0971 Y-75.7524
G01 X178.0678 Y-75.7637
G01 X177.9938 Y-75.7901
G01 X177.9640 Y-75.8000
G01 X177.9337 Y-75.8084
G01 X177.8576 Y-75.8274
G01 X177.8269 Y-75.8343
G01 X177.7960 Y-75.8397
G01 X177.7183 Y-75.8512
G01 X177.6871 Y-75.8551
G01 X177.6558 Y-75.8574
G01 X177.5774 Y-75.8612
G01 X177.5460 Y-75.8620
G01 X177.5146 Y-75.8612
G01 X177.4362 Y-75.8574
G01 X177.4049 Y-75.8551
G01 X177.3737 Y-75.8512
G01 X177.2960 Y-75.8397
G01 X177.2805 Y-75.8372
G01 X177.2497 Y-75.8311
G01 X177.1583 Y-75.8084
G01 X177.1280 Y-75.8000
G01 X177.0982 Y-75.7901
G01 X177.0095 Y-75.7582
G01 X176.9805 Y-75.7462
G01 X176.9662 Y-75.7397
G01 X176.8952 Y-75.7061
G01 X176.8672 Y-75.6920
G01 X176.8399 Y-75.6765
G01 X176.7591 Y-75.6279
G01 X176.7330 Y-75.6104
G01 X176.7203 Y-75.6012
G01 X176.6447 Y-75.5450
G01 X176.6205 Y-75.5250
G01 X176.5505 Y-75.4619
G01 X176.5278 Y-75.4402
G01 X176.5061 Y-75.4175
G01 X176.4534 Y-75.3593
G01 X176.4329 Y-75.3355
G01 X176.4231 Y-75.3233
G01 X176.3668 Y-75.2477
G01 X176.3487 Y-75.2220
G01 X176.3319 Y-75.1955
G01 X176.2836 Y-75.1146
G01 X176.2688 Y-75.0869
G01 X176.2619 Y-75.0728
G01 X176.2283 Y-75.0018
G01 X176.2156 Y-74.9731
G01 X176.2043 Y-74.9438
G01 X176.1779 Y-74.8698
G01 X176.1680 Y-74.8400
G01 X176.1636 Y-74.8249
G01 X176.1406 Y-74.7336
G01 X176.1337 Y-74.7029
G01 X176.1283 Y-74.6720
G01 X176.1168 Y-74.5943
G01 X176.1129 Y-74.5631
G01 X176.1106 Y-74.5318
G01 X176.1068 Y-74.4534
G01 X176.1060 Y-74.4220
G01 X176.1068 Y-74.3906
G01 X176.1116 Y-74.2965
G01 X176.1147 Y-74.2652
G01 X176.1168 Y-74.2497
G01 X176.1283 Y-74.1720
G01 X176.1337 Y-74.1411
G01 X176.1406 Y-74.1104
G01 X176.1596 Y-74.0343
G01 X176.1636 Y-74.0191
G01 X176.1727 Y-73.9890
G01 X176.2043 Y-73.9002
G01 X176.2156 Y-73.8709
G01 X176.2283 Y-73.8422
G01 X176.2619 Y-73.7712
G01 X176.2760 Y-73.7432
G01 X176.2836 Y-73.7294
G01 X176.3319 Y-73.6485
G01 X176.3487 Y-73.6220
G01 X176.3668 Y-73.5963
G01 X176.4057 Y-73.5437
G01 X176.4057 Y-73.2763
G01 X169.0263 Y-73.2763
G01 X168.9610 Y-73.3244
G01 X168.9349 Y-73.3419
G01 X168.8541 Y-73.3905
G01 X168.8268 Y-73.4060
G01 X168.8129 Y-73.4132
G01 X168.7278 Y-73.4537
G01 X168.7135 Y-73.4602
G01 X168.6845 Y-73.4722
G01 X168.5810 Y-73.5093
G01 X168.5509 Y-73.5184
G01 X168.5143 Y-73.5277
G01 X168.5652 Y-73.5963
G01 X168.5833 Y-73.6220
G01 X168.6001 Y-73.6485
G01 X168.6405 Y-73.7159
G01 X168.6560 Y-73.7432
G01 X168.6701 Y-73.7712
G01 X168.7037 Y-73.8422
G01 X168.7164 Y-73.8709
G01 X168.7277 Y-73.9002
G01 X168.7593 Y-73.9890
G01 X168.7684 Y-74.0191
G01 X168.7724 Y-74.0343
G01 X168.7951 Y-74.1257
G01 X168.8012 Y-74.1565
G01 X168.8152 Y-74.2497
G01 X168.8191 Y-74.2809
G01 X168.8214 Y-74.3122
G01 X168.8258 Y-74.4063
G01 X168.8258 Y-74.4377
G01 X168.8214 Y-74.5318
G01 X168.8191 Y-74.5631
G01 X168.8152 Y-74.5943
G01 X168.8037 Y-74.6720
G01 X168.7983 Y-74.7029
G01 X168.7914 Y-74.7336
G01 X168.7724 Y-74.8097
G01 X168.7640 Y-74.8400
G01 X168.7541 Y-74.8698
G01 X168.7277 Y-74.9438
G01 X168.7164 Y-74.9731
G01 X168.7037 Y-75.0018
G01 X168.6632 Y-75.0869
G01 X168.6484 Y-75.1146
G01 X168.6405 Y-75.1281
G01 X168.5919 Y-75.2089
G01 X168.5744 Y-75.2350
G01 X168.5185 Y-75.3108
G01 X168.5090 Y-75.3233
G01 X168.4890 Y-75.3475
G01 X168.4259 Y-75.4175
G01 X168.4042 Y-75.4402
G01 X168.3815 Y-75.4619
G01 X168.3233 Y-75.5146
G01 X168.2995 Y-75.5351
G01 X168.2873 Y-75.5449
G01 X168.2117 Y-75.6012
G01 X168.1860 Y-75.6193
G01 X168.1595 Y-75.6361
G01 X168.0921 Y-75.6765
G01 X168.0648 Y-75.6920
G01 X168.0368 Y-75.7061
G01 X167.9658 Y-75.7397
G01 X167.9371 Y-75.7524
G01 X167.9078 Y-75.7637
G01 X167.8190 Y-75.7953
G01 X167.7889 Y-75.8044
