(G-CODE GENERATED BY FLATCAM v8.993 - www.flatcam.org - Version Date: 2020/08/01)

(Name: Wasserhahn-B_Cu.gbl_iso2_ncc_cnc)
(Type: G-code from Geometry)
(Units: MM)

(Created on Sonntag, 17 Mai 2020 at 10:59)

(This preprocessor is the default preprocessor used by FlatCAM.)
(It is made to work with MACH3 compatible motion controllers.)

(TOOL DIAMETER: 0.1 mm)
(Feedrate_XY: 120.0 mm/min)
(Feedrate_Z: 60.0 mm/min)
(Feedrate rapids 1500.0 mm/min)

(Z_Cut: -0.0649 mm)
(Z_Move: 2.0 mm)
(Z Start: None mm)
(Z End: 15.0 mm)
(Steps per circle: 64)
(Preprocessor Geometry: default)

(X range:  -67.5282 ...  -41.0500  mm)
(Y range:   37.0500 ...   58.9500  mm)

(Spindle Speed: None RPM)
G21
G90
G94



G01 F120.00
G00 Z2.0000

M03
G00 X-44.4280 Y37.1100
G01 F60.00
G01 Z-0.0649
G01 F120.00
G01 X-43.8057 Y37.1100
G01 X-43.8657 Y37.1700
G01 X-44.4880 Y37.1700
G01 X-44.5480 Y37.2300
G01 X-43.9257 Y37.2300
G01 X-43.9857 Y37.2900
G01 X-44.6080 Y37.2900
G01 X-44.6680 Y37.3500
G01 X-44.0457 Y37.3500
G01 X-44.1057 Y37.4100
G01 X-44.7280 Y37.4100
G01 X-44.7880 Y37.4700
G01 X-44.1657 Y37.4700
G01 X-44.2257 Y37.5300
G01 X-44.8480 Y37.5300
G01 X-44.8911 Y37.5900
G01 X-44.2857 Y37.5900
G01 X-44.3457 Y37.6500
G01 X-44.8911 Y37.6500
G01 X-44.8911 Y37.7100
G01 X-44.4057 Y37.7100
G01 X-44.4657 Y37.7700
G01 X-44.8911 Y37.7700
G01 X-44.8911 Y37.8300
G01 X-44.5217 Y37.8300
G00 Z2.0000
G00 X-44.5658 Y37.8900
G01 F60.00
G01 Z-0.0649
G01 F120.00
G01 X-44.8911 Y37.8900
G01 X-44.8911 Y37.9500
G01 X-44.6001 Y37.9500
G00 Z2.0000
G00 X-44.6265 Y38.0100
G01 F60.00
G01 Z-0.0649
G01 F120.00
G01 X-44.8911 Y38.0100
G01 X-44.8911 Y38.0700
G01 X-44.6461 Y38.0700
G00 Z2.0000
G00 X-44.6594 Y38.1300
G01 F60.00
G01 Z-0.0649
G01 F120.00
G01 X-44.8911 Y38.1300
G01 X-44.8911 Y38.1900
G01 X-44.6669 Y38.1900
G00 Z2.0000
G00 X-44.6689 Y38.2500
G01 F60.00
G01 Z-0.0649
G01 F120.00
G01 X-44.8911 Y38.2500
G01 X-44.8911 Y38.3100
G01 X-44.6689 Y38.3100
G00 Z2.0000
G00 X-44.6938 Y38.3700
G01 F60.00
G01 Z-0.0649
G01 F120.00
G01 X-44.8662 Y38.3700
G00 Z2.0000
G00 X-44.8422 Y38.4300
G01 F60.00
G01 Z-0.0649
G01 F120.00
G01 X-44.7178 Y38.4300
G00 Z2.0000
G00 X-44.7250 Y38.4900
G01 F60.00
G01 Z-0.0649
G01 F120.00
G01 X-44.8350 Y38.4900
G01 X-44.8350 Y38.5500
G01 X-44.7250 Y38.5500
G01 X-44.7250 Y38.6100
G01 X-44.8350 Y38.6100
G01 X-44.8350 Y38.6700
G01 X-44.7250 Y38.6700
G01 X-44.7250 Y38.7300
G01 X-44.8350 Y38.7300
G01 X-44.8350 Y38.7900
G01 X-44.7250 Y38.7900
G01 X-44.7250 Y38.8500
G01 X-44.8350 Y38.8500
G01 X-44.8350 Y38.9100
G01 X-44.7250 Y38.9100
G01 X-44.7250 Y38.9700
G01 X-44.8350 Y38.9700
G01 X-44.8350 Y39.0300
G01 X-44.7250 Y39.0300
G01 X-44.7250 Y39.0900
G01 X-44.8350 Y39.0900
G01 X-44.8350 Y39.1500
G01 X-44.7250 Y39.1500
G01 X-44.7250 Y39.2100
G01 X-44.8350 Y39.2100
G01 X-44.8350 Y39.2700
G01 X-44.7250 Y39.2700
G01 X-44.7250 Y39.3300
G01 X-44.8350 Y39.3300
G00 Z2.0000
G00 X-44.8408 Y39.3900
G01 F60.00
G01 Z-0.0649
G01 F120.00
G01 X-44.7192 Y39.3900
G00 Z2.0000
G00 X-44.6970 Y39.4500
G01 F60.00
G01 Z-0.0649
G01 F120.00
G01 X-44.8630 Y39.4500
G00 Z2.0000
G00 X-44.9083 Y39.5100
G01 F60.00
G01 Z-0.0649
G01 F120.00
G01 X-44.6689 Y39.5100
G01 X-44.6689 Y39.5700
G01 X-45.0180 Y39.5700
G01 X-44.6689 Y39.6300
G01 X-67.5282 Y39.6300
G01 X-67.5282 Y39.6900
G01 X-44.6689 Y39.6900
G01 X-44.6689 Y39.7500
G01 X-67.5282 Y39.7500
G01 X-67.5282 Y39.8100
G01 X-44.6689 Y39.8100
G01 X-44.6689 Y39.8700
G01 X-67.5282 Y39.8700
G01 X-67.5282 Y39.9300
G01 X-44.6689 Y39.9300
G01 X-44.6689 Y39.9900
G01 X-67.5282 Y39.9900
G01 X-67.5282 Y40.0500
G01 X-44.6689 Y40.0500
G01 X-44.6689 Y40.1100
G01 X-67.5282 Y40.1100
G01 X-67.5282 Y40.1700
G01 X-44.6689 Y40.1700
G01 X-44.6689 Y40.2300
G01 X-67.5282 Y40.2300
G01 X-67.5282 Y40.2900
G01 X-44.6689 Y40.2900
G01 X-44.6689 Y40.3500
G01 X-67.5282 Y40.3500
G01 X-67.5282 Y40.4100
G01 X-44.6689 Y40.4100
G01 X-44.6689 Y40.4700
G01 X-67.5282 Y40.4700
G01 X-67.5282 Y40.5300
G01 X-44.6689 Y40.5300
G01 X-44.6689 Y40.5900
G01 X-67.5282 Y40.5900
G01 X-67.5282 Y40.6500
G01 X-44.6689 Y40.6500
G01 X-44.6689 Y40.7100
G01 X-67.5282 Y40.7100
G01 X-67.5282 Y40.7700
G01 X-44.6689 Y40.7700
G01 X-44.6689 Y40.8300
G01 X-67.5282 Y40.8300
G01 X-67.5282 Y40.8900
G01 X-44.6689 Y40.8900
G01 X-44.6689 Y40.9500
G01 X-67.5282 Y40.9500
G01 X-67.5282 Y41.0100
G01 X-44.6689 Y41.0100
G01 X-44.6689 Y41.0700
G01 X-67.5282 Y41.0700
G01 X-67.5282 Y41.1300
G01 X-44.6689 Y41.1300
G01 X-44.6689 Y41.1900
G01 X-67.5282 Y41.1900
G01 X-67.5282 Y41.2500
G01 X-44.6689 Y41.2500
G01 X-44.6689 Y41.3100
G01 X-67.5282 Y41.3100
G01 X-67.5282 Y41.3700
G01 X-44.6689 Y41.3700
G01 X-44.6689 Y41.4300
G01 X-67.5282 Y41.4300
G01 X-67.5282 Y41.4900
G01 X-44.6689 Y41.4900
G01 X-44.6689 Y41.5500
G01 X-67.5282 Y41.5500
G01 X-67.5282 Y41.6100
G01 X-44.6689 Y41.6100
G01 X-44.6689 Y41.6700
G01 X-67.5282 Y41.6700
G01 X-67.5282 Y41.7300
G01 X-44.6689 Y41.7300
G01 X-44.6689 Y41.7900
G01 X-67.5282 Y41.7900
G01 X-67.5282 Y41.8500
G01 X-44.6689 Y41.8500
G01 X-44.6689 Y41.9100
G01 X-67.5282 Y41.9100
G01 X-67.5282 Y41.9700
G01 X-44.6689 Y41.9700
G01 X-44.6689 Y42.0300
G01 X-67.5282 Y42.0300
G01 X-67.5282 Y42.0900
G01 X-44.6689 Y42.0900
G01 X-44.6689 Y42.1500
G01 X-67.5282 Y42.1500
G01 X-67.5282 Y42.2100
G01 X-44.6689 Y42.2100
G01 X-44.6689 Y42.2700
G01 X-67.5282 Y42.2700
G01 X-67.5282 Y42.3300
G01 X-44.6689 Y42.3300
G01 X-44.6689 Y42.3900
G01 X-67.5282 Y42.3900
G01 X-67.5282 Y42.4500
G01 X-44.6689 Y42.4500
G01 X-44.6689 Y42.5100
G01 X-67.5282 Y42.5100
G01 X-67.5282 Y42.5700
G01 X-44.6689 Y42.5700
G01 X-44.6689 Y42.6300
G01 X-67.5282 Y42.6300
G01 X-67.5282 Y42.6900
G01 X-44.6689 Y42.6900
G01 X-44.6689 Y42.7500
G01 X-67.5282 Y42.7500
G01 X-67.5282 Y42.8100
G01 X-44.6689 Y42.8100
G01 X-44.6689 Y42.8700
G01 X-67.5282 Y42.8700
G01 X-67.5282 Y42.9300
G01 X-44.6689 Y42.9300
G00 Z2.0000
G00 X-41.0511 Y42.9500
G01 F60.00
G01 Z-0.0649
G01 F120.00
G01 X-41.0511 Y37.0500
G01 X-41.1111 Y37.0500
G01 X-41.1111 Y42.9500
G01 X-41.1711 Y42.9500
G01 X-41.1711 Y37.0500
G01 X-41.2311 Y37.0500
G01 X-41.2311 Y42.9500
G01 X-41.2911 Y42.9500
G01 X-41.2911 Y37.0500
G01 X-41.3511 Y37.0500
G01 X-41.3511 Y42.9500
G01 X-41.4111 Y42.9500
G01 X-41.4111 Y37.0500
G01 X-41.4711 Y37.0500
G01 X-41.4711 Y42.9500
G01 X-41.5311 Y42.9500
G01 X-41.5311 Y37.0500
G01 X-41.5911 Y37.0500
G01 X-41.5911 Y42.9500
G01 X-41.6511 Y42.9500
G01 X-41.6511 Y37.0500
G01 X-41.7111 Y37.0500
G01 X-41.7111 Y42.9500
G01 X-41.7711 Y42.9500
G01 X-41.7711 Y37.0500
G01 X-41.8311 Y37.0500
G01 X-41.8311 Y42.9500
G01 X-41.8911 Y42.9500
G01 X-41.8911 Y37.0500
G01 X-41.9511 Y37.0625
G01 X-41.9511 Y42.9500
G01 X-42.0111 Y42.9500
G01 X-42.0111 Y37.1225
G01 X-42.0711 Y37.1825
G01 X-42.0711 Y42.9500
G01 X-42.1311 Y42.9500
G01 X-42.1311 Y37.2425
G01 X-42.1911 Y37.3025
G01 X-42.1911 Y42.9500
G01 X-42.2511 Y42.9500
G01 X-42.2511 Y37.3625
G01 X-42.3111 Y37.4225
G01 X-42.3111 Y42.9500
G01 X-42.3711 Y42.9500
G01 X-42.3711 Y37.4825
G01 X-42.4311 Y37.5425
G01 X-42.4311 Y42.9500
G01 X-42.4911 Y42.9500
G01 X-42.4911 Y37.6025
G01 X-42.5511 Y37.6625
G01 X-42.5511 Y42.9500
G01 X-42.6111 Y42.9500
G01 X-42.6111 Y37.7225
G01 X-42.6711 Y37.7825
G01 X-42.6711 Y42.9500
G01 X-42.7311 Y42.9500
G01 X-42.7311 Y37.8425
G01 X-42.7911 Y37.9025
G01 X-42.7911 Y42.9500
G01 X-42.8511 Y42.9500
G01 X-42.8511 Y37.9625
G01 X-42.9111 Y38.0225
G01 X-42.9111 Y42.9500
G01 X-42.9711 Y42.9500
G01 X-42.9711 Y38.0825
G01 X-43.0311 Y38.1425
G01 X-43.0311 Y42.9500
G01 X-43.0911 Y42.9500
G01 X-43.0911 Y38.2025
G01 X-43.1511 Y38.2625
G01 X-43.1511 Y42.9500
G01 X-43.2111 Y42.9500
G01 X-43.2111 Y38.3225
G01 X-43.2711 Y38.3825
G01 X-43.2711 Y42.9500
G01 X-43.3311 Y42.9500
G01 X-43.3311 Y38.4425
G00 Z2.0000
G00 X-43.3911 Y39.4916
G01 F60.00
G01 Z-0.0649
G01 F120.00
G01 X-43.3911 Y42.9500
G01 X-41.0500 Y42.9500
G01 X-41.0500 Y37.0500
G01 X-41.9385 Y37.0500
G01 X-43.3381 Y38.4496
G01 X-43.3357 Y38.4697
G01 X-43.3350 Y38.4879
G01 X-43.3350 Y39.3379
G01 X-43.3354 Y39.3502
G01 X-43.3361 Y39.3607
G01 X-43.3375 Y39.3723
G01 X-43.3407 Y39.3896
G01 X-43.3452 Y39.4068
G01 X-43.3513 Y39.4244
G01 X-43.3582 Y39.4405
G01 X-43.3635 Y39.4510
G01 X-43.3687 Y39.4601
G01 X-43.3789 Y39.4759
G01 X-43.3911 Y39.4916
G00 Z2.0000
G00 X-46.0420 Y39.5700
G01 F60.00
G01 Z-0.0649
G01 F120.00
G01 X-46.5180 Y39.5700
G00 Z2.0000
G00 X-46.4083 Y39.5100
G01 F60.00
G01 Z-0.0649
G01 F120.00
G01 X-46.1517 Y39.5100
G00 Z2.0000
G00 X-46.1970 Y39.4500
G01 F60.00
G01 Z-0.0649
G01 F120.00
G01 X-46.3630 Y39.4500
G00 Z2.0000
G00 X-46.3408 Y39.3900
G01 F60.00
G01 Z-0.0649
G01 F120.00
G01 X-46.2192 Y39.3900
G00 Z2.0000
G00 X-46.2250 Y39.3300
G01 F60.00
G01 Z-0.0649
G01 F120.00
G01 X-46.3350 Y39.3300
G01 X-46.3350 Y39.2700
G01 X-46.2250 Y39.2700
G01 X-46.2250 Y39.2100
G01 X-46.3350 Y39.2100
G01 X-46.3350 Y39.1500
G01 X-46.2250 Y39.1500
G01 X-46.2250 Y39.0900
G01 X-46.3350 Y39.0900
G01 X-46.3350 Y39.0300
G01 X-46.2250 Y39.0300
G01 X-46.2250 Y38.9700
G01 X-46.3350 Y38.9700
G01 X-46.3350 Y38.9100
G01 X-46.2250 Y38.9100
G01 X-46.2250 Y38.8500
G01 X-46.3350 Y38.8500
G01 X-46.3350 Y38.7900
G01 X-46.2250 Y38.7900
G01 X-46.2250 Y38.7300
G01 X-46.3350 Y38.7300
G01 X-46.3350 Y38.6700
G01 X-46.2250 Y38.6700
G01 X-46.2250 Y38.6100
G01 X-46.3350 Y38.6100
G01 X-46.3350 Y38.5500
G01 X-46.2250 Y38.5500
G01 X-46.2250 Y38.4900
G01 X-46.3350 Y38.4900
G00 Z2.0000
G00 X-46.3422 Y38.4300
G01 F60.00
G01 Z-0.0649
G01 F120.00
G01 X-46.2178 Y38.4300
G00 Z2.0000
G00 X-46.1938 Y38.3700
G01 F60.00
G01 Z-0.0649
G01 F120.00
G01 X-46.3662 Y38.3700
G00 Z2.0000
G00 X-46.3911 Y38.3100
G01 F60.00
G01 Z-0.0649
G01 F120.00
G01 X-46.1689 Y38.3100
G01 X-46.1689 Y38.2500
G01 X-46.3911 Y38.2500
G01 X-46.3911 Y38.1900
G01 X-46.1689 Y38.1900
G01 X-46.1689 Y38.1300
G01 X-46.3911 Y38.1300
G01 X-46.3911 Y38.0700
G01 X-46.1689 Y38.0700
G01 X-46.1689 Y38.0100
G01 X-46.3911 Y38.0100
G01 X-46.3911 Y37.9500
G01 X-46.1689 Y37.9500
G01 X-46.1689 Y37.8900
G01 X-46.3911 Y37.8900
G01 X-46.3911 Y37.8300
G01 X-46.1689 Y37.8300
G01 X-46.1689 Y37.7700
G01 X-46.3911 Y37.7700
G01 X-46.3911 Y37.7100
G01 X-46.1689 Y37.7100
G01 X-46.1689 Y37.6500
G01 X-46.3911 Y37.6500
G01 X-46.3911 Y37.5900
G01 X-46.1689 Y37.5900
G01 X-46.1689 Y37.5300
G01 X-46.3911 Y37.5300
G01 X-46.3911 Y37.4700
G01 X-46.1689 Y37.4700
G01 X-46.1689 Y37.4100
G01 X-46.3911 Y37.4100
G01 X-46.3911 Y37.3500
G01 X-46.1689 Y37.3500
G00 Z2.0000
G00 X-46.1683 Y37.2900
G01 F60.00
G01 Z-0.0649
G01 F120.00
G01 X-46.3911 Y37.2900
G01 X-46.3911 Y37.2300
G01 X-46.1638 Y37.2300
G00 Z2.0000
G00 X-46.1535 Y37.1700
G01 F60.00
G01 Z-0.0649
G01 F120.00
G01 X-46.3911 Y37.1700
G01 X-46.3911 Y37.1100
G01 X-46.1371 Y37.1100
G00 Z2.0000
G00 X-47.6689 Y37.1100
G01 F60.00
G01 Z-0.0649
G01 F120.00
G01 X-49.3911 Y37.1100
G01 X-49.3911 Y37.1700
G01 X-47.6689 Y37.1700
G01 X-47.6689 Y37.2300
G01 X-49.3911 Y37.2300
G01 X-49.3911 Y37.2900
G01 X-47.6689 Y37.2900
G01 X-47.6689 Y37.3500
G01 X-49.3911 Y37.3500
G01 X-49.3911 Y37.4100
G01 X-47.6689 Y37.4100
G01 X-47.6689 Y37.4700
G01 X-49.3911 Y37.4700
G01 X-49.3911 Y37.5300
G01 X-47.6689 Y37.5300
G01 X-47.6689 Y37.5900
G01 X-49.3911 Y37.5900
G01 X-49.3911 Y37.6500
G01 X-47.6689 Y37.6500
G01 X-47.6689 Y37.7100
G01 X-49.3911 Y37.7100
G01 X-49.3911 Y37.7700
G01 X-47.6689 Y37.7700
G01 X-47.6689 Y37.8300
G01 X-49.3911 Y37.8300
G01 X-49.3911 Y37.8900
G01 X-47.6689 Y37.8900
G01 X-47.6689 Y37.9500
G01 X-49.3911 Y37.9500
G01 X-49.3911 Y38.0100
G01 X-47.6689 Y38.0100
G01 X-47.6689 Y38.0700
G01 X-49.3911 Y38.0700
G01 X-49.3911 Y38.1300
G01 X-47.6689 Y38.1300
G01 X-47.6689 Y38.1900
G01 X-49.3911 Y38.1900
G01 X-49.3911 Y38.2500
G01 X-49.0059 Y38.2500
G00 Z2.0000
G00 X-49.1454 Y38.3100
G01 F60.00
G01 Z-0.0649
G01 F120.00
G01 X-49.3911 Y38.3100
G00 Z2.0000
G00 X-49.3662 Y38.3700
G01 F60.00
G01 Z-0.0649
G01 F120.00
G01 X-49.1938 Y38.3700
G00 Z2.0000
G00 X-49.2178 Y38.4300
G01 F60.00
G01 Z-0.0649
G01 F120.00
G01 X-49.3422 Y38.4300
G00 Z2.0000
G00 X-49.3350 Y38.4900
G01 F60.00
G01 Z-0.0649
G01 F120.00
G01 X-49.2250 Y38.4900
G00 Z2.0000
G00 X-49.2249 Y38.4827
G01 F60.00
G01 Z-0.0649
G01 F120.00
G01 X-49.2238 Y38.4639
G01 X-49.2223 Y38.4523
G01 X-49.2205 Y38.4419
G01 X-49.2162 Y38.4236
G01 X-49.2129 Y38.4129
G01 X-49.2092 Y38.4026
G01 X-49.2018 Y38.3853
G01 X-49.1965 Y38.3748
G01 X-49.1907 Y38.3646
G01 X-49.1848 Y38.3553
G01 X-49.1782 Y38.3460
G01 X-49.1666 Y38.3315
G01 X-49.1587 Y38.3229
G01 X-49.1513 Y38.3154
G01 X-49.1426 Y38.3075
G01 X-49.1336 Y38.3001
G01 X-49.1184 Y38.2891
G01 X-49.1084 Y38.2828
G01 X-49.0993 Y38.2777
G01 X-49.0824 Y38.2694
G01 X-49.0716 Y38.2650
G01 X-49.0613 Y38.2613
G01 X-49.0504 Y38.2580
G01 X-49.0392 Y38.2551
G01 X-49.0207 Y38.2517
G01 X-49.0032 Y38.2498
G01 X-48.9862 Y38.2492
G01 X-48.0738 Y38.2492
G01 X-48.0626 Y38.2494
G01 X-48.0451 Y38.2509
G01 X-48.0278 Y38.2537
G01 X-48.0107 Y38.2577
G01 X-47.9939 Y38.2629
G01 X-47.9775 Y38.2694
G01 X-47.9618 Y38.2771
G01 X-47.9466 Y38.2859
G01 X-47.9319 Y38.2959
G01 X-47.9227 Y38.3031
G01 X-47.9130 Y38.3114
G01 X-47.9013 Y38.3229
G01 X-47.8934 Y38.3315
G01 X-47.8852 Y38.3415
G01 X-47.8756 Y38.3548
G01 X-47.8687 Y38.3657
G01 X-47.8629 Y38.3759
G01 X-47.8577 Y38.3864
G01 X-47.8513 Y38.4014
G01 X-47.8471 Y38.4129
G01 X-47.8435 Y38.4248
G01 X-47.8397 Y38.4407
G01 X-47.8377 Y38.4523
G01 X-47.8362 Y38.4639
G01 X-47.8353 Y38.4768
G01 X-47.8350 Y38.4879
G01 X-47.8350 Y39.3379
G01 X-47.8353 Y39.3490
G01 X-47.8368 Y39.3665
G01 X-47.8395 Y39.3839
G01 X-47.8435 Y39.4010
G01 X-47.8488 Y39.4177
G01 X-47.8553 Y39.4341
G01 X-47.8629 Y39.4499
G01 X-47.8717 Y39.4651
G01 X-47.8818 Y39.4798
G01 X-47.8889 Y39.4890
G01 X-47.8973 Y39.4987
G01 X-47.9087 Y39.5104
G01 X-47.9174 Y39.5183
G01 X-47.9274 Y39.5265
G01 X-47.9406 Y39.5360
G01 X-47.9516 Y39.5430
G01 X-47.9618 Y39.5487
G01 X-47.9765 Y39.5559
G01 X-47.9873 Y39.5604
G01 X-47.9987 Y39.5645
G01 X-48.0107 Y39.5681
G01 X-48.0220 Y39.5710
G01 X-48.0381 Y39.5739
G01 X-48.0510 Y39.5755
G01 X-48.0626 Y39.5764
G01 X-48.0738 Y39.5766
G01 X-48.9862 Y39.5766
G01 X-48.9974 Y39.5764
G01 X-49.0149 Y39.5749
G01 X-49.0322 Y39.5721
G01 X-49.0493 Y39.5681
G01 X-49.0661 Y39.5629
G01 X-49.0825 Y39.5564
G01 X-49.0982 Y39.5487
G01 X-49.1134 Y39.5399
G01 X-49.1281 Y39.5299
G01 X-49.1373 Y39.5227
G01 X-49.1470 Y39.5144
G01 X-49.1555 Y39.5063
G01 X-49.1666 Y39.4943
G01 X-49.1741 Y39.4852
G01 X-49.1818 Y39.4749
G01 X-49.1883 Y39.4651
G01 X-49.1943 Y39.4550
G01 X-49.1998 Y39.4447
G01 X-49.2047 Y39.4341
G01 X-49.2108 Y39.4189
G01 X-49.2145 Y39.4078
G01 X-49.2177 Y39.3964
G01 X-49.2205 Y39.3839
G01 X-49.2225 Y39.3723
G01 X-49.2239 Y39.3607
G01 X-49.2247 Y39.3490
G01 X-49.2250 Y39.3379
G01 X-49.2249 Y38.4827
G00 Z2.0000
G00 X-49.2250 Y38.5500
G01 F60.00
G01 Z-0.0649
G01 F120.00
G01 X-49.3350 Y38.5500
G01 X-49.3350 Y38.6100
G01 X-49.2250 Y38.6100
G01 X-49.2250 Y38.6700
G01 X-49.3350 Y38.6700
G01 X-49.3350 Y38.7300
G01 X-49.2250 Y38.7300
G01 X-49.2250 Y38.7900
G01 X-49.3350 Y38.7900
G01 X-49.3350 Y38.8500
G01 X-49.2250 Y38.8500
G01 X-49.2250 Y38.9100
G01 X-49.3350 Y38.9100
G01 X-49.3350 Y38.9700
G01 X-49.2250 Y38.9700
G01 X-49.2250 Y39.0300
G01 X-49.3350 Y39.0300
G01 X-49.3350 Y39.0900
G01 X-49.2250 Y39.0900
G01 X-49.2250 Y39.1500
G01 X-49.3350 Y39.1500
G01 X-49.3350 Y39.2100
G01 X-49.2250 Y39.2100
G01 X-49.2250 Y39.2700
G01 X-49.3350 Y39.2700
G01 X-49.3350 Y39.3300
G01 X-49.2250 Y39.3300
G00 Z2.0000
G00 X-49.2192 Y39.3900
G01 F60.00
G01 Z-0.0649
G01 F120.00
G01 X-49.3408 Y39.3900
G00 Z2.0000
G00 X-49.3630 Y39.4500
G01 F60.00
G01 Z-0.0649
G01 F120.00
G01 X-49.1970 Y39.4500
G00 Z2.0000
G00 X-49.1517 Y39.5100
G01 F60.00
G01 Z-0.0649
G01 F120.00
G01 X-49.4083 Y39.5100
G00 Z2.0000
G00 X-49.5180 Y39.5700
G01 F60.00
G01 Z-0.0649
G01 F120.00
G01 X-49.0420 Y39.5700
G00 Z2.0000
G00 X-48.0180 Y39.5700
G01 F60.00
G01 Z-0.0649
G01 F120.00
G01 X-47.5420 Y39.5700
G00 Z2.0000
G00 X-47.6517 Y39.5100
G01 F60.00
G01 Z-0.0649
G01 F120.00
G01 X-47.9083 Y39.5100
G00 Z2.0000
G00 X-47.8630 Y39.4500
G01 F60.00
G01 Z-0.0649
G01 F120.00
G01 X-47.6970 Y39.4500
G00 Z2.0000
G00 X-47.7192 Y39.3900
G01 F60.00
G01 Z-0.0649
G01 F120.00
G01 X-47.8408 Y39.3900
G00 Z2.0000
G00 X-47.8350 Y39.3300
G01 F60.00
G01 Z-0.0649
G01 F120.00
G01 X-47.7250 Y39.3300
G01 X-47.7250 Y39.2700
G01 X-47.8350 Y39.2700
G01 X-47.8350 Y39.2100
G01 X-47.7250 Y39.2100
G01 X-47.7250 Y39.1500
G01 X-47.8350 Y39.1500
G01 X-47.8350 Y39.0900
G01 X-47.7250 Y39.0900
G01 X-47.7250 Y39.0300
G01 X-47.8350 Y39.0300
G01 X-47.8350 Y38.9700
G01 X-47.7250 Y38.9700
G01 X-47.7250 Y38.9100
G01 X-47.8350 Y38.9100
G01 X-47.8350 Y38.8500
G01 X-47.7250 Y38.8500
G01 X-47.7250 Y38.7900
G01 X-47.8350 Y38.7900
G01 X-47.8350 Y38.7300
G01 X-47.7250 Y38.7300
G01 X-47.7250 Y38.6700
G01 X-47.8350 Y38.6700
G01 X-47.8350 Y38.6100
G01 X-47.7250 Y38.6100
G01 X-47.7250 Y38.5500
G01 X-47.8350 Y38.5500
G01 X-47.8350 Y38.4900
G01 X-47.7250 Y38.4900
G00 Z2.0000
G00 X-47.7178 Y38.4300
G01 F60.00
G01 Z-0.0649
G01 F120.00
G01 X-47.8422 Y38.4300
G00 Z2.0000
G00 X-47.8662 Y38.3700
G01 F60.00
G01 Z-0.0649
G01 F120.00
G01 X-47.6938 Y38.3700
G00 Z2.0000
G00 X-47.6689 Y38.3100
G01 F60.00
G01 Z-0.0649
G01 F120.00
G01 X-47.9146 Y38.3100
G00 Z2.0000
G00 X-48.0541 Y38.2500
G01 F60.00
G01 Z-0.0649
G01 F120.00
G01 X-47.6689 Y38.2500
G00 Z2.0000
G00 X-50.6689 Y38.2500
G01 F60.00
G01 Z-0.0649
G01 F120.00
G01 X-50.8911 Y38.2500
G01 X-50.8911 Y38.3100
G01 X-50.6689 Y38.3100
G00 Z2.0000
G00 X-50.6938 Y38.3700
G01 F60.00
G01 Z-0.0649
G01 F120.00
G01 X-50.8662 Y38.3700
G00 Z2.0000
G00 X-50.8422 Y38.4300
G01 F60.00
G01 Z-0.0649
G01 F120.00
G01 X-50.7178 Y38.4300
G00 Z2.0000
G00 X-50.7250 Y38.4900
G01 F60.00
G01 Z-0.0649
G01 F120.00
G01 X-50.8350 Y38.4900
G01 X-50.8350 Y38.5500
G01 X-50.7250 Y38.5500
G01 X-50.7250 Y38.6100
G01 X-50.8350 Y38.6100
G01 X-50.8350 Y38.6700
G01 X-50.7250 Y38.6700
G01 X-50.7250 Y38.7300
G01 X-50.8350 Y38.7300
G01 X-50.8350 Y38.7900
G01 X-50.7250 Y38.7900
G01 X-50.7250 Y38.8500
G01 X-50.8350 Y38.8500
G01 X-50.8350 Y38.9100
G01 X-50.7250 Y38.9100
G01 X-50.7250 Y38.9700
G01 X-50.8350 Y38.9700
G01 X-50.8350 Y39.0300
G01 X-50.7250 Y39.0300
G01 X-50.7250 Y39.0900
G01 X-50.8350 Y39.0900
G01 X-50.8350 Y39.1500
G01 X-50.7250 Y39.1500
G01 X-50.7250 Y39.2100
G01 X-50.8350 Y39.2100
G01 X-50.8350 Y39.2700
G01 X-50.7250 Y39.2700
G01 X-50.7250 Y39.3300
G01 X-50.8350 Y39.3300
G00 Z2.0000
G00 X-50.8408 Y39.3900
G01 F60.00
G01 Z-0.0649
G01 F120.00
G01 X-50.7192 Y39.3900
G00 Z2.0000
G00 X-50.6970 Y39.4500
G01 F60.00
G01 Z-0.0649
G01 F120.00
G01 X-50.8630 Y39.4500
G00 Z2.0000
G00 X-50.9083 Y39.5100
G01 F60.00
G01 Z-0.0649
G01 F120.00
G01 X-50.6517 Y39.5100
G00 Z2.0000
G00 X-50.5420 Y39.5700
G01 F60.00
G01 Z-0.0649
G01 F120.00
G01 X-51.0180 Y39.5700
G00 Z2.0000
G00 X-52.0420 Y39.5700
G01 F60.00
G01 Z-0.0649
G01 F120.00
G01 X-52.5180 Y39.5700
G00 Z2.0000
G00 X-52.4083 Y39.5100
G01 F60.00
G01 Z-0.0649
G01 F120.00
G01 X-52.1517 Y39.5100
G00 Z2.0000
G00 X-52.1970 Y39.4500
G01 F60.00
G01 Z-0.0649
G01 F120.00
G01 X-52.3630 Y39.4500
G00 Z2.0000
G00 X-52.3408 Y39.3900
G01 F60.00
G01 Z-0.0649
G01 F120.00
G01 X-52.2192 Y39.3900
G00 Z2.0000
G00 X-52.2250 Y39.3300
G01 F60.00
G01 Z-0.0649
G01 F120.00
G01 X-52.3350 Y39.3300
G01 X-52.3350 Y39.2700
G01 X-52.2250 Y39.2700
G01 X-52.2250 Y39.2100
G01 X-52.3350 Y39.2100
G01 X-52.3350 Y39.1500
G01 X-52.2250 Y39.1500
G01 X-52.2250 Y39.0900
G01 X-52.3350 Y39.0900
G01 X-52.3350 Y39.0300
G01 X-52.2250 Y39.0300
G01 X-52.2250 Y38.9700
G01 X-52.3350 Y38.9700
G01 X-52.3350 Y38.9100
G01 X-52.2250 Y38.9100
G01 X-52.2250 Y38.8500
G01 X-52.3350 Y38.8500
G01 X-52.3350 Y38.7900
G01 X-52.2250 Y38.7900
G01 X-52.2250 Y38.7300
G01 X-52.3350 Y38.7300
G01 X-52.3350 Y38.6700
G01 X-52.2250 Y38.6700
G01 X-52.2250 Y38.6100
G01 X-52.3350 Y38.6100
G01 X-52.3350 Y38.5500
G01 X-52.2250 Y38.5500
G01 X-52.2250 Y38.4900
G01 X-52.3350 Y38.4900
G00 Z2.0000
G00 X-52.3422 Y38.4300
G01 F60.00
G01 Z-0.0649
G01 F120.00
G01 X-52.2178 Y38.4300
G00 Z2.0000
G00 X-52.1938 Y38.3700
G01 F60.00
G01 Z-0.0649
G01 F120.00
G01 X-52.3662 Y38.3700
G00 Z2.0000
G00 X-52.4146 Y38.3100
G01 F60.00
G01 Z-0.0649
G01 F120.00
G01 X-52.1689 Y38.3100
G01 X-52.1689 Y38.2500
G01 X-52.5541 Y38.2500
G01 X-52.1689 Y38.1900
G01 X-53.8900 Y38.1900
G01 X-53.8911 Y38.2500
G01 X-53.5059 Y38.2500
G00 Z2.0000
G00 X-53.6454 Y38.3100
G01 F60.00
G01 Z-0.0649
G01 F120.00
G01 X-53.8911 Y38.3100
G00 Z2.0000
G00 X-53.8662 Y38.3700
G01 F60.00
G01 Z-0.0649
G01 F120.00
G01 X-53.6938 Y38.3700
G00 Z2.0000
G00 X-53.7178 Y38.4300
G01 F60.00
G01 Z-0.0649
G01 F120.00
G01 X-53.8422 Y38.4300
G00 Z2.0000
G00 X-53.8350 Y38.4900
G01 F60.00
G01 Z-0.0649
G01 F120.00
G01 X-53.7250 Y38.4900
G00 Z2.0000
G00 X-53.7249 Y38.4827
G01 F60.00
G01 Z-0.0649
G01 F120.00
G01 X-53.7238 Y38.4639
G01 X-53.7223 Y38.4523
G01 X-53.7205 Y38.4419
G01 X-53.7162 Y38.4236
G01 X-53.7129 Y38.4129
G01 X-53.7092 Y38.4026
G01 X-53.7018 Y38.3853
G01 X-53.6965 Y38.3748
G01 X-53.6907 Y38.3646
G01 X-53.6848 Y38.3553
G01 X-53.6782 Y38.3460
G01 X-53.6666 Y38.3315
G01 X-53.6587 Y38.3229
G01 X-53.6513 Y38.3154
G01 X-53.6426 Y38.3075
G01 X-53.6336 Y38.3001
G01 X-53.6184 Y38.2891
G01 X-53.6084 Y38.2828
G01 X-53.5993 Y38.2777
G01 X-53.5824 Y38.2694
G01 X-53.5716 Y38.2650
G01 X-53.5613 Y38.2613
G01 X-53.5504 Y38.2580
G01 X-53.5392 Y38.2551
G01 X-53.5207 Y38.2517
G01 X-53.5032 Y38.2498
G01 X-53.4862 Y38.2492
G01 X-52.5738 Y38.2492
G01 X-52.5626 Y38.2494
G01 X-52.5451 Y38.2509
G01 X-52.5278 Y38.2537
G01 X-52.5107 Y38.2577
G01 X-52.4939 Y38.2629
G01 X-52.4775 Y38.2694
G01 X-52.4618 Y38.2771
G01 X-52.4466 Y38.2859
G01 X-52.4319 Y38.2959
G01 X-52.4227 Y38.3031
G01 X-52.4130 Y38.3114
G01 X-52.4013 Y38.3229
G01 X-52.3934 Y38.3315
G01 X-52.3852 Y38.3415
G01 X-52.3756 Y38.3548
G01 X-52.3687 Y38.3657
G01 X-52.3629 Y38.3759
G01 X-52.3577 Y38.3864
G01 X-52.3513 Y38.4014
G01 X-52.3471 Y38.4129
G01 X-52.3435 Y38.4248
G01 X-52.3397 Y38.4407
G01 X-52.3377 Y38.4523
G01 X-52.3362 Y38.4639
G01 X-52.3353 Y38.4768
G01 X-52.3350 Y38.4879
G01 X-52.3350 Y39.3379
G01 X-52.3353 Y39.3490
G01 X-52.3368 Y39.3665
G01 X-52.3395 Y39.3839
G01 X-52.3435 Y39.4010
G01 X-52.3488 Y39.4177
G01 X-52.3553 Y39.4341
G01 X-52.3629 Y39.4499
G01 X-52.3717 Y39.4651
G01 X-52.3818 Y39.4798
G01 X-52.3889 Y39.4890
G01 X-52.3973 Y39.4987
G01 X-52.4087 Y39.5104
G01 X-52.4174 Y39.5183
G01 X-52.4274 Y39.5265
G01 X-52.4406 Y39.5360
G01 X-52.4516 Y39.5430
G01 X-52.4618 Y39.5487
G01 X-52.4765 Y39.5559
G01 X-52.4873 Y39.5604
G01 X-52.4987 Y39.5645
G01 X-52.5107 Y39.5681
G01 X-52.5220 Y39.5710
G01 X-52.5381 Y39.5739
G01 X-52.5510 Y39.5755
G01 X-52.5626 Y39.5764
G01 X-52.5738 Y39.5766
G01 X-53.4862 Y39.5766
G01 X-53.4974 Y39.5764
G01 X-53.5149 Y39.5749
G01 X-53.5322 Y39.5721
G01 X-53.5493 Y39.5681
G01 X-53.5661 Y39.5629
G01 X-53.5825 Y39.5564
G01 X-53.5982 Y39.5487
G01 X-53.6134 Y39.5399
G01 X-53.6281 Y39.5299
G01 X-53.6373 Y39.5227
G01 X-53.6470 Y39.5144
G01 X-53.6555 Y39.5063
G01 X-53.6666 Y39.4943
G01 X-53.6741 Y39.4852
G01 X-53.6818 Y39.4749
G01 X-53.6883 Y39.4651
G01 X-53.6943 Y39.4550
G01 X-53.6998 Y39.4447
G01 X-53.7047 Y39.4341
G01 X-53.7108 Y39.4189
G01 X-53.7145 Y39.4078
G01 X-53.7177 Y39.3964
G01 X-53.7205 Y39.3839
G01 X-53.7225 Y39.3723
G01 X-53.7239 Y39.3607
G01 X-53.7247 Y39.3490
G01 X-53.7250 Y39.3379
G01 X-53.7249 Y38.4827
G00 Z2.0000
G00 X-53.7250 Y38.5500
G01 F60.00
G01 Z-0.0649
G01 F120.00
G01 X-53.8350 Y38.5500
G01 X-53.8350 Y38.6100
G01 X-53.7250 Y38.6100
G01 X-53.7250 Y38.6700
G01 X-53.8350 Y38.6700
G01 X-53.8350 Y38.7300
G01 X-53.7250 Y38.7300
G01 X-53.7250 Y38.7900
G01 X-53.8350 Y38.7900
G01 X-53.8350 Y38.8500
G01 X-53.7250 Y38.8500
G01 X-53.7250 Y38.9100
G01 X-53.8350 Y38.9100
G01 X-53.8350 Y38.9700
G01 X-53.7250 Y38.9700
G01 X-53.7250 Y39.0300
G01 X-53.8350 Y39.0300
G01 X-53.8350 Y39.0900
G01 X-53.7250 Y39.0900
G01 X-53.7250 Y39.1500
G01 X-53.8350 Y39.1500
G01 X-53.8350 Y39.2100
G01 X-53.7250 Y39.2100
G01 X-53.7250 Y39.2700
G01 X-53.8350 Y39.2700
G01 X-53.8350 Y39.3300
G01 X-53.7250 Y39.3300
G00 Z2.0000
G00 X-53.7192 Y39.3900
G01 F60.00
G01 Z-0.0649
G01 F120.00
G01 X-53.8408 Y39.3900
G00 Z2.0000
G00 X-53.8630 Y39.4500
G01 F60.00
G01 Z-0.0649
G01 F120.00
G01 X-53.6970 Y39.4500
G00 Z2.0000
G00 X-53.6517 Y39.5100
G01 F60.00
G01 Z-0.0649
G01 F120.00
G01 X-53.9083 Y39.5100
G00 Z2.0000
G00 X-54.0180 Y39.5700
G01 F60.00
G01 Z-0.0649
G01 F120.00
G01 X-53.5420 Y39.5700
G00 Z2.0000
G00 X-53.8300 Y38.1300
G01 F60.00
G01 Z-0.0649
G01 F120.00
G01 X-52.1689 Y38.1300
G01 X-52.1689 Y38.0700
G01 X-53.5722 Y38.0700
G00 Z2.0000
G00 X-53.4689 Y38.0100
G01 F60.00
G01 Z-0.0649
G01 F120.00
G01 X-52.1689 Y38.0100
G01 X-52.1689 Y37.9500
G01 X-53.3964 Y37.9500
G00 Z2.0000
G00 X-53.3360 Y37.8900
G01 F60.00
G01 Z-0.0649
G01 F120.00
G01 X-52.1689 Y37.8900
G01 X-52.1689 Y37.8300
G01 X-53.2760 Y37.8300
G01 X-53.2160 Y37.7700
G01 X-52.1689 Y37.7700
G01 X-52.1689 Y37.7100
G01 X-53.1560 Y37.7100
G01 X-53.0960 Y37.6500
G01 X-52.1689 Y37.6500
G01 X-52.1689 Y37.5900
G01 X-53.0360 Y37.5900
G01 X-52.9760 Y37.5300
G01 X-52.1689 Y37.5300
G01 X-52.1689 Y37.4700
G01 X-52.9160 Y37.4700
G00 Z2.0000
G00 X-52.8579 Y37.4100
G01 F60.00
G01 Z-0.0649
G01 F120.00
G01 X-52.1689 Y37.4100
G01 X-52.1689 Y37.3500
G01 X-52.8098 Y37.3500
G00 Z2.0000
G00 X-52.7721 Y37.2900
G01 F60.00
G01 Z-0.0649
G01 F120.00
G01 X-52.1689 Y37.2900
G01 X-52.1689 Y37.2300
G01 X-52.7430 Y37.2300
G00 Z2.0000
G00 X-52.7213 Y37.1700
G01 F60.00
G01 Z-0.0649
G01 F120.00
G01 X-52.1689 Y37.1700
G01 X-52.1689 Y37.1100
G01 X-52.7060 Y37.1100
G00 Z2.0000
G00 X-50.8911 Y37.1100
G01 F60.00
G01 Z-0.0649
G01 F120.00
G01 X-50.6689 Y37.1100
G01 X-50.6689 Y37.1700
G01 X-50.8911 Y37.1700
G01 X-50.8911 Y37.2300
G01 X-50.6689 Y37.2300
G01 X-50.6689 Y37.2900
G01 X-50.8911 Y37.2900
G01 X-50.8911 Y37.3500
G01 X-50.6689 Y37.3500
G01 X-50.6689 Y37.4100
G01 X-50.8911 Y37.4100
G01 X-50.8911 Y37.4700
G01 X-50.6689 Y37.4700
G01 X-50.6689 Y37.5300
G01 X-50.8911 Y37.5300
G01 X-50.8911 Y37.5900
G01 X-50.6689 Y37.5900
G01 X-50.6689 Y37.6500
G01 X-50.8911 Y37.6500
G01 X-50.8911 Y37.7100
G01 X-50.6689 Y37.7100
G01 X-50.6689 Y37.7700
G01 X-50.8911 Y37.7700
G01 X-50.8911 Y37.8300
G01 X-50.6689 Y37.8300
G01 X-50.6689 Y37.8900
G01 X-50.8911 Y37.8900
G01 X-50.8911 Y37.9500
G01 X-50.6689 Y37.9500
G01 X-50.6689 Y38.0100
G01 X-50.8911 Y38.0100
G01 X-50.8911 Y38.0700
G01 X-50.6689 Y38.0700
G01 X-50.6689 Y38.1300
G01 X-50.8911 Y38.1300
G01 X-50.8911 Y38.1900
G01 X-50.6689 Y38.1900
G00 Z2.0000
G00 X-54.6772 Y37.1700
G01 F60.00
G01 Z-0.0649
G01 F120.00
G01 X-54.6906 Y37.1700
G01 X-54.7372 Y37.2300
G01 X-54.8696 Y37.2300
G01 X-54.7972 Y37.2900
G01 X-55.3911 Y37.2900
G01 X-55.3911 Y37.2300
G01 X-55.3504 Y37.2300
G01 X-55.3911 Y37.3500
G01 X-54.8572 Y37.3500
G01 X-54.9172 Y37.4100
G01 X-55.3911 Y37.4100
G01 X-55.3911 Y37.4700
G01 X-54.9772 Y37.4700
G00 Z2.0000
G00 X-55.0309 Y37.5300
G01 F60.00
G01 Z-0.0649
G01 F120.00
G01 X-55.3911 Y37.5300
G01 X-55.3911 Y37.5900
G01 X-55.0727 Y37.5900
G00 Z2.0000
G00 X-55.1055 Y37.6500
G01 F60.00
G01 Z-0.0649
G01 F120.00
G01 X-55.3911 Y37.6500
G01 X-55.3911 Y37.7100
G01 X-55.1306 Y37.7100
G00 Z2.0000
G00 X-55.1490 Y37.7700
G01 F60.00
G01 Z-0.0649
G01 F120.00
G01 X-55.3911 Y37.7700
G01 X-55.3911 Y37.8300
G01 X-55.1611 Y37.8300
G00 Z2.0000
G00 X-55.1674 Y37.8900
G01 F60.00
G01 Z-0.0649
G01 F120.00
G01 X-55.3911 Y37.8900
G01 X-55.3911 Y37.9500
G01 X-55.1689 Y37.9500
G01 X-55.1689 Y38.0100
G01 X-55.3911 Y38.0100
G01 X-55.3911 Y38.0700
G01 X-55.1689 Y38.0700
G01 X-55.1689 Y38.1300
G01 X-55.3911 Y38.1300
G01 X-55.3911 Y38.1900
G01 X-55.1689 Y38.1900
G01 X-55.1689 Y38.2500
G01 X-55.3914 Y38.2500
G00 Z2.0000
G00 X-55.3953 Y38.3100
G01 F60.00
G01 Z-0.0649
G01 F120.00
G01 X-55.1689 Y38.3100
G00 Z2.0000
G00 X-55.1938 Y38.3700
G01 F60.00
G01 Z-0.0649
G01 F120.00
G01 X-55.3662 Y38.3700
G00 Z2.0000
G00 X-55.3422 Y38.4300
G01 F60.00
G01 Z-0.0649
G01 F120.00
G01 X-55.2178 Y38.4300
G00 Z2.0000
G00 X-55.2250 Y38.4900
G01 F60.00
G01 Z-0.0649
G01 F120.00
G01 X-55.3350 Y38.4900
G01 X-55.3350 Y38.5500
G01 X-55.2250 Y38.5500
G01 X-55.2250 Y38.6100
G01 X-55.3350 Y38.6100
G01 X-55.3350 Y38.6700
G01 X-55.2250 Y38.6700
G01 X-55.2250 Y38.7300
G01 X-55.3350 Y38.7300
G01 X-55.3350 Y38.7900
G01 X-55.2250 Y38.7900
G01 X-55.2250 Y38.8500
G01 X-55.3350 Y38.8500
G01 X-55.3350 Y38.9100
G01 X-55.2250 Y38.9100
G01 X-55.2250 Y38.9700
G01 X-55.3350 Y38.9700
G01 X-55.3350 Y39.0300
G01 X-55.2250 Y39.0300
G01 X-55.2250 Y39.0900
G01 X-55.3350 Y39.0900
G01 X-55.3350 Y39.1500
G01 X-55.2250 Y39.1500
G01 X-55.2250 Y39.2100
G01 X-55.3350 Y39.2100
G01 X-55.3350 Y39.2700
G01 X-55.2250 Y39.2700
G01 X-55.2250 Y39.3300
G01 X-55.3350 Y39.3300
G00 Z2.0000
G00 X-55.3408 Y39.3900
G01 F60.00
G01 Z-0.0649
G01 F120.00
G01 X-55.2192 Y39.3900
G00 Z2.0000
G00 X-55.1970 Y39.4500
G01 F60.00
G01 Z-0.0649
G01 F120.00
G01 X-55.3630 Y39.4500
G00 Z2.0000
G00 X-55.4083 Y39.5100
G01 F60.00
G01 Z-0.0649
G01 F120.00
G01 X-55.1517 Y39.5100
G00 Z2.0000
G00 X-55.0420 Y39.5700
G01 F60.00
G01 Z-0.0649
G01 F120.00
G01 X-55.5180 Y39.5700
G00 Z2.0000
G00 X-56.5420 Y39.5700
G01 F60.00
G01 Z-0.0649
G01 F120.00
G01 X-67.5282 Y39.5700
G01 X-67.5282 Y39.5100
G01 X-56.6517 Y39.5100
G00 Z2.0000
G00 X-56.6970 Y39.4500
G01 F60.00
G01 Z-0.0649
G01 F120.00
G01 X-67.5282 Y39.4500
G01 X-67.5282 Y39.3900
G01 X-56.7192 Y39.3900
G00 Z2.0000
G00 X-56.7250 Y39.3300
G01 F60.00
G01 Z-0.0649
G01 F120.00
G01 X-67.5282 Y39.3300
G01 X-67.5282 Y39.2700
G01 X-56.7250 Y39.2700
G01 X-56.7250 Y39.2100
G01 X-67.5282 Y39.2100
G01 X-67.5282 Y39.1500
G01 X-56.7250 Y39.1500
G01 X-56.7250 Y39.0900
G01 X-67.5282 Y39.0900
G01 X-67.5282 Y39.0300
G01 X-56.7250 Y39.0300
G01 X-56.7250 Y38.9700
G01 X-67.5282 Y38.9700
G01 X-67.5282 Y38.9100
G01 X-56.7250 Y38.9100
G01 X-56.7250 Y38.8500
G01 X-67.5282 Y38.8500
G01 X-67.5282 Y38.7900
G01 X-56.7250 Y38.7900
G01 X-56.7250 Y38.7300
G01 X-67.5282 Y38.7300
G01 X-67.5282 Y38.6700
G01 X-56.7250 Y38.6700
G01 X-56.7250 Y38.6100
G01 X-67.5282 Y38.6100
G01 X-67.5282 Y38.5500
G01 X-56.7250 Y38.5500
G01 X-56.7250 Y38.4900
G01 X-67.5282 Y38.4900
G01 X-67.5282 Y38.4300
G01 X-56.7178 Y38.4300
G00 Z2.0000
G00 X-56.6938 Y38.3700
G01 F60.00
G01 Z-0.0649
G01 F120.00
G01 X-67.5282 Y38.3700
G01 X-67.5282 Y38.3100
G01 X-56.6647 Y38.3100
G00 Z2.0000
G00 X-56.6686 Y38.2500
G01 F60.00
G01 Z-0.0649
G01 F120.00
G01 X-67.5282 Y38.2500
G01 X-67.5282 Y38.1900
G01 X-56.6689 Y38.1900
G01 X-56.6689 Y38.1300
G01 X-67.5282 Y38.1300
G01 X-67.5282 Y38.0700
G01 X-56.6689 Y38.0700
G01 X-56.6689 Y38.0100
G01 X-67.5282 Y38.0100
G01 X-67.5282 Y37.9500
G01 X-56.6689 Y37.9500
G01 X-56.6689 Y37.8900
G01 X-67.5282 Y37.8900
G01 X-67.5282 Y37.8300
G01 X-56.6689 Y37.8300
G01 X-56.6689 Y37.7700
G01 X-67.5282 Y37.7700
G01 X-67.5282 Y37.7100
G01 X-56.6689 Y37.7100
G01 X-56.6689 Y37.6500
G01 X-67.5282 Y37.6500
G01 X-67.5282 Y37.5900
G01 X-56.6689 Y37.5900
G01 X-56.6689 Y37.5300
G01 X-67.5282 Y37.5300
G01 X-67.5282 Y37.5091
G01 X-67.5282 Y58.9500
G01 X-56.6689 Y58.9500
G01 X-56.6689 Y56.9666
G01 X-56.6811 Y56.9508
G01 X-56.6913 Y56.9351
G01 X-56.6998 Y56.9197
G01 X-56.7042 Y56.9102
G01 X-56.7087 Y56.8994
G01 X-56.7145 Y56.8828
G01 X-56.7193 Y56.8646
G01 X-56.7225 Y56.8473
G01 X-56.7238 Y56.8369
G01 X-56.7246 Y56.8252
G01 X-56.7250 Y56.8129
G01 X-56.7250 Y55.9629
G01 X-56.7247 Y55.9518
G01 X-56.7239 Y55.9401
G01 X-56.7213 Y55.9215
G01 X-56.7193 Y55.9112
G01 X-56.7165 Y55.8998
G01 X-56.7108 Y55.8819
G01 X-56.7070 Y55.8721
G01 X-56.7023 Y55.8614
G01 X-56.6937 Y55.8447
G01 X-56.6883 Y55.8357
G01 X-56.6818 Y55.8259
G01 X-56.6689 Y55.8092
G01 X-56.6689 Y54.2854
G01 X-56.6663 Y54.2280
G01 X-56.6644 Y54.2111
G01 X-56.6568 Y54.1614
G01 X-56.6541 Y54.1493
G01 X-56.6415 Y54.1003
G01 X-56.6245 Y54.0518
G01 X-56.6200 Y54.0403
G01 X-56.5987 Y53.9947
G01 X-56.5910 Y53.9796
G01 X-56.5613 Y53.9305
G01 X-56.5272 Y53.8842
G01 X-56.5166 Y53.8717
G01 X-56.4863 Y53.8383
G01 X-56.4771 Y53.8291
G01 X-56.4592 Y53.8127
G01 X-56.4539 Y53.7921
G01 X-56.4503 Y53.7802
G01 X-56.4317 Y53.7280
G01 X-56.4252 Y53.7117
G01 X-56.4020 Y53.6625
G01 X-56.3964 Y53.6515
G01 X-56.3657 Y53.5997
G01 X-56.3591 Y53.5893
G01 X-56.3231 Y53.5403
G01 X-56.3158 Y53.5311
G01 X-56.3086 Y53.5227
G01 X-56.2675 Y53.4779
G01 X-56.2187 Y53.4333
G01 X-56.2046 Y53.4220
G01 X-56.1561 Y53.3863
G01 X-56.1457 Y53.3797
G01 X-56.1035 Y53.3545
G01 X-56.0928 Y53.3484
G01 X-56.0829 Y53.3434
G01 X-56.0337 Y53.3202
G01 X-56.0174 Y53.3137
G01 X-55.9706 Y53.2969
G01 X-55.9589 Y53.2931
G01 X-55.9006 Y53.2782
G01 X-55.8886 Y53.2755
G01 X-55.8776 Y53.2736
G01 X-55.8180 Y53.2651
G01 X-55.8057 Y53.2641
G01 X-55.7515 Y53.2615
G01 X-50.1340 Y53.2614
G01 X-50.1340 Y53.0500
G01 X-56.0000 Y53.0500
G01 X-56.0063 Y53.0496
G01 X-56.0130 Y53.0483
G01 X-56.0191 Y53.0462
G01 X-56.0252 Y53.0432
G01 X-56.0305 Y53.0396
G01 X-56.0354 Y53.0354
G01 X-56.0396 Y53.0305
G01 X-56.0432 Y53.0252
G01 X-56.0462 Y53.0191
G01 X-56.0483 Y53.0130
G01 X-56.0496 Y53.0063
G01 X-56.0500 Y53.0000
G01 X-56.0500 Y43.0000
G01 X-56.0492 Y42.9910
G01 X-56.0467 Y42.9821
G01 X-56.0437 Y42.9757
G01 X-56.0396 Y42.9695
G01 X-56.0345 Y42.9638
G01 X-56.0284 Y42.9588
G01 X-56.0213 Y42.9548
G01 X-56.0143 Y42.9521
G01 X-56.0076 Y42.9506
G01 X-56.0000 Y42.9500
G01 X-44.6689 Y42.9500
G01 X-44.6689 Y39.4916
G01 X-44.6811 Y39.4758
G01 X-44.6913 Y39.4601
G01 X-44.6998 Y39.4447
G01 X-44.7042 Y39.4352
G01 X-44.7087 Y39.4244
G01 X-44.7145 Y39.4078
G01 X-44.7193 Y39.3896
G01 X-44.7225 Y39.3723
G01 X-44.7238 Y39.3619
G01 X-44.7246 Y39.3502
G01 X-44.7250 Y39.3379
G01 X-44.7250 Y38.4879
G01 X-44.7243 Y38.4697
G01 X-44.7223 Y38.4523
G01 X-44.7190 Y38.4350
G01 X-44.7148 Y38.4190
G01 X-44.7092 Y38.4026
G01 X-44.7042 Y38.3906
G01 X-44.6971 Y38.3759
G01 X-44.6883 Y38.3607
G01 X-44.6782 Y38.3460
G01 X-44.6689 Y38.3342
G01 X-44.6689 Y38.2323
G01 X-44.6659 Y38.1759
G01 X-44.6644 Y38.1636
G01 X-44.6568 Y38.1139
G01 X-44.6541 Y38.1018
G01 X-44.6429 Y38.0575
G01 X-44.6379 Y38.0419
G01 X-44.6243 Y38.0038
G01 X-44.6200 Y37.9928
G01 X-44.6155 Y37.9827
G01 X-44.5932 Y37.9362
G01 X-44.5675 Y37.8928
G01 X-44.5583 Y37.8786
G01 X-44.5311 Y37.8418
G01 X-44.5235 Y37.8321
G01 X-44.4899 Y37.7946
G01 X-44.4822 Y37.7866
G01 X-43.7457 Y37.0500
G01 X-44.3680 Y37.0500
G01 X-44.8911 Y37.5730
G01 X-44.8911 Y38.3342
G01 X-44.8789 Y38.3500
G01 X-44.8687 Y38.3657
G01 X-44.8629 Y38.3759
G01 X-44.8582 Y38.3853
G01 X-44.8508 Y38.4026
G01 X-44.8471 Y38.4129
G01 X-44.8438 Y38.4238
G01 X-44.8395 Y38.4419
G01 X-44.8368 Y38.4593
G01 X-44.8356 Y38.4710
G01 X-44.8351 Y38.4814
G01 X-44.8350 Y39.3379
G01 X-44.8353 Y39.3490
G01 X-44.8361 Y39.3607
G01 X-44.8387 Y39.3793
G01 X-44.8410 Y39.3908
G01 X-44.8438 Y39.4022
G01 X-44.8471 Y39.4129
G01 X-44.8508 Y39.4232
G01 X-44.8582 Y39.4405
G01 X-44.8635 Y39.4510
G01 X-44.8693 Y39.4612
G01 X-44.8752 Y39.4705
G01 X-44.8818 Y39.4798
G01 X-44.8889 Y39.4890
G01 X-44.8965 Y39.4978
G01 X-44.9096 Y39.5112
G01 X-44.9183 Y39.5191
G01 X-44.9274 Y39.5265
G01 X-44.9368 Y39.5334
G01 X-44.9455 Y39.5393
G01 X-44.9618 Y39.5487
G01 X-44.9722 Y39.5540
G01 X-44.9830 Y39.5587
G01 X-44.9939 Y39.5629
G01 X-45.0050 Y39.5665
G01 X-45.0153 Y39.5693
G01 X-45.0266 Y39.5719
G01 X-45.0381 Y39.5739
G01 X-45.0497 Y39.5754
G01 X-45.0685 Y39.5766
G01 X-45.9862 Y39.5766
G01 X-46.0032 Y39.5760
G01 X-46.0161 Y39.5747
G01 X-46.0334 Y39.5719
G01 X-46.0493 Y39.5681
G01 X-46.0617 Y39.5644
G01 X-46.0782 Y39.5582
G01 X-46.0941 Y39.5509
G01 X-46.1084 Y39.5430
G01 X-46.1194 Y39.5360
G01 X-46.1327 Y39.5264
G01 X-46.1461 Y39.5152
G01 X-46.1555 Y39.5063
G01 X-46.1666 Y39.4943
G01 X-46.1776 Y39.4806
G01 X-46.1851 Y39.4700
G01 X-46.1937 Y39.4561
G01 X-46.1998 Y39.4447
G01 X-46.2070 Y39.4287
G01 X-46.2112 Y39.4177
G01 X-46.2145 Y39.4078
G01 X-46.2177 Y39.3964
G01 X-46.2203 Y39.3851
G01 X-46.2232 Y39.3665
G01 X-46.2244 Y39.3548
G01 X-46.2249 Y39.3431
G01 X-46.2250 Y38.4879
G01 X-46.2247 Y38.4768
G01 X-46.2231 Y38.4581
G01 X-46.2203 Y38.4407
G01 X-46.2177 Y38.4293
G01 X-46.2148 Y38.4190
G01 X-46.2087 Y38.4014
G01 X-46.2018 Y38.3853
G01 X-46.1971 Y38.3759
G01 X-46.1913 Y38.3657
G01 X-46.1811 Y38.3499
G01 X-46.1689 Y38.3342
G01 X-46.1689 Y37.3084
G01 X-46.1687 Y37.2973
G01 X-46.1658 Y37.2452
G01 X-46.1586 Y37.1953
G01 X-46.1556 Y37.1786
G01 X-46.1444 Y37.1336
G01 X-46.1398 Y37.1179
G01 X-46.1227 Y37.0699
G01 X-46.1140 Y37.0500
G01 X-46.3911 Y37.0500
G01 X-46.3911 Y38.3342
G01 X-46.3789 Y38.3500
G01 X-46.3687 Y38.3657
G01 X-46.3602 Y38.3811
G01 X-46.3558 Y38.3906
G01 X-46.3513 Y38.4014
G01 X-46.3455 Y38.4180
G01 X-46.3407 Y38.4362
G01 X-46.3375 Y38.4535
G01 X-46.3362 Y38.4639
G01 X-46.3354 Y38.4756
G01 X-46.3350 Y38.4879
G01 X-46.3350 Y39.3379
G01 X-46.3356 Y39.3548
G01 X-46.3368 Y39.3665
G01 X-46.3384 Y39.3781
G01 X-46.3423 Y39.3965
G01 X-46.3455 Y39.4078
G01 X-46.3492 Y39.4189
G01 X-46.3530 Y39.4287
G01 X-46.3577 Y39.4394
G01 X-46.3663 Y39.4561
G01 X-46.3724 Y39.4661
G01 X-46.3789 Y39.4759
G01 X-46.3859 Y39.4852
G01 X-46.3934 Y39.4943
G01 X-46.4013 Y39.5029
G01 X-46.4096 Y39.5112
G01 X-46.4183 Y39.5191
G01 X-46.4274 Y39.5265
G01 X-46.4368 Y39.5334
G01 X-46.4455 Y39.5393
G01 X-46.4618 Y39.5487
G01 X-46.4722 Y39.5540
G01 X-46.4830 Y39.5587
G01 X-46.4939 Y39.5629
G01 X-46.5050 Y39.5665
G01 X-46.5153 Y39.5693
G01 X-46.5266 Y39.5719
G01 X-46.5381 Y39.5739
G01 X-46.5497 Y39.5754
G01 X-46.5685 Y39.5766
G01 X-47.4862 Y39.5766
G01 X-47.5032 Y39.5760
G01 X-47.5161 Y39.5747
G01 X-47.5322 Y39.5721
G01 X-47.5448 Y39.5693
G01 X-47.5613 Y39.5645
G01 X-47.5770 Y39.5587
G01 X-47.5889 Y39.5534
G01 X-47.6044 Y39.5453
G01 X-47.6184 Y39.5367
G01 X-47.6289 Y39.5293
G01 X-47.6417 Y39.5191
G01 X-47.6546 Y39.5071
G01 X-47.6635 Y39.4978
G01 X-47.6741 Y39.4852
G01 X-47.6844 Y39.4710
G01 X-47.6913 Y39.4601
G01 X-47.6992 Y39.4458
G01 X-47.7047 Y39.4341
G01 X-47.7092 Y39.4232
G01 X-47.7129 Y39.4129
G01 X-47.7162 Y39.4020
G01 X-47.7193 Y39.3896
G01 X-47.7216 Y39.3781
G01 X-47.7232 Y39.3665
G01 X-47.7244 Y39.3548
G01 X-47.7249 Y39.3431
G01 X-47.7249 Y38.4827
G01 X-47.7238 Y38.4639
G01 X-47.7223 Y38.4523
G01 X-47.7205 Y38.4419
G01 X-47.7162 Y38.4236
G01 X-47.7129 Y38.4129
G01 X-47.7092 Y38.4026
G01 X-47.7018 Y38.3853
G01 X-47.6971 Y38.3759
G01 X-47.6913 Y38.3657
G01 X-47.6811 Y38.3499
G01 X-47.6689 Y38.3342
G01 X-47.6689 Y37.0500
G01 X-49.3911 Y37.0500
G01 X-49.3911 Y38.3342
G01 X-49.3789 Y38.3500
G01 X-49.3687 Y38.3657
G01 X-49.3602 Y38.3811
G01 X-49.3558 Y38.3906
G01 X-49.3513 Y38.4014
G01 X-49.3455 Y38.4180
G01 X-49.3407 Y38.4362
G01 X-49.3375 Y38.4535
G01 X-49.3362 Y38.4639
G01 X-49.3354 Y38.4756
G01 X-49.3350 Y38.4879
G01 X-49.3350 Y39.3379
G01 X-49.3356 Y39.3548
G01 X-49.3368 Y39.3665
G01 X-49.3384 Y39.3781
G01 X-49.3423 Y39.3965
G01 X-49.3455 Y39.4078
G01 X-49.3492 Y39.4189
G01 X-49.3530 Y39.4287
G01 X-49.3577 Y39.4394
G01 X-49.3663 Y39.4561
G01 X-49.3724 Y39.4661
G01 X-49.3789 Y39.4759
G01 X-49.3859 Y39.4852
G01 X-49.3934 Y39.4943
G01 X-49.4013 Y39.5029
G01 X-49.4096 Y39.5112
G01 X-49.4183 Y39.5191
G01 X-49.4274 Y39.5265
G01 X-49.4368 Y39.5334
G01 X-49.4455 Y39.5393
G01 X-49.4618 Y39.5487
G01 X-49.4722 Y39.5540
G01 X-49.4830 Y39.5587
G01 X-49.4939 Y39.5629
G01 X-49.5050 Y39.5665
G01 X-49.5153 Y39.5693
G01 X-49.5266 Y39.5719
G01 X-49.5381 Y39.5739
G01 X-49.5497 Y39.5754
G01 X-49.5685 Y39.5766
G01 X-50.4862 Y39.5766
G01 X-50.5032 Y39.5760
G01 X-50.5161 Y39.5747
G01 X-50.5322 Y39.5721
G01 X-50.5448 Y39.5693
G01 X-50.5613 Y39.5645
G01 X-50.5770 Y39.5587
G01 X-50.5889 Y39.5534
G01 X-50.6044 Y39.5453
G01 X-50.6184 Y39.5367
G01 X-50.6289 Y39.5293
G01 X-50.6417 Y39.5191
G01 X-50.6546 Y39.5071
G01 X-50.6635 Y39.4978
G01 X-50.6741 Y39.4852
G01 X-50.6844 Y39.4710
G01 X-50.6913 Y39.4601
G01 X-50.6992 Y39.4458
G01 X-50.7047 Y39.4341
G01 X-50.7092 Y39.4232
G01 X-50.7129 Y39.4129
G01 X-50.7162 Y39.4020
G01 X-50.7193 Y39.3896
G01 X-50.7216 Y39.3781
G01 X-50.7232 Y39.3665
G01 X-50.7244 Y39.3548
G01 X-50.7249 Y39.3431
G01 X-50.7249 Y38.4827
G01 X-50.7238 Y38.4639
G01 X-50.7223 Y38.4523
G01 X-50.7205 Y38.4419
G01 X-50.7162 Y38.4236
G01 X-50.7129 Y38.4129
G01 X-50.7092 Y38.4026
G01 X-50.7018 Y38.3853
G01 X-50.6971 Y38.3759
G01 X-50.6913 Y38.3657
G01 X-50.6811 Y38.3499
G01 X-50.6689 Y38.3342
G01 X-50.6689 Y37.0500
G01 X-50.8911 Y37.0500
G01 X-50.8911 Y38.3342
G01 X-50.8789 Y38.3500
G01 X-50.8687 Y38.3657
G01 X-50.8602 Y38.3811
G01 X-50.8558 Y38.3906
G01 X-50.8513 Y38.4014
G01 X-50.8455 Y38.4180
G01 X-50.8407 Y38.4362
G01 X-50.8375 Y38.4535
G01 X-50.8362 Y38.4639
G01 X-50.8354 Y38.4756
G01 X-50.8350 Y38.4879
G01 X-50.8350 Y39.3379
G01 X-50.8356 Y39.3548
G01 X-50.8368 Y39.3665
G01 X-50.8384 Y39.3781
G01 X-50.8423 Y39.3965
G01 X-50.8455 Y39.4078
G01 X-50.8492 Y39.4189
G01 X-50.8530 Y39.4287
G01 X-50.8577 Y39.4394
G01 X-50.8663 Y39.4561
G01 X-50.8724 Y39.4661
G01 X-50.8789 Y39.4759
G01 X-50.8853 Y39.4844
G01 X-50.8926 Y39.4934
G01 X-50.9004 Y39.5021
G01 X-50.9087 Y39.5104
G01 X-50.9174 Y39.5183
G01 X-50.9264 Y39.5257
G01 X-50.9416 Y39.5367
G01 X-50.9516 Y39.5430
G01 X-50.9618 Y39.5487
G01 X-50.9722 Y39.5540
G01 X-50.9818 Y39.5582
G01 X-50.9928 Y39.5625
G01 X-51.0039 Y39.5662
G01 X-51.0220 Y39.5710
G01 X-51.0335 Y39.5732
G01 X-51.0440 Y39.5748
G01 X-51.0556 Y39.5759
G01 X-51.0673 Y39.5765
G01 X-51.9862 Y39.5766
G01 X-52.0032 Y39.5760
G01 X-52.0161 Y39.5747
G01 X-52.0322 Y39.5721
G01 X-52.0448 Y39.5693
G01 X-52.0613 Y39.5645
G01 X-52.0770 Y39.5587
G01 X-52.0889 Y39.5534
G01 X-52.1044 Y39.5453
G01 X-52.1184 Y39.5367
G01 X-52.1289 Y39.5293
G01 X-52.1417 Y39.5191
G01 X-52.1546 Y39.5071
G01 X-52.1635 Y39.4978
G01 X-52.1741 Y39.4852
G01 X-52.1844 Y39.4710
G01 X-52.1913 Y39.4601
G01 X-52.1992 Y39.4458
G01 X-52.2047 Y39.4341
G01 X-52.2092 Y39.4232
G01 X-52.2129 Y39.4129
G01 X-52.2162 Y39.4020
G01 X-52.2193 Y39.3896
G01 X-52.2216 Y39.3781
G01 X-52.2232 Y39.3665
G01 X-52.2244 Y39.3548
G01 X-52.2249 Y39.3431
G01 X-52.2249 Y38.4827
G01 X-52.2238 Y38.4639
G01 X-52.2223 Y38.4523
G01 X-52.2205 Y38.4419
G01 X-52.2162 Y38.4236
G01 X-52.2129 Y38.4129
G01 X-52.2092 Y38.4026
G01 X-52.2018 Y38.3853
G01 X-52.1971 Y38.3759
G01 X-52.1913 Y38.3657
G01 X-52.1811 Y38.3499
G01 X-52.1689 Y38.3342
G01 X-52.1689 Y37.0500
G01 X-52.6967 Y37.0500
G01 X-52.7052 Y37.1064
G01 X-52.7175 Y37.1566
G01 X-52.7205 Y37.1675
G01 X-52.7241 Y37.1784
G01 X-52.7415 Y37.2263
G01 X-52.7635 Y37.2737
G01 X-52.7688 Y37.2841
G01 X-52.7743 Y37.2938
G01 X-52.8007 Y37.3373
G01 X-52.8342 Y37.3828
G01 X-52.8458 Y37.3966
G01 X-52.8802 Y37.4342
G01 X-53.3920 Y37.9459
G01 X-53.4342 Y37.9839
G01 X-53.4760 Y38.0153
G01 X-53.4851 Y38.0217
G01 X-53.4949 Y38.0279
G01 X-53.5291 Y38.0484
G01 X-53.5446 Y38.0568
G01 X-53.5853 Y38.0762
G01 X-53.6004 Y38.0826
G01 X-53.6484 Y38.0998
G01 X-53.6658 Y38.1049
G01 X-53.7148 Y38.1169
G01 X-53.7657 Y38.1248
G01 X-53.7838 Y38.1268
G01 X-53.8291 Y38.1291
G01 X-53.8911 Y38.1910
G01 X-53.8911 Y38.3342
G01 X-53.8789 Y38.3500
G01 X-53.8687 Y38.3657
G01 X-53.8602 Y38.3811
G01 X-53.8558 Y38.3906
G01 X-53.8513 Y38.4014
G01 X-53.8455 Y38.4180
G01 X-53.8407 Y38.4362
G01 X-53.8384 Y38.4477
G01 X-53.8369 Y38.4581
G01 X-53.8353 Y38.4768
G01 X-53.8350 Y38.4879
G01 X-53.8350 Y39.3379
G01 X-53.8356 Y39.3548
G01 X-53.8369 Y39.3677
G01 X-53.8384 Y39.3781
G01 X-53.8407 Y39.3896
G01 X-53.8435 Y39.4010
G01 X-53.8469 Y39.4122
G01 X-53.8534 Y39.4298
G01 X-53.8577 Y39.4394
G01 X-53.8629 Y39.4499
G01 X-53.8724 Y39.4661
G01 X-53.8789 Y39.4759
G01 X-53.8853 Y39.4844
G01 X-53.8926 Y39.4934
G01 X-53.9004 Y39.5021
G01 X-53.9139 Y39.5152
G01 X-53.9228 Y39.5228
G01 X-53.9311 Y39.5293
G01 X-53.9412 Y39.5364
G01 X-53.9505 Y39.5423
G01 X-53.9670 Y39.5514
G01 X-53.9765 Y39.5559
G01 X-53.9873 Y39.5604
G01 X-54.0050 Y39.5665
G01 X-54.0153 Y39.5693
G01 X-54.0266 Y39.5719
G01 X-54.0451 Y39.5749
G01 X-54.0556 Y39.5759
G01 X-54.0673 Y39.5765
G01 X-54.9862 Y39.5766
G01 X-55.0044 Y39.5759
G01 X-55.0219 Y39.5739
G01 X-55.0392 Y39.5707
G01 X-55.0561 Y39.5662
G01 X-55.0727 Y39.5604
G01 X-55.0889 Y39.5534
G01 X-55.1044 Y39.5453
G01 X-55.1188 Y39.5364
G01 X-55.1327 Y39.5264
G01 X-55.1470 Y39.5144
G01 X-55.1596 Y39.5021
G01 X-55.1712 Y39.4889
G01 X-55.1818 Y39.4749
G01 X-55.1913 Y39.4601
G01 X-55.1998 Y39.4447
G01 X-55.2070 Y39.4287
G01 X-55.2129 Y39.4129
G01 X-55.2180 Y39.3953
G01 X-55.2213 Y39.3793
G01 X-55.2231 Y39.3677
G01 X-55.2244 Y39.3548
G01 X-55.2250 Y39.3385
G01 X-55.2250 Y38.4879
G01 X-55.2247 Y38.4768
G01 X-55.2231 Y38.4581
G01 X-55.2203 Y38.4407
G01 X-55.2177 Y38.4293
G01 X-55.2148 Y38.4190
G01 X-55.2087 Y38.4014
G01 X-55.2018 Y38.3853
G01 X-55.1971 Y38.3759
G01 X-55.1913 Y38.3657
G01 X-55.1811 Y38.3499
G01 X-55.1689 Y38.3342
G01 X-55.1689 Y37.9208
G01 X-55.1667 Y37.8748
G01 X-55.1653 Y37.8586
G01 X-55.1578 Y37.8081
G01 X-55.1541 Y37.7903
G01 X-55.1415 Y37.7413
G01 X-55.1245 Y37.6928
G01 X-55.1177 Y37.6760
G01 X-55.0987 Y37.6357
G01 X-55.0903 Y37.6196
G01 X-55.0641 Y37.5758
G01 X-55.0549 Y37.5624
G01 X-55.0278 Y37.5260
G01 X-55.0166 Y37.5127
G01 X-54.9822 Y37.4751
G01 X-54.6651 Y37.1580
G01 X-54.7023 Y37.1756
G01 X-54.7174 Y37.1820
G01 X-54.7973 Y37.2107
G01 X-54.8137 Y37.2159
G01 X-54.8959 Y37.2366
G01 X-54.9080 Y37.2393
G01 X-54.9966 Y37.2527
G01 X-55.0134 Y37.2546
G01 X-55.0983 Y37.2588
G01 X-55.1100 Y37.2591
G01 X-55.1217 Y37.2588
G01 X-55.2112 Y37.2542
G01 X-55.2234 Y37.2527
G01 X-55.3120 Y37.2393
G01 X-55.3241 Y37.2366
G01 X-55.3911 Y37.2198
G01 X-55.3911 Y38.2379
G01 X-55.3937 Y38.2953
G01 X-55.3949 Y38.3070
G01 X-55.3977 Y38.3266
G01 X-55.3852 Y38.3415
G01 X-55.3789 Y38.3500
G01 X-55.3724 Y38.3597
G01 X-55.3629 Y38.3759
G01 X-55.3577 Y38.3864
G01 X-55.3534 Y38.3960
G01 X-55.3469 Y38.4136
G01 X-55.3438 Y38.4238
G01 X-55.3410 Y38.4350
G01 X-55.3375 Y38.4535
G01 X-55.3362 Y38.4639
G01 X-55.3354 Y38.4756
G01 X-55.3350 Y38.4879
G01 X-55.3350 Y39.3379
G01 X-55.3357 Y39.3561
G01 X-55.3369 Y39.3677
G01 X-55.3384 Y39.3781
G01 X-55.3407 Y39.3896
G01 X-55.3435 Y39.4010
G01 X-55.3492 Y39.4189
G01 X-55.3534 Y39.4298
G01 X-55.3582 Y39.4405
G01 X-55.3635 Y39.4510
G01 X-55.3693 Y39.4612
G01 X-55.3752 Y39.4705
G01 X-55.3818 Y39.4798
G01 X-55.3889 Y39.4890
G01 X-55.3965 Y39.4978
G01 X-55.4096 Y39.5112
G01 X-55.4183 Y39.5191
G01 X-55.4274 Y39.5265
G01 X-55.4368 Y39.5334
G01 X-55.4455 Y39.5393
G01 X-55.4618 Y39.5487
G01 X-55.4722 Y39.5540
G01 X-55.4830 Y39.5587
G01 X-55.4939 Y39.5629
G01 X-55.5039 Y39.5662
G01 X-55.5220 Y39.5710
G01 X-55.5335 Y39.5732
G01 X-55.5440 Y39.5748
G01 X-55.5556 Y39.5759
G01 X-55.5673 Y39.5765
G01 X-56.4862 Y39.5766
G01 X-56.5032 Y39.5760
G01 X-56.5161 Y39.5747
G01 X-56.5322 Y39.5721
G01 X-56.5448 Y39.5693
G01 X-56.5613 Y39.5645
G01 X-56.5770 Y39.5587
G01 X-56.5889 Y39.5534
G01 X-56.6044 Y39.5453
G01 X-56.6184 Y39.5367
G01 X-56.6289 Y39.5293
G01 X-56.6417 Y39.5191
G01 X-56.6546 Y39.5071
G01 X-56.6635 Y39.4978
G01 X-56.6741 Y39.4852
G01 X-56.6844 Y39.4710
G01 X-56.6913 Y39.4601
G01 X-56.6992 Y39.4458
G01 X-56.7047 Y39.4341
G01 X-56.7092 Y39.4232
G01 X-56.7129 Y39.4129
G01 X-56.7162 Y39.4020
G01 X-56.7193 Y39.3896
G01 X-56.7216 Y39.3781
G01 X-56.7232 Y39.3665
G01 X-56.7244 Y39.3548
G01 X-56.7249 Y39.3431
G01 X-56.7249 Y38.4827
G01 X-56.7244 Y38.4710
G01 X-56.7232 Y38.4593
G01 X-56.7203 Y38.4407
G01 X-56.7177 Y38.4293
G01 X-56.7148 Y38.4190
G01 X-56.7112 Y38.4081
G01 X-56.7070 Y38.3971
G01 X-56.7023 Y38.3864
G01 X-56.6971 Y38.3759
G01 X-56.6876 Y38.3597
G01 X-56.6811 Y38.3499
G01 X-56.6747 Y38.3414
G01 X-56.6623 Y38.3266
G01 X-56.6651 Y38.3069
G01 X-56.6663 Y38.2953
G01 X-56.6689 Y38.2379
G01 X-56.6689 Y37.0500
G01 X-67.2652 Y37.0500
G01 X-67.2714 Y37.0745
G01 X-67.2752 Y37.0869
G01 X-67.3056 Y37.1718
G01 X-67.3120 Y37.1869
G01 X-67.3459 Y37.2584
G01 X-67.3543 Y37.2745
G01 X-67.3973 Y37.3464
G01 X-67.4035 Y37.3562
G01 X-67.4103 Y37.3659
G01 X-67.4571 Y37.4289
G01 X-67.4639 Y37.4378
G01 X-67.4715 Y37.4466
G01 X-67.5282 Y37.5091
G00 Z2.0000
G00 X-67.4927 Y37.4700
G01 F60.00
G01 Z-0.0649
G01 F120.00
G01 X-56.6689 Y37.4700
G01 X-56.6689 Y37.4100
G01 X-67.4430 Y37.4100
G00 Z2.0000
G00 X-67.3995 Y37.3500
G01 F60.00
G01 Z-0.0649
G01 F120.00
G01 X-56.6689 Y37.3500
G01 X-56.6689 Y37.2900
G01 X-67.3635 Y37.2900
G00 Z2.0000
G00 X-67.3324 Y37.2300
G01 F60.00
G01 Z-0.0649
G01 F120.00
G01 X-56.6689 Y37.2300
G01 X-56.6689 Y37.1700
G01 X-67.3049 Y37.1700
G00 Z2.0000
G00 X-67.2834 Y37.1100
G01 F60.00
G01 Z-0.0649
G01 F120.00
G01 X-56.6689 Y37.1100
G00 Z2.0000
G00 X-56.0490 Y42.9900
G01 F60.00
G01 Z-0.0649
G01 F120.00
G01 X-67.5282 Y42.9900
G01 X-67.5282 Y43.0500
G01 X-56.0500 Y43.0500
G01 X-56.0500 Y43.1100
G01 X-67.5282 Y43.1100
G01 X-67.5282 Y43.1700
G01 X-56.0500 Y43.1700
G01 X-56.0500 Y43.2300
G01 X-67.5282 Y43.2300
G01 X-67.5282 Y43.2900
G01 X-56.0500 Y43.2900
G01 X-56.0500 Y43.3500
G01 X-67.5282 Y43.3500
G01 X-67.5282 Y43.4100
G01 X-56.0500 Y43.4100
G01 X-56.0500 Y43.4700
G01 X-67.5282 Y43.4700
G01 X-67.5282 Y43.5300
G01 X-56.0500 Y43.5300
G01 X-56.0500 Y43.5900
G01 X-67.5282 Y43.5900
G01 X-67.5282 Y43.6500
G01 X-56.0500 Y43.6500
G01 X-56.0500 Y43.7100
G01 X-67.5282 Y43.7100
G01 X-67.5282 Y43.7700
G01 X-56.0500 Y43.7700
G01 X-56.0500 Y43.8300
G01 X-67.5282 Y43.8300
G01 X-67.5282 Y43.8900
G01 X-56.0500 Y43.8900
G01 X-56.0500 Y43.9500
G01 X-67.5282 Y43.9500
G01 X-67.5282 Y44.0100
G01 X-56.0500 Y44.0100
G01 X-56.0500 Y44.0700
G01 X-67.5282 Y44.0700
G01 X-67.5282 Y44.1300
G01 X-56.0500 Y44.1300
G01 X-56.0500 Y44.1900
G01 X-67.5282 Y44.1900
G01 X-67.5282 Y44.2500
G01 X-56.0500 Y44.2500
G01 X-56.0500 Y44.3100
G01 X-67.5282 Y44.3100
G01 X-67.5282 Y44.3700
G01 X-56.0500 Y44.3700
G01 X-56.0500 Y44.4300
G01 X-67.5282 Y44.4300
G01 X-67.5282 Y44.4900
G01 X-56.0500 Y44.4900
G01 X-56.0500 Y44.5500
G01 X-67.5282 Y44.5500
G01 X-67.5282 Y44.6100
G01 X-56.0500 Y44.6100
G01 X-56.0500 Y44.6700
G01 X-67.5282 Y44.6700
G01 X-67.5282 Y44.7300
G01 X-56.0500 Y44.7300
G01 X-56.0500 Y44.7900
G01 X-67.5282 Y44.7900
G01 X-67.5282 Y44.8500
G01 X-56.0500 Y44.8500
G01 X-56.0500 Y44.9100
G01 X-67.5282 Y44.9100
G01 X-67.5282 Y44.9700
G01 X-56.0500 Y44.9700
G01 X-56.0500 Y45.0300
G01 X-67.5282 Y45.0300
G01 X-67.5282 Y45.0900
G01 X-56.0500 Y45.0900
G01 X-56.0500 Y45.1500
G01 X-67.5282 Y45.1500
G01 X-67.5282 Y45.2100
G01 X-56.0500 Y45.2100
G01 X-56.0500 Y45.2700
G01 X-67.5282 Y45.2700
G01 X-67.5282 Y45.3300
G01 X-56.0500 Y45.3300
G01 X-56.0500 Y45.3900
G01 X-67.5282 Y45.3900
G01 X-67.5282 Y45.4500
G01 X-56.0500 Y45.4500
G01 X-56.0500 Y45.5100
G01 X-67.5282 Y45.5100
G01 X-67.5282 Y45.5700
G01 X-56.0500 Y45.5700
G01 X-56.0500 Y45.6300
G01 X-67.5282 Y45.6300
G01 X-67.5282 Y45.6900
G01 X-56.0500 Y45.6900
G01 X-56.0500 Y45.7500
G01 X-67.5282 Y45.7500
G01 X-67.5282 Y45.8100
G01 X-56.0500 Y45.8100
G01 X-56.0500 Y45.8700
G01 X-67.5282 Y45.8700
G01 X-67.5282 Y45.9300
G01 X-56.0500 Y45.9300
G01 X-56.0500 Y45.9900
G01 X-67.5282 Y45.9900
G01 X-67.5282 Y46.0500
G01 X-56.0500 Y46.0500
G01 X-56.0500 Y46.1100
G01 X-67.5282 Y46.1100
G01 X-67.5282 Y46.1700
G01 X-56.0500 Y46.1700
G01 X-56.0500 Y46.2300
G01 X-67.5282 Y46.2300
G01 X-67.5282 Y46.2900
G01 X-56.0500 Y46.2900
G01 X-56.0500 Y46.3500
G01 X-67.5282 Y46.3500
G01 X-67.5282 Y46.4100
G01 X-56.0500 Y46.4100
G01 X-56.0500 Y46.4700
G01 X-67.5282 Y46.4700
G01 X-67.5282 Y46.5300
G01 X-56.0500 Y46.5300
G01 X-56.0500 Y46.5900
G01 X-67.5282 Y46.5900
G01 X-67.5282 Y46.6500
G01 X-56.0500 Y46.6500
G01 X-56.0500 Y46.7100
G01 X-67.5282 Y46.7100
G01 X-67.5282 Y46.7700
G01 X-56.0500 Y46.7700
G01 X-56.0500 Y46.8300
G01 X-67.5282 Y46.8300
G01 X-67.5282 Y46.8900
G01 X-56.0500 Y46.8900
G01 X-56.0500 Y46.9500
G01 X-67.5282 Y46.9500
G01 X-67.5282 Y47.0100
G01 X-56.0500 Y47.0100
G01 X-56.0500 Y47.0700
G01 X-67.5282 Y47.0700
G01 X-67.5282 Y47.1300
G01 X-56.0500 Y47.1300
G01 X-56.0500 Y47.1900
G01 X-67.5282 Y47.1900
G01 X-67.5282 Y47.2500
G01 X-56.0500 Y47.2500
G01 X-56.0500 Y47.3100
G01 X-67.5282 Y47.3100
G01 X-67.5282 Y47.3700
G01 X-56.0500 Y47.3700
G01 X-56.0500 Y47.4300
G01 X-67.5282 Y47.4300
G01 X-67.5282 Y47.4900
G01 X-56.0500 Y47.4900
G01 X-56.0500 Y47.5500
G01 X-67.5282 Y47.5500
G01 X-67.5282 Y47.6100
G01 X-56.0500 Y47.6100
G01 X-56.0500 Y47.6700
G01 X-67.5282 Y47.6700
G01 X-67.5282 Y47.7300
G01 X-56.0500 Y47.7300
G01 X-56.0500 Y47.7900
G01 X-67.5282 Y47.7900
G01 X-67.5282 Y47.8500
G01 X-56.0500 Y47.8500
G01 X-56.0500 Y47.9100
G01 X-67.5282 Y47.9100
G01 X-67.5282 Y47.9700
G01 X-56.0500 Y47.9700
G01 X-56.0500 Y48.0300
G01 X-67.5282 Y48.0300
G01 X-67.5282 Y48.0900
G01 X-56.0500 Y48.0900
G01 X-56.0500 Y48.1500
G01 X-67.5282 Y48.1500
G01 X-67.5282 Y48.2100
G01 X-56.0500 Y48.2100
G01 X-56.0500 Y48.2700
G01 X-67.5282 Y48.2700
G01 X-67.5282 Y48.3300
G01 X-56.0500 Y48.3300
G01 X-56.0500 Y48.3900
G01 X-67.5282 Y48.3900
G01 X-67.5282 Y48.4500
G01 X-56.0500 Y48.4500
G01 X-56.0500 Y48.5100
G01 X-67.5282 Y48.5100
G01 X-67.5282 Y48.5700
G01 X-56.0500 Y48.5700
G01 X-56.0500 Y48.6300
G01 X-67.5282 Y48.6300
G01 X-67.5282 Y48.6900
G01 X-56.0500 Y48.6900
G01 X-56.0500 Y48.7500
G01 X-67.5282 Y48.7500
G01 X-67.5282 Y48.8100
G01 X-56.0500 Y48.8100
G01 X-56.0500 Y48.8700
G01 X-67.5282 Y48.8700
G01 X-67.5282 Y48.9300
G01 X-56.0500 Y48.9300
G01 X-56.0500 Y48.9900
G01 X-67.5282 Y48.9900
G01 X-67.5282 Y49.0500
G01 X-56.0500 Y49.0500
G01 X-56.0500 Y49.1100
G01 X-67.5282 Y49.1100
G01 X-67.5282 Y49.1700
G01 X-56.0500 Y49.1700
G01 X-56.0500 Y49.2300
G01 X-67.5282 Y49.2300
G01 X-67.5282 Y49.2900
G01 X-56.0500 Y49.2900
G01 X-56.0500 Y49.3500
G01 X-67.5282 Y49.3500
G01 X-67.5282 Y49.4100
G01 X-56.0500 Y49.4100
G01 X-56.0500 Y49.4700
G01 X-67.5282 Y49.4700
G01 X-67.5282 Y49.5300
G01 X-56.0500 Y49.5300
G01 X-56.0500 Y49.5900
G01 X-67.5282 Y49.5900
G01 X-67.5282 Y49.6500
G01 X-56.0500 Y49.6500
G01 X-56.0500 Y49.7100
G01 X-67.5282 Y49.7100
G01 X-67.5282 Y49.7700
G01 X-56.0500 Y49.7700
G01 X-56.0500 Y49.8300
G01 X-67.5282 Y49.8300
G01 X-67.5282 Y49.8900
G01 X-56.0500 Y49.8900
G01 X-56.0500 Y49.9500
G01 X-67.5282 Y49.9500
G01 X-67.5282 Y50.0100
G01 X-56.0500 Y50.0100
G01 X-56.0500 Y50.0700
G01 X-67.5282 Y50.0700
G01 X-67.5282 Y50.1300
G01 X-56.0500 Y50.1300
G01 X-56.0500 Y50.1900
G01 X-67.5282 Y50.1900
G01 X-67.5282 Y50.2500
G01 X-56.0500 Y50.2500
G01 X-56.0500 Y50.3100
G01 X-67.5282 Y50.3100
G01 X-67.5282 Y50.3700
G01 X-56.0500 Y50.3700
G01 X-56.0500 Y50.4300
G01 X-67.5282 Y50.4300
G01 X-67.5282 Y50.4900
G01 X-56.0500 Y50.4900
G01 X-56.0500 Y50.5500
G01 X-67.5282 Y50.5500
G01 X-67.5282 Y50.6100
G01 X-56.0500 Y50.6100
G01 X-56.0500 Y50.6700
G01 X-67.5282 Y50.6700
G01 X-67.5282 Y50.7300
G01 X-56.0500 Y50.7300
G01 X-56.0500 Y50.7900
G01 X-67.5282 Y50.7900
G01 X-67.5282 Y50.8500
G01 X-56.0500 Y50.8500
G01 X-56.0500 Y50.9100
G01 X-67.5282 Y50.9100
G01 X-67.5282 Y50.9700
G01 X-56.0500 Y50.9700
G01 X-56.0500 Y51.0300
G01 X-67.5282 Y51.0300
G01 X-67.5282 Y51.0900
G01 X-56.0500 Y51.0900
G01 X-56.0500 Y51.1500
G01 X-67.5282 Y51.1500
G01 X-67.5282 Y51.2100
G01 X-56.0500 Y51.2100
G01 X-56.0500 Y51.2700
G01 X-67.5282 Y51.2700
G01 X-67.5282 Y51.3300
G01 X-56.0500 Y51.3300
G01 X-56.0500 Y51.3900
G01 X-67.5282 Y51.3900
G01 X-67.5282 Y51.4500
G01 X-56.0500 Y51.4500
G01 X-56.0500 Y51.5100
G01 X-67.5282 Y51.5100
G01 X-67.5282 Y51.5700
G01 X-56.0500 Y51.5700
G01 X-56.0500 Y51.6300
G01 X-67.5282 Y51.6300
G01 X-67.5282 Y51.6900
G01 X-56.0500 Y51.6900
G01 X-56.0500 Y51.7500
G01 X-67.5282 Y51.7500
G01 X-67.5282 Y51.8100
G01 X-56.0500 Y51.8100
G01 X-56.0500 Y51.8700
G01 X-67.5282 Y51.8700
G01 X-67.5282 Y51.9300
G01 X-56.0500 Y51.9300
G01 X-56.0500 Y51.9900
G01 X-67.5282 Y51.9900
G01 X-67.5282 Y52.0500
G01 X-56.0500 Y52.0500
G01 X-56.0500 Y52.1100
G01 X-67.5282 Y52.1100
G01 X-67.5282 Y52.1700
G01 X-56.0500 Y52.1700
G01 X-56.0500 Y52.2300
G01 X-67.5282 Y52.2300
G01 X-67.5282 Y52.2900
G01 X-56.0500 Y52.2900
G01 X-56.0500 Y52.3500
G01 X-67.5282 Y52.3500
G01 X-67.5282 Y52.4100
G01 X-56.0500 Y52.4100
G01 X-56.0500 Y52.4700
G01 X-67.5282 Y52.4700
G01 X-67.5282 Y52.5300
G01 X-56.0500 Y52.5300
G01 X-56.0500 Y52.5900
G01 X-67.5282 Y52.5900
G01 X-67.5282 Y52.6500
G01 X-56.0500 Y52.6500
G01 X-56.0500 Y52.7100
G01 X-67.5282 Y52.7100
G01 X-67.5282 Y52.7700
G01 X-56.0500 Y52.7700
G01 X-56.0500 Y52.8300
G01 X-67.5282 Y52.8300
G01 X-67.5282 Y52.8900
G01 X-56.0500 Y52.8900
G01 X-56.0500 Y52.9500
G01 X-67.5282 Y52.9500
G01 X-67.5282 Y53.0100
G01 X-56.0490 Y53.0100
G00 Z2.0000
G00 X-56.0072 Y53.3100
G01 F60.00
G01 Z-0.0649
G01 F120.00
G01 X-67.5282 Y53.3100
G01 X-67.5282 Y53.3700
G01 X-56.1295 Y53.3700
G00 Z2.0000
G00 X-56.2148 Y53.4300
G01 F60.00
G01 Z-0.0649
G01 F120.00
G01 X-67.5282 Y53.4300
G01 X-67.5282 Y53.4900
G01 X-56.2789 Y53.4900
G00 Z2.0000
G00 X-56.3302 Y53.5500
G01 F60.00
G01 Z-0.0649
G01 F120.00
G01 X-67.5282 Y53.5500
G01 X-67.5282 Y53.6100
G01 X-56.3718 Y53.6100
G00 Z2.0000
G00 X-56.4055 Y53.6700
G01 F60.00
G01 Z-0.0649
G01 F120.00
G01 X-67.5282 Y53.6700
G01 X-67.5282 Y53.7300
G01 X-56.4325 Y53.7300
G00 Z2.0000
G00 X-56.4533 Y53.7900
G01 F60.00
G01 Z-0.0649
G01 F120.00
G01 X-67.5282 Y53.7900
G01 X-67.5282 Y53.8500
G01 X-56.4970 Y53.8500
G00 Z2.0000
G00 X-56.5464 Y53.9100
G01 F60.00
G01 Z-0.0649
G01 F120.00
G01 X-67.5282 Y53.9100
G01 X-67.5282 Y53.9700
G01 X-56.5853 Y53.9700
G00 Z2.0000
G00 X-56.6154 Y54.0300
G01 F60.00
G01 Z-0.0649
G01 F120.00
G01 X-67.5282 Y54.0300
G01 X-67.5282 Y54.0900
G01 X-56.6381 Y54.0900
G00 Z2.0000
G00 X-56.6542 Y54.1500
G01 F60.00
G01 Z-0.0649
G01 F120.00
G01 X-67.5282 Y54.1500
G01 X-67.5282 Y54.2100
G01 X-56.6642 Y54.2100
G00 Z2.0000
G00 X-56.6685 Y54.2700
G01 F60.00
G01 Z-0.0649
G01 F120.00
G01 X-67.5282 Y54.2700
G01 X-67.5282 Y54.3300
G01 X-56.6689 Y54.3300
G01 X-56.6689 Y54.3900
G01 X-67.5282 Y54.3900
G01 X-67.5282 Y54.4500
G01 X-56.6689 Y54.4500
G01 X-56.6689 Y54.5100
G01 X-67.5282 Y54.5100
G01 X-67.5282 Y54.5700
G01 X-56.6689 Y54.5700
G01 X-56.6689 Y54.6300
G01 X-67.5282 Y54.6300
G01 X-67.5282 Y54.6900
G01 X-56.6689 Y54.6900
G01 X-56.6689 Y54.7500
G01 X-67.5282 Y54.7500
G01 X-67.5282 Y54.8100
G01 X-56.6689 Y54.8100
G01 X-56.6689 Y54.8700
G01 X-67.5282 Y54.8700
G01 X-67.5282 Y54.9300
G01 X-56.6689 Y54.9300
G01 X-56.6689 Y54.9900
G01 X-67.5282 Y54.9900
G01 X-67.5282 Y55.0500
G01 X-56.6689 Y55.0500
G01 X-56.6689 Y55.1100
G01 X-67.5282 Y55.1100
G01 X-67.5282 Y55.1700
G01 X-56.6689 Y55.1700
G01 X-56.6689 Y55.2300
G01 X-67.5282 Y55.2300
G01 X-67.5282 Y55.2900
G01 X-56.6689 Y55.2900
G01 X-56.6689 Y55.3500
G01 X-67.5282 Y55.3500
G01 X-67.5282 Y55.4100
G01 X-56.6689 Y55.4100
G01 X-56.6689 Y55.4700
G01 X-67.5282 Y55.4700
G01 X-67.5282 Y55.5300
G01 X-56.6689 Y55.5300
G01 X-56.6689 Y55.5900
G01 X-67.5282 Y55.5900
G01 X-67.5282 Y55.6500
G01 X-56.6689 Y55.6500
G01 X-56.6689 Y55.7100
G01 X-67.5282 Y55.7100
G01 X-67.5282 Y55.7700
G01 X-56.6689 Y55.7700
G01 X-56.6846 Y55.8300
G01 X-67.5282 Y55.8300
G01 X-67.5282 Y55.8900
G01 X-56.7136 Y55.8900
G00 Z2.0000
G00 X-56.7246 Y55.9500
G01 F60.00
G01 Z-0.0649
G01 F120.00
G01 X-67.5282 Y55.9500
G01 X-67.5282 Y56.0100
G01 X-56.7250 Y56.0100
G01 X-56.7250 Y56.0700
G01 X-67.5282 Y56.0700
G01 X-67.5282 Y56.1300
G01 X-56.7250 Y56.1300
G01 X-56.7250 Y56.1900
G01 X-67.5282 Y56.1900
G01 X-67.5282 Y56.2500
G01 X-56.7250 Y56.2500
G01 X-56.7250 Y56.3100
G01 X-67.5282 Y56.3100
G01 X-67.5282 Y56.3700
G01 X-56.7250 Y56.3700
G01 X-56.7250 Y56.4300
G01 X-67.5282 Y56.4300
G01 X-67.5282 Y56.4900
G01 X-56.7250 Y56.4900
G01 X-56.7250 Y56.5500
G01 X-67.5282 Y56.5500
G01 X-67.5282 Y56.6100
G01 X-56.7250 Y56.6100
G01 X-56.7250 Y56.6700
G01 X-67.5282 Y56.6700
G01 X-67.5282 Y56.7300
G01 X-56.7250 Y56.7300
G01 X-56.7250 Y56.7900
G01 X-67.5282 Y56.7900
G01 X-67.5282 Y56.8500
G01 X-56.7221 Y56.8500
G00 Z2.0000
G00 X-56.7043 Y56.9100
G01 F60.00
G01 Z-0.0649
G01 F120.00
G01 X-67.5282 Y56.9100
G01 X-67.5282 Y56.9700
G01 X-56.6689 Y56.9700
G01 X-56.6689 Y57.0300
G01 X-67.5282 Y57.0300
G01 X-67.5282 Y57.0900
G01 X-56.6689 Y57.0900
G01 X-56.6689 Y57.1500
G01 X-67.5282 Y57.1500
G01 X-67.5282 Y57.2100
G01 X-56.6689 Y57.2100
G01 X-56.6689 Y57.2700
G01 X-67.5282 Y57.2700
G01 X-67.5282 Y57.3300
G01 X-56.6689 Y57.3300
G01 X-56.6689 Y57.3900
G01 X-67.5282 Y57.3900
G01 X-67.5282 Y57.4500
G01 X-56.6689 Y57.4500
G01 X-56.6689 Y57.5100
G01 X-67.5282 Y57.5100
G01 X-67.5282 Y57.5700
G01 X-56.6689 Y57.5700
G01 X-56.6689 Y57.6300
G01 X-67.5282 Y57.6300
G01 X-67.5282 Y57.6900
G01 X-56.6689 Y57.6900
G01 X-56.6689 Y57.7500
G01 X-67.5282 Y57.7500
G01 X-67.5282 Y57.8100
G01 X-56.6689 Y57.8100
G01 X-56.6689 Y57.8700
G01 X-67.5282 Y57.8700
G01 X-67.5282 Y57.9300
G01 X-56.6689 Y57.9300
G01 X-56.6689 Y57.9900
G01 X-67.5282 Y57.9900
G01 X-67.5282 Y58.0500
G01 X-56.6689 Y58.0500
G01 X-56.6689 Y58.1100
G01 X-67.5282 Y58.1100
G01 X-67.5282 Y58.1700
G01 X-56.6689 Y58.1700
G01 X-56.6689 Y58.2300
G01 X-67.5282 Y58.2300
G01 X-67.5282 Y58.2900
G01 X-56.6689 Y58.2900
G01 X-56.6689 Y58.3500
G01 X-67.5282 Y58.3500
G01 X-67.5282 Y58.4100
G01 X-56.6689 Y58.4100
G01 X-56.6689 Y58.4700
G01 X-67.5282 Y58.4700
G01 X-67.5282 Y58.5300
G01 X-56.6689 Y58.5300
G01 X-56.6689 Y58.5900
G01 X-67.5282 Y58.5900
G01 X-67.5282 Y58.6500
G01 X-56.6689 Y58.6500
G01 X-56.6689 Y58.7100
G01 X-67.5282 Y58.7100
G01 X-67.5282 Y58.7700
G01 X-56.6689 Y58.7700
G01 X-56.6689 Y58.8300
G01 X-67.5282 Y58.8300
G01 X-67.5282 Y58.8900
G01 X-56.6689 Y58.8900
G01 X-56.6689 Y58.9500
G01 X-67.5282 Y58.9500
G00 Z2.0000
G00 X-67.5282 Y53.2500
G01 F60.00
G01 Z-0.0649
G01 F120.00
G01 X-50.1340 Y53.2500
G01 X-50.1340 Y53.1900
G01 X-67.5282 Y53.1900
G01 X-67.5282 Y53.1300
G01 X-50.1340 Y53.1300
G01 X-50.1340 Y53.0700
G01 X-67.5282 Y53.0700
G00 Z2.0000
G00 X-55.3911 Y54.7500
G01 F60.00
G01 Z-0.0649
G01 F120.00
G01 X-49.6905 Y54.7500
G01 X-49.6305 Y54.8100
G01 X-55.3911 Y54.8100
G01 X-55.3911 Y54.8700
G01 X-49.5705 Y54.8700
G01 X-49.5105 Y54.9300
G01 X-55.3911 Y54.9300
G01 X-55.3911 Y54.9900
G01 X-49.4505 Y54.9900
G01 X-49.3905 Y55.0500
G01 X-55.3911 Y55.0500
G01 X-55.3911 Y55.1100
G01 X-49.3305 Y55.1100
G01 X-49.2705 Y55.1700
G01 X-55.3911 Y55.1700
G01 X-55.3911 Y55.2300
G01 X-49.2105 Y55.2300
G01 X-49.1689 Y55.2900
G01 X-55.3911 Y55.2900
G01 X-55.3911 Y55.3500
G01 X-49.1689 Y55.3500
G01 X-49.1689 Y55.4100
G01 X-55.3911 Y55.4100
G01 X-55.3911 Y55.4700
G01 X-49.1689 Y55.4700
G01 X-49.1689 Y55.5300
G01 X-55.3911 Y55.5300
G01 X-55.3911 Y55.5900
G01 X-49.1689 Y55.5900
G01 X-49.1689 Y55.6500
G01 X-55.3911 Y55.6500
G00 Z2.0000
G00 X-55.3911 Y55.8092
G01 F60.00
G01 Z-0.0649
G01 F120.00
G01 X-55.3782 Y55.8259
G01 X-55.3724 Y55.8347
G01 X-55.3663 Y55.8447
G01 X-55.3577 Y55.8614
G01 X-55.3530 Y55.8721
G01 X-55.3492 Y55.8819
G01 X-55.3435 Y55.8998
G01 X-55.3410 Y55.9100
G01 X-55.3387 Y55.9215
G01 X-55.3361 Y55.9401
G01 X-55.3353 Y55.9518
G01 X-55.3350 Y55.9629
G01 X-55.3350 Y56.8129
G01 X-55.3354 Y56.8252
G01 X-55.3369 Y56.8427
G01 X-55.3387 Y56.8543
G01 X-55.3407 Y56.8646
G01 X-55.3452 Y56.8818
G01 X-55.3513 Y56.8994
G01 X-55.3582 Y56.9155
G01 X-55.3629 Y56.9249
G01 X-55.3687 Y56.9351
G01 X-55.3789 Y56.9509
G01 X-55.3911 Y56.9666
G01 X-55.3911 Y58.9500
G01 X-52.5195 Y58.9500
G01 X-52.1929 Y58.6235
G01 X-52.1929 Y56.9324
G01 X-52.1998 Y56.9197
G01 X-52.2066 Y56.9048
G01 X-52.2112 Y56.8927
G01 X-52.2165 Y56.8760
G01 X-52.2205 Y56.8589
G01 X-52.2231 Y56.8427
G01 X-52.2244 Y56.8298
G01 X-52.2250 Y56.8129
G01 X-52.2249 Y55.9577
G01 X-52.2244 Y55.9460
G01 X-52.2232 Y55.9343
G01 X-52.2216 Y55.9227
G01 X-52.2193 Y55.9112
G01 X-52.2165 Y55.8998
G01 X-52.2129 Y55.8879
G01 X-52.2087 Y55.8764
G01 X-52.2042 Y55.8656
G01 X-52.1965 Y55.8498
G01 X-52.1883 Y55.8357
G01 X-52.1811 Y55.8249
G01 X-52.1711 Y55.8118
G01 X-52.1596 Y55.7987
G01 X-52.1504 Y55.7896
G01 X-52.1382 Y55.7788
G01 X-52.1280 Y55.7708
G01 X-52.1145 Y55.7615
G01 X-52.1034 Y55.7549
G01 X-52.0889 Y55.7474
G01 X-52.0727 Y55.7404
G01 X-52.0605 Y55.7360
G01 X-52.0447 Y55.7315
G01 X-52.0322 Y55.7287
G01 X-52.0160 Y55.7260
G01 X-52.0032 Y55.7248
G01 X-51.9862 Y55.7242
G01 X-51.0738 Y55.7242
G01 X-51.0626 Y55.7244
G01 X-51.0510 Y55.7253
G01 X-51.0393 Y55.7267
G01 X-51.0278 Y55.7287
G01 X-51.0163 Y55.7312
G01 X-51.0050 Y55.7343
G01 X-50.9873 Y55.7404
G01 X-50.9765 Y55.7449
G01 X-50.9659 Y55.7499
G01 X-50.9556 Y55.7555
G01 X-50.9466 Y55.7609
G01 X-50.9368 Y55.7674
G01 X-50.9274 Y55.7743
G01 X-50.9130 Y55.7864
G01 X-50.9049 Y55.7941
G01 X-50.8973 Y55.8021
G01 X-50.8896 Y55.8110
G01 X-50.8824 Y55.8202
G01 X-50.8717 Y55.8357
G01 X-50.8657 Y55.8458
G01 X-50.8602 Y55.8561
G01 X-50.8553 Y55.8667
G01 X-50.8508 Y55.8776
G01 X-50.8471 Y55.8879
G01 X-50.8438 Y55.8988
G01 X-50.8410 Y55.9100
G01 X-50.8387 Y55.9215
G01 X-50.8369 Y55.9331
G01 X-50.8357 Y55.9447
G01 X-50.8350 Y55.9629
G01 X-50.8350 Y56.8129
G01 X-50.8357 Y56.8311
G01 X-50.8369 Y56.8427
G01 X-50.8384 Y56.8531
G01 X-50.8407 Y56.8646
G01 X-50.8435 Y56.8760
G01 X-50.8471 Y56.8879
G01 X-50.8508 Y56.8982
G01 X-50.8553 Y56.9091
G01 X-50.8602 Y56.9197
G01 X-50.8657 Y56.9300
G01 X-50.8717 Y56.9401
G01 X-50.8782 Y56.9499
G01 X-50.8853 Y56.9594
G01 X-50.8926 Y56.9684
G01 X-50.9004 Y56.9771
G01 X-50.9151 Y56.9912
G01 X-50.9151 Y58.6593
G01 X-50.9054 Y58.6756
G01 X-50.8999 Y58.6859
G01 X-50.8733 Y58.7420
G01 X-50.8673 Y58.7572
G01 X-50.8487 Y58.8094
G01 X-50.8437 Y58.8264
G01 X-50.8294 Y58.8848
G01 X-50.8272 Y58.8970
G01 X-50.8194 Y58.9500
G01 X-50.6689 Y58.9500
G01 X-50.6689 Y56.9666
G01 X-50.6811 Y56.9508
G01 X-50.6913 Y56.9351
G01 X-50.6971 Y56.9249
G01 X-50.7018 Y56.9155
G01 X-50.7092 Y56.8982
G01 X-50.7129 Y56.8879
G01 X-50.7162 Y56.8770
G01 X-50.7205 Y56.8589
G01 X-50.7223 Y56.8485
G01 X-50.7238 Y56.8369
G01 X-50.7249 Y56.8181
G01 X-50.7249 Y55.9577
G01 X-50.7238 Y55.9389
G01 X-50.7223 Y55.9273
G01 X-50.7203 Y55.9157
G01 X-50.7177 Y55.9043
G01 X-50.7148 Y55.8940
G01 X-50.7087 Y55.8764
G01 X-50.7023 Y55.8614
G01 X-50.6943 Y55.8458
G01 X-50.6876 Y55.8347
G01 X-50.6776 Y55.8202
G01 X-50.6674 Y55.8074
G01 X-50.6555 Y55.7945
G01 X-50.6461 Y55.7856
G01 X-50.6326 Y55.7743
G01 X-50.6188 Y55.7644
G01 X-50.6044 Y55.7555
G01 X-50.5889 Y55.7474
G01 X-50.5770 Y55.7421
G01 X-50.5613 Y55.7363
G01 X-50.5448 Y55.7315
G01 X-50.5322 Y55.7287
G01 X-50.5160 Y55.7260
G01 X-50.5032 Y55.7248
G01 X-50.4862 Y55.7242
G01 X-49.5738 Y55.7242
G01 X-49.5626 Y55.7244
G01 X-49.5510 Y55.7253
G01 X-49.5393 Y55.7267
G01 X-49.5278 Y55.7287
G01 X-49.5163 Y55.7312
G01 X-49.5050 Y55.7343
G01 X-49.4873 Y55.7404
G01 X-49.4765 Y55.7449
G01 X-49.4659 Y55.7499
G01 X-49.4556 Y55.7555
G01 X-49.4455 Y55.7615
G01 X-49.4358 Y55.7681
G01 X-49.4273 Y55.7744
G01 X-49.4183 Y55.7817
G01 X-49.4096 Y55.7896
G01 X-49.4013 Y55.7979
G01 X-49.3934 Y55.8065
G01 X-49.3859 Y55.8156
G01 X-49.3789 Y55.8249
G01 X-49.3687 Y55.8407
G01 X-49.3629 Y55.8509
G01 X-49.3577 Y55.8614
G01 X-49.3530 Y55.8721
G01 X-49.3488 Y55.8831
G01 X-49.3451 Y55.8942
G01 X-49.3423 Y55.9044
G01 X-49.3397 Y55.9157
G01 X-49.3377 Y55.9273
G01 X-49.3362 Y55.9389
G01 X-49.3354 Y55.9506
G01 X-49.3350 Y55.9629
G01 X-49.3350 Y56.8129
G01 X-49.3354 Y56.8252
G01 X-49.3369 Y56.8427
G01 X-49.3387 Y56.8543
G01 X-49.3407 Y56.8646
G01 X-49.3452 Y56.8818
G01 X-49.3513 Y56.8994
G01 X-49.3582 Y56.9155
G01 X-49.3629 Y56.9249
G01 X-49.3687 Y56.9351
G01 X-49.3789 Y56.9509
G01 X-49.3911 Y56.9666
G01 X-49.3911 Y58.9500
G01 X-47.6689 Y58.9500
G01 X-47.6689 Y56.9666
G01 X-47.6811 Y56.9508
G01 X-47.6913 Y56.9351
G01 X-47.6998 Y56.9197
G01 X-47.7042 Y56.9102
G01 X-47.7087 Y56.8994
G01 X-47.7145 Y56.8828
G01 X-47.7193 Y56.8646
G01 X-47.7216 Y56.8531
G01 X-47.7231 Y56.8427
G01 X-47.7247 Y56.8240
G01 X-47.7250 Y56.8129
G01 X-47.7249 Y55.9577
G01 X-47.7239 Y55.9401
G01 X-47.7216 Y55.9227
G01 X-47.7180 Y55.9055
G01 X-47.7127 Y55.8874
G01 X-47.7066 Y55.8710
G01 X-47.6992 Y55.8550
G01 X-47.6907 Y55.8396
G01 X-47.6818 Y55.8259
G01 X-47.6712 Y55.8119
G01 X-47.6627 Y55.8021
G01 X-47.6513 Y55.7904
G01 X-47.6382 Y55.7788
G01 X-47.6280 Y55.7708
G01 X-47.6134 Y55.7609
G01 X-47.5982 Y55.7521
G01 X-47.5835 Y55.7449
G01 X-47.5716 Y55.7400
G01 X-47.5550 Y55.7343
G01 X-47.5380 Y55.7298
G01 X-47.5207 Y55.7267
G01 X-47.5032 Y55.7248
G01 X-47.4862 Y55.7242
G01 X-46.5738 Y55.7242
G01 X-46.5626 Y55.7244
G01 X-46.5510 Y55.7253
G01 X-46.5393 Y55.7267
G01 X-46.5278 Y55.7287
G01 X-46.5163 Y55.7312
G01 X-46.5050 Y55.7343
G01 X-46.4873 Y55.7404
G01 X-46.4765 Y55.7449
G01 X-46.4659 Y55.7499
G01 X-46.4556 Y55.7555
G01 X-46.4455 Y55.7615
G01 X-46.4358 Y55.7681
G01 X-46.4273 Y55.7744
G01 X-46.4183 Y55.7817
G01 X-46.4096 Y55.7896
G01 X-46.4013 Y55.7979
G01 X-46.3934 Y55.8065
G01 X-46.3816 Y55.8212
G01 X-46.3752 Y55.8303
G01 X-46.3687 Y55.8407
G01 X-46.3629 Y55.8509
G01 X-46.3577 Y55.8614
G01 X-46.3530 Y55.8721
G01 X-46.3488 Y55.8831
G01 X-46.3451 Y55.8942
G01 X-46.3423 Y55.9044
G01 X-46.3397 Y55.9157
G01 X-46.3377 Y55.9273
G01 X-46.3362 Y55.9389
G01 X-46.3354 Y55.9506
G01 X-46.3350 Y55.9629
G01 X-46.3350 Y56.8129
G01 X-46.3354 Y56.8252
G01 X-46.3369 Y56.8427
G01 X-46.3384 Y56.8531
G01 X-46.3407 Y56.8646
G01 X-46.3452 Y56.8818
G01 X-46.3513 Y56.8994
G01 X-46.3582 Y56.9155
G01 X-46.3635 Y56.9260
G01 X-46.3687 Y56.9351
G01 X-46.3789 Y56.9509
G01 X-46.3911 Y56.9666
G01 X-46.3911 Y58.9500
G01 X-46.1689 Y58.9500
G01 X-46.1689 Y56.9666
G01 X-46.1811 Y56.9508
G01 X-46.1913 Y56.9351
G01 X-46.1971 Y56.9249
G01 X-46.2018 Y56.9155
G01 X-46.2092 Y56.8982
G01 X-46.2129 Y56.8879
G01 X-46.2162 Y56.8770
G01 X-46.2205 Y56.8589
G01 X-46.2223 Y56.8485
G01 X-46.2238 Y56.8369
G01 X-46.2249 Y56.8181
G01 X-46.2249 Y55.9577
G01 X-46.2238 Y55.9389
G01 X-46.2223 Y55.9273
G01 X-46.2203 Y55.9157
G01 X-46.2177 Y55.9043
G01 X-46.2148 Y55.8940
G01 X-46.2112 Y55.8831
G01 X-46.2070 Y55.8721
G01 X-46.2018 Y55.8603
G01 X-46.1943 Y55.8458
G01 X-46.1876 Y55.8347
G01 X-46.1776 Y55.8202
G01 X-46.1674 Y55.8074
G01 X-46.1555 Y55.7945
G01 X-46.1461 Y55.7856
G01 X-46.1326 Y55.7743
G01 X-46.1188 Y55.7644
G01 X-46.1044 Y55.7555
G01 X-46.0889 Y55.7474
G01 X-46.0770 Y55.7421
G01 X-46.0613 Y55.7363
G01 X-46.0448 Y55.7315
G01 X-46.0322 Y55.7287
G01 X-46.0160 Y55.7260
G01 X-46.0032 Y55.7248
G01 X-45.9862 Y55.7242
G01 X-45.0738 Y55.7242
G01 X-45.0626 Y55.7244
G01 X-45.0510 Y55.7253
G01 X-45.0393 Y55.7267
G01 X-45.0278 Y55.7287
G01 X-45.0163 Y55.7312
G01 X-45.0050 Y55.7343
G01 X-44.9873 Y55.7404
G01 X-44.9765 Y55.7449
G01 X-44.9659 Y55.7499
G01 X-44.9556 Y55.7555
G01 X-44.9455 Y55.7615
G01 X-44.9358 Y55.7681
G01 X-44.9273 Y55.7744
G01 X-44.9183 Y55.7817
G01 X-44.9096 Y55.7896
G01 X-44.9013 Y55.7979
G01 X-44.8934 Y55.8065
G01 X-44.8859 Y55.8156
G01 X-44.8789 Y55.8249
G01 X-44.8687 Y55.8407
G01 X-44.8629 Y55.8509
G01 X-44.8577 Y55.8614
G01 X-44.8530 Y55.8721
G01 X-44.8488 Y55.8831
G01 X-44.8451 Y55.8942
G01 X-44.8423 Y55.9044
G01 X-44.8397 Y55.9157
G01 X-44.8377 Y55.9273
G01 X-44.8362 Y55.9389
G01 X-44.8354 Y55.9506
G01 X-44.8350 Y55.9629
G01 X-44.8350 Y56.8129
G01 X-44.8354 Y56.8252
G01 X-44.8369 Y56.8427
G01 X-44.8387 Y56.8543
G01 X-44.8407 Y56.8646
G01 X-44.8452 Y56.8818
G01 X-44.8513 Y56.8994
G01 X-44.8582 Y56.9155
G01 X-44.8629 Y56.9249
G01 X-44.8687 Y56.9351
G01 X-44.8789 Y56.9509
G01 X-44.8911 Y56.9666
G01 X-44.8911 Y58.9500
G01 X-41.0500 Y58.9500
G01 X-41.0500 Y57.0268
G01 X-43.4678 Y57.0268
G01 X-43.4818 Y57.0332
G01 X-43.4939 Y57.0379
G01 X-43.5050 Y57.0415
G01 X-43.5208 Y57.0457
G01 X-43.5335 Y57.0482
G01 X-43.5451 Y57.0499
G01 X-43.5614 Y57.0513
G01 X-43.5738 Y57.0516
G01 X-44.4869 Y57.0516
G01 X-44.5044 Y57.0509
G01 X-44.5207 Y57.0491
G01 X-44.5334 Y57.0469
G01 X-44.5505 Y57.0428
G01 X-44.5672 Y57.0375
G01 X-44.5825 Y57.0314
G01 X-44.5982 Y57.0237
G01 X-44.6134 Y57.0149
G01 X-44.6281 Y57.0049
G01 X-44.6417 Y56.9941
G01 X-44.6546 Y56.9821
G01 X-44.6635 Y56.9728
G01 X-44.6748 Y56.9593
G01 X-44.6848 Y56.9455
G01 X-44.6937 Y56.9311
G01 X-44.7018 Y56.9155
G01 X-44.7087 Y56.8994
G01 X-44.7131 Y56.8872
G01 X-44.7180 Y56.8703
G01 X-44.7216 Y56.8531
G01 X-44.7231 Y56.8427
G01 X-44.7243 Y56.8311
G01 X-44.7250 Y56.8129
G01 X-44.7250 Y55.9629
G01 X-44.7247 Y55.9518
G01 X-44.7239 Y55.9401
G01 X-44.7225 Y55.9285
G01 X-44.7205 Y55.9169
G01 X-44.7162 Y55.8986
G01 X-44.7129 Y55.8879
G01 X-44.7087 Y55.8764
G01 X-44.7042 Y55.8656
G01 X-44.6992 Y55.8550
G01 X-44.6943 Y55.8458
G01 X-44.6883 Y55.8357
G01 X-44.6818 Y55.8259
G01 X-44.6747 Y55.8164
G01 X-44.6674 Y55.8074
G01 X-44.6596 Y55.7987
G01 X-44.6513 Y55.7904
G01 X-44.6426 Y55.7825
G01 X-44.6280 Y55.7708
G01 X-44.6188 Y55.7644
G01 X-44.6084 Y55.7578
G01 X-44.5982 Y55.7521
G01 X-44.5878 Y55.7468
G01 X-44.5770 Y55.7421
G01 X-44.5661 Y55.7379
G01 X-44.5550 Y55.7343
G01 X-44.5447 Y55.7315
G01 X-44.5334 Y55.7289
G01 X-44.5219 Y55.7269
G01 X-44.5103 Y55.7254
G01 X-44.4986 Y55.7245
G01 X-44.4862 Y55.7242
G01 X-43.5685 Y55.7242
G01 X-43.5568 Y55.7248
G01 X-43.5439 Y55.7261
G01 X-43.5323 Y55.7278
G01 X-43.5163 Y55.7312
G01 X-43.5049 Y55.7343
G01 X-43.4928 Y55.7383
G01 X-43.4818 Y55.7426
G01 X-43.4678 Y55.7490
G01 X-41.0500 Y55.7490
G01 X-41.0500 Y53.0500
G01 X-44.2245 Y53.0500
G01 X-45.7012 Y54.5266
G01 X-45.7423 Y54.5640
G01 X-45.7517 Y54.5720
G01 X-45.7999 Y54.6081
G01 X-45.8095 Y54.6149
G01 X-45.8193 Y54.6211
G01 X-45.8711 Y54.6518
G01 X-45.8821 Y54.6574
G01 X-45.9265 Y54.6784
G01 X-45.9432 Y54.6855
G01 X-46.0005 Y54.7060
G01 X-46.0162 Y54.7105
G01 X-46.0707 Y54.7241
G01 X-46.0874 Y54.7272
G01 X-46.1470 Y54.7357
G01 X-46.1593 Y54.7367
G01 X-46.2135 Y54.7393
G01 X-47.8022 Y54.7394
G01 X-47.7945 Y54.7936
G01 X-47.7913 Y54.8537
G01 X-47.7910 Y54.8660
G01 X-47.7937 Y54.9261
G01 X-47.7945 Y54.9372
G01 X-47.7960 Y54.9495
G01 X-47.8043 Y55.0044
G01 X-47.8078 Y55.0210
G01 X-47.8227 Y55.0795
G01 X-47.8265 Y55.0910
G01 X-47.8449 Y55.1422
G01 X-47.8518 Y55.1583
G01 X-47.8753 Y55.2080
G01 X-47.8814 Y55.2194
G01 X-47.8911 Y55.2357
G01 X-47.8911 Y55.8092
G01 X-47.8789 Y55.8250
G01 X-47.8687 Y55.8407
G01 X-47.8629 Y55.8509
G01 X-47.8582 Y55.8603
G01 X-47.8508 Y55.8776
G01 X-47.8471 Y55.8879
G01 X-47.8438 Y55.8988
G01 X-47.8395 Y55.9169
G01 X-47.8368 Y55.9343
G01 X-47.8356 Y55.9460
G01 X-47.8351 Y55.9564
G01 X-47.8350 Y56.8129
G01 X-47.8353 Y56.8240
G01 X-47.8361 Y56.8357
G01 X-47.8384 Y56.8531
G01 X-47.8423 Y56.8715
G01 X-47.8452 Y56.8818
G01 X-47.8488 Y56.8927
G01 X-47.8553 Y56.9091
G01 X-47.8635 Y56.9260
G01 X-47.8724 Y56.9411
G01 X-47.8782 Y56.9499
G01 X-47.8852 Y56.9593
G01 X-47.8965 Y56.9728
G01 X-47.9096 Y56.9862
G01 X-47.9174 Y56.9933
G01 X-47.9264 Y57.0007
G01 X-47.9412 Y57.0114
G01 X-47.9566 Y57.0209
G01 X-47.9722 Y57.0290
G01 X-47.9830 Y57.0337
G01 X-47.9928 Y57.0375
G01 X-48.0096 Y57.0428
G01 X-48.0278 Y57.0471
G01 X-48.0393 Y57.0491
G01 X-48.0510 Y57.0505
G01 X-48.0626 Y57.0514
G01 X-48.0738 Y57.0516
G01 X-48.9862 Y57.0516
G01 X-49.0044 Y57.0509
G01 X-49.0161 Y57.0497
G01 X-49.0322 Y57.0471
G01 X-49.0437 Y57.0446
G01 X-49.0551 Y57.0415
G01 X-49.0672 Y57.0375
G01 X-49.0782 Y57.0332
G01 X-49.0889 Y57.0284
G01 X-49.1034 Y57.0209
G01 X-49.1145 Y57.0143
G01 X-49.1242 Y57.0077
G01 X-49.1336 Y57.0007
G01 X-49.1426 Y56.9933
G01 X-49.1546 Y56.9821
G01 X-49.1627 Y56.9737
G01 X-49.1704 Y56.9648
G01 X-49.1784 Y56.9546
G01 X-49.1883 Y56.9401
G01 X-49.1971 Y56.9249
G01 X-49.2047 Y56.9091
G01 X-49.2112 Y56.8927
G01 X-49.2165 Y56.8760
G01 X-49.2205 Y56.8589
G01 X-49.2232 Y56.8415
G01 X-49.2247 Y56.8240
G01 X-49.2250 Y56.8129
G01 X-49.2250 Y55.9629
G01 X-49.2247 Y55.9518
G01 X-49.2239 Y55.9401
G01 X-49.2213 Y55.9215
G01 X-49.2193 Y55.9112
G01 X-49.2165 Y55.8998
G01 X-49.2108 Y55.8819
G01 X-49.2070 Y55.8721
G01 X-49.2023 Y55.8614
G01 X-49.1937 Y55.8447
G01 X-49.1883 Y55.8357
G01 X-49.1818 Y55.8259
G01 X-49.1689 Y55.8092
G01 X-49.1689 Y55.2715
G01 X-49.7011 Y54.7394
G01 X-55.3911 Y54.7394
G01 X-55.3911 Y55.8092
G00 Z2.0000
G00 X-55.3754 Y55.8300
G01 F60.00
G01 Z-0.0649
G01 F120.00
G01 X-55.1846 Y55.8300
G00 Z2.0000
G00 X-55.2136 Y55.8900
G01 F60.00
G01 Z-0.0649
G01 F120.00
G01 X-55.3464 Y55.8900
G00 Z2.0000
G00 X-55.3354 Y55.9500
G01 F60.00
G01 Z-0.0649
G01 F120.00
G01 X-55.2246 Y55.9500
G00 Z2.0000
G00 X-55.2249 Y55.9577
G01 F60.00
G01 Z-0.0649
G01 F120.00
G01 X-55.2238 Y55.9389
G01 X-55.2223 Y55.9273
G01 X-55.2205 Y55.9169
G01 X-55.2162 Y55.8986
G01 X-55.2129 Y55.8879
G01 X-55.2092 Y55.8776
G01 X-55.2018 Y55.8603
G01 X-55.1965 Y55.8498
G01 X-55.1907 Y55.8396
G01 X-55.1848 Y55.8303
G01 X-55.1782 Y55.8210
G01 X-55.1666 Y55.8065
G01 X-55.1587 Y55.7979
G01 X-55.1513 Y55.7904
G01 X-55.1426 Y55.7825
G01 X-55.1336 Y55.7751
G01 X-55.1184 Y55.7641
G01 X-55.1084 Y55.7578
G01 X-55.0993 Y55.7527
G01 X-55.0824 Y55.7444
G01 X-55.0716 Y55.7400
G01 X-55.0613 Y55.7363
G01 X-55.0504 Y55.7330
G01 X-55.0392 Y55.7301
G01 X-55.0207 Y55.7267
G01 X-55.0032 Y55.7248
G01 X-54.9862 Y55.7242
G01 X-54.0738 Y55.7242
G01 X-54.0626 Y55.7244
G01 X-54.0451 Y55.7259
G01 X-54.0278 Y55.7287
G01 X-54.0107 Y55.7327
G01 X-53.9939 Y55.7379
G01 X-53.9775 Y55.7444
G01 X-53.9618 Y55.7521
G01 X-53.9466 Y55.7609
G01 X-53.9319 Y55.7709
G01 X-53.9227 Y55.7781
G01 X-53.9130 Y55.7864
G01 X-53.9013 Y55.7979
G01 X-53.8934 Y55.8065
G01 X-53.8852 Y55.8165
G01 X-53.8756 Y55.8298
G01 X-53.8687 Y55.8407
G01 X-53.8629 Y55.8509
G01 X-53.8577 Y55.8614
G01 X-53.8513 Y55.8764
G01 X-53.8471 Y55.8879
G01 X-53.8435 Y55.8998
G01 X-53.8397 Y55.9157
G01 X-53.8377 Y55.9273
G01 X-53.8362 Y55.9389
G01 X-53.8353 Y55.9518
G01 X-53.8350 Y55.9629
G01 X-53.8350 Y56.8129
G01 X-53.8353 Y56.8240
G01 X-53.8368 Y56.8415
G01 X-53.8395 Y56.8589
G01 X-53.8435 Y56.8760
G01 X-53.8488 Y56.8927
G01 X-53.8553 Y56.9091
G01 X-53.8629 Y56.9249
G01 X-53.8717 Y56.9401
G01 X-53.8818 Y56.9548
G01 X-53.8889 Y56.9640
G01 X-53.8973 Y56.9737
G01 X-53.9087 Y56.9854
G01 X-53.9174 Y56.9933
G01 X-53.9274 Y57.0015
G01 X-53.9406 Y57.0110
G01 X-53.9516 Y57.0180
G01 X-53.9618 Y57.0237
G01 X-53.9765 Y57.0309
G01 X-53.9873 Y57.0354
G01 X-53.9987 Y57.0395
G01 X-54.0107 Y57.0431
G01 X-54.0220 Y57.0460
G01 X-54.0381 Y57.0489
G01 X-54.0510 Y57.0505
G01 X-54.0626 Y57.0514
G01 X-54.0738 Y57.0516
G01 X-54.9862 Y57.0516
G01 X-54.9974 Y57.0514
G01 X-55.0149 Y57.0499
G01 X-55.0322 Y57.0471
G01 X-55.0493 Y57.0431
G01 X-55.0661 Y57.0379
G01 X-55.0825 Y57.0314
G01 X-55.0982 Y57.0237
G01 X-55.1134 Y57.0149
G01 X-55.1281 Y57.0049
G01 X-55.1373 Y56.9977
G01 X-55.1470 Y56.9894
G01 X-55.1555 Y56.9813
G01 X-55.1666 Y56.9693
G01 X-55.1741 Y56.9602
G01 X-55.1818 Y56.9499
G01 X-55.1883 Y56.9401
G01 X-55.1943 Y56.9300
G01 X-55.1998 Y56.9197
G01 X-55.2047 Y56.9091
G01 X-55.2108 Y56.8939
G01 X-55.2145 Y56.8828
G01 X-55.2177 Y56.8714
G01 X-55.2205 Y56.8589
G01 X-55.2225 Y56.8473
G01 X-55.2239 Y56.8357
G01 X-55.2247 Y56.8240
G01 X-55.2250 Y56.8129
G01 X-55.2249 Y55.9577
G00 Z2.0000
G00 X-55.2250 Y56.0100
G01 F60.00
G01 Z-0.0649
G01 F120.00
G01 X-55.3350 Y56.0100
G00 Z2.0000
G00 X-55.2250 Y56.0700
G01 F60.00
G01 Z-0.0649
G01 F120.00
G01 X-55.3350 Y56.0700
G01 X-55.3350 Y56.1300
G01 X-55.2250 Y56.1300
G01 X-55.2250 Y56.1900
G01 X-55.3350 Y56.1900
G01 X-55.3350 Y56.2500
G01 X-55.2250 Y56.2500
G01 X-55.2250 Y56.3100
G01 X-55.3350 Y56.3100
G01 X-55.3350 Y56.3700
G01 X-55.2250 Y56.3700
G01 X-55.2250 Y56.4300
G01 X-55.3350 Y56.4300
G01 X-55.3350 Y56.4900
G01 X-55.2250 Y56.4900
G01 X-55.2250 Y56.5500
G01 X-55.3350 Y56.5500
G01 X-55.3350 Y56.6100
G01 X-55.2250 Y56.6100
G01 X-55.2250 Y56.6700
G01 X-55.3350 Y56.6700
G01 X-55.3350 Y56.7300
G01 X-55.2250 Y56.7300
G01 X-55.2250 Y56.7900
G01 X-55.3350 Y56.7900
G00 Z2.0000
G00 X-55.3379 Y56.8500
G01 F60.00
G01 Z-0.0649
G01 F120.00
G01 X-55.2221 Y56.8500
G00 Z2.0000
G00 X-55.2043 Y56.9100
G01 F60.00
G01 Z-0.0649
G01 F120.00
G01 X-55.3557 Y56.9100
G00 Z2.0000
G00 X-55.3911 Y56.9700
G01 F60.00
G01 Z-0.0649
G01 F120.00
G01 X-55.1660 Y56.9700
G00 Z2.0000
G00 X-55.0855 Y57.0300
G01 F60.00
G01 Z-0.0649
G01 F120.00
G01 X-55.3911 Y57.0300
G01 X-55.3911 Y57.0900
G01 X-52.1929 Y57.0900
G01 X-52.1929 Y57.0300
G01 X-52.4745 Y57.0300
G00 Z2.0000
G00 X-52.3940 Y56.9700
G01 F60.00
G01 Z-0.0649
G01 F120.00
G01 X-52.1929 Y56.9700
G01 X-52.2043 Y56.9100
G01 X-52.3557 Y56.9100
G00 Z2.0000
G00 X-52.3379 Y56.8500
G01 F60.00
G01 Z-0.0649
G01 F120.00
G01 X-52.2221 Y56.8500
G00 Z2.0000
G00 X-52.2250 Y56.7900
G01 F60.00
G01 Z-0.0649
G01 F120.00
G01 X-52.3350 Y56.7900
G01 X-52.3350 Y56.7300
G01 X-52.2250 Y56.7300
G01 X-52.2250 Y56.6700
G01 X-52.3350 Y56.6700
G01 X-52.3350 Y56.6100
G01 X-52.2250 Y56.6100
G01 X-52.2250 Y56.5500
G01 X-52.3350 Y56.5500
G01 X-52.3350 Y56.4900
G01 X-52.2250 Y56.4900
G01 X-52.2250 Y56.4300
G01 X-52.3350 Y56.4300
G01 X-52.3350 Y56.3700
G01 X-52.2250 Y56.3700
G01 X-52.2250 Y56.3100
G01 X-52.3350 Y56.3100
G01 X-52.3350 Y56.2500
G01 X-52.2250 Y56.2500
G01 X-52.2250 Y56.1900
G01 X-52.3350 Y56.1900
G01 X-52.3350 Y56.1300
G01 X-52.2250 Y56.1300
G01 X-52.2250 Y56.0700
G01 X-52.3350 Y56.0700
G01 X-52.3350 Y56.0100
G01 X-52.2250 Y56.0100
G00 Z2.0000
G00 X-52.2246 Y55.9500
G01 F60.00
G01 Z-0.0649
G01 F120.00
G01 X-52.3354 Y55.9500
G00 Z2.0000
G00 X-52.3464 Y55.8900
G01 F60.00
G01 Z-0.0649
G01 F120.00
G01 X-52.2136 Y55.8900
G00 Z2.0000
G00 X-52.1846 Y55.8300
G01 F60.00
G01 Z-0.0649
G01 F120.00
G01 X-52.3754 Y55.8300
G00 Z2.0000
G00 X-52.4331 Y55.7700
G01 F60.00
G01 Z-0.0649
G01 F120.00
G01 X-52.1269 Y55.7700
G00 Z2.0000
G00 X-50.9331 Y55.7700
G01 F60.00
G01 Z-0.0649
G01 F120.00
G01 X-50.6269 Y55.7700
G00 Z2.0000
G00 X-50.6846 Y55.8300
G01 F60.00
G01 Z-0.0649
G01 F120.00
G01 X-50.8754 Y55.8300
G00 Z2.0000
G00 X-50.8464 Y55.8900
G01 F60.00
G01 Z-0.0649
G01 F120.00
G01 X-50.7136 Y55.8900
G00 Z2.0000
G00 X-50.7246 Y55.9500
G01 F60.00
G01 Z-0.0649
G01 F120.00
G01 X-50.8354 Y55.9500
G00 Z2.0000
G00 X-50.8350 Y56.0100
G01 F60.00
G01 Z-0.0649
G01 F120.00
G01 X-50.7250 Y56.0100
G01 X-50.7250 Y56.0700
G01 X-50.8350 Y56.0700
G01 X-50.8350 Y56.1300
G01 X-50.7250 Y56.1300
G01 X-50.7250 Y56.1900
G01 X-50.8350 Y56.1900
G01 X-50.8350 Y56.2500
G01 X-50.7250 Y56.2500
G01 X-50.7250 Y56.3100
G01 X-50.8350 Y56.3100
G01 X-50.8350 Y56.3700
G01 X-50.7250 Y56.3700
G01 X-50.7250 Y56.4300
G01 X-50.8350 Y56.4300
G01 X-50.8350 Y56.4900
G01 X-50.7250 Y56.4900
G01 X-50.7250 Y56.5500
G01 X-50.8350 Y56.5500
G01 X-50.8350 Y56.6100
G01 X-50.7250 Y56.6100
G01 X-50.7250 Y56.6700
G01 X-50.8350 Y56.6700
G01 X-50.8350 Y56.7300
G01 X-50.7250 Y56.7300
G01 X-50.7250 Y56.7900
G01 X-50.8350 Y56.7900
G00 Z2.0000
G00 X-50.8379 Y56.8500
G01 F60.00
G01 Z-0.0649
G01 F120.00
G01 X-50.7221 Y56.8500
G00 Z2.0000
G00 X-50.7043 Y56.9100
G01 F60.00
G01 Z-0.0649
G01 F120.00
G01 X-50.8557 Y56.9100
G00 Z2.0000
G00 X-50.8940 Y56.9700
G01 F60.00
G01 Z-0.0649
G01 F120.00
G01 X-50.6689 Y56.9700
G01 X-50.6689 Y57.0300
G01 X-50.9151 Y57.0300
G01 X-50.9151 Y57.0900
G01 X-50.6689 Y57.0900
G01 X-50.6689 Y57.1500
G01 X-50.9151 Y57.1500
G01 X-50.9151 Y57.2100
G01 X-50.6689 Y57.2100
G01 X-50.6689 Y57.2700
G01 X-50.9151 Y57.2700
G01 X-50.9151 Y57.3300
G01 X-50.6689 Y57.3300
G01 X-50.6689 Y57.3900
G01 X-50.9151 Y57.3900
G01 X-50.9151 Y57.4500
G01 X-50.6689 Y57.4500
G01 X-50.6689 Y57.5100
G01 X-50.9151 Y57.5100
G01 X-50.9151 Y57.5700
G01 X-50.6689 Y57.5700
G01 X-50.6689 Y57.6300
G01 X-50.9151 Y57.6300
G01 X-50.9151 Y57.6900
G01 X-50.6689 Y57.6900
G01 X-50.6689 Y57.7500
G01 X-50.9151 Y57.7500
G01 X-50.9151 Y57.8100
G01 X-50.6689 Y57.8100
G01 X-50.6689 Y57.8700
G01 X-50.9151 Y57.8700
G01 X-50.9151 Y57.9300
G01 X-50.6689 Y57.9300
G01 X-50.6689 Y57.9900
G01 X-50.9151 Y57.9900
G01 X-50.9151 Y58.0500
G01 X-50.6689 Y58.0500
G01 X-50.6689 Y58.1100
G01 X-50.9151 Y58.1100
G01 X-50.9151 Y58.1700
G01 X-50.6689 Y58.1700
G01 X-50.6689 Y58.2300
G01 X-50.9151 Y58.2300
G01 X-50.9151 Y58.2900
G01 X-50.6689 Y58.2900
G01 X-50.6689 Y58.3500
G01 X-50.9151 Y58.3500
G01 X-50.9151 Y58.4100
G01 X-50.6689 Y58.4100
G01 X-50.6689 Y58.4700
G01 X-50.9151 Y58.4700
G01 X-50.9151 Y58.5300
G01 X-50.6689 Y58.5300
G01 X-50.6689 Y58.5900
G01 X-50.9151 Y58.5900
G01 X-50.9151 Y58.6500
G01 X-50.6689 Y58.6500
G01 X-50.6689 Y58.7100
G01 X-50.8884 Y58.7100
G00 Z2.0000
G00 X-50.8627 Y58.7700
G01 F60.00
G01 Z-0.0649
G01 F120.00
G01 X-50.6689 Y58.7700
G01 X-50.6689 Y58.8300
G01 X-50.8428 Y58.8300
G00 Z2.0000
G00 X-50.8284 Y58.8900
G01 F60.00
G01 Z-0.0649
G01 F120.00
G01 X-50.6689 Y58.8900
G01 X-50.6689 Y58.9500
G01 X-50.8194 Y58.9500
G00 Z2.0000
G00 X-52.1929 Y58.5900
G01 F60.00
G01 Z-0.0649
G01 F120.00
G01 X-55.3911 Y58.5900
G01 X-55.3911 Y58.5300
G01 X-52.1929 Y58.5300
G01 X-52.1929 Y58.4700
G01 X-55.3911 Y58.4700
G01 X-55.3911 Y58.4100
G01 X-52.1929 Y58.4100
G01 X-52.1929 Y58.3500
G01 X-55.3911 Y58.3500
G01 X-55.3911 Y58.2900
G01 X-52.1929 Y58.2900
G01 X-52.1929 Y58.2300
G01 X-55.3911 Y58.2300
G01 X-55.3911 Y58.1700
G01 X-52.1929 Y58.1700
G01 X-52.1929 Y58.1100
G01 X-55.3911 Y58.1100
G01 X-55.3911 Y58.0500
G01 X-52.1929 Y58.0500
G01 X-52.1929 Y57.9900
G01 X-55.3911 Y57.9900
G01 X-55.3911 Y57.9300
G01 X-52.1929 Y57.9300
G01 X-52.1929 Y57.8700
G01 X-55.3911 Y57.8700
G01 X-55.3911 Y57.8100
G01 X-52.1929 Y57.8100
G01 X-52.1929 Y57.7500
G01 X-55.3911 Y57.7500
G01 X-55.3911 Y57.6900
G01 X-52.1929 Y57.6900
G01 X-52.1929 Y57.6300
G01 X-55.3911 Y57.6300
G01 X-55.3911 Y57.5700
G01 X-52.1929 Y57.5700
G01 X-52.1929 Y57.5100
G01 X-55.3911 Y57.5100
G01 X-55.3911 Y57.4500
G01 X-52.1929 Y57.4500
G01 X-52.1929 Y57.3900
G01 X-55.3911 Y57.3900
G01 X-55.3911 Y57.3300
G01 X-52.1929 Y57.3300
G01 X-52.1929 Y57.2700
G01 X-55.3911 Y57.2700
G01 X-55.3911 Y57.2100
G01 X-52.1929 Y57.2100
G01 X-52.1929 Y57.1500
G01 X-55.3911 Y57.1500
G00 Z2.0000
G00 X-55.1269 Y55.7700
G01 F60.00
G01 Z-0.0649
G01 F120.00
G01 X-55.3911 Y55.7700
G01 X-55.3911 Y55.7100
G01 X-49.1689 Y55.7100
G01 X-49.1689 Y55.7700
G01 X-49.4331 Y55.7700
G00 Z2.0000
G00 X-49.3754 Y55.8300
G01 F60.00
G01 Z-0.0649
G01 F120.00
G01 X-49.1846 Y55.8300
G00 Z2.0000
G00 X-49.2136 Y55.8900
G01 F60.00
G01 Z-0.0649
G01 F120.00
G01 X-49.3464 Y55.8900
G00 Z2.0000
G00 X-49.3354 Y55.9500
G01 F60.00
G01 Z-0.0649
G01 F120.00
G01 X-49.2246 Y55.9500
G00 Z2.0000
G00 X-49.2250 Y56.0100
G01 F60.00
G01 Z-0.0649
G01 F120.00
G01 X-49.3350 Y56.0100
G01 X-49.3350 Y56.0700
G01 X-49.2250 Y56.0700
G01 X-49.2250 Y56.1300
G01 X-49.3350 Y56.1300
G01 X-49.3350 Y56.1900
G01 X-49.2250 Y56.1900
G01 X-49.2250 Y56.2500
G01 X-49.3350 Y56.2500
G01 X-49.3350 Y56.3100
G01 X-49.2250 Y56.3100
G01 X-49.2250 Y56.3700
G01 X-49.3350 Y56.3700
G01 X-49.3350 Y56.4300
G01 X-49.2250 Y56.4300
G01 X-49.2250 Y56.4900
G01 X-49.3350 Y56.4900
G01 X-49.3350 Y56.5500
G01 X-49.2250 Y56.5500
G01 X-49.2250 Y56.6100
G01 X-49.3350 Y56.6100
G01 X-49.3350 Y56.6700
G01 X-49.2250 Y56.6700
G01 X-49.2250 Y56.7300
G01 X-49.3350 Y56.7300
G01 X-49.3350 Y56.7900
G01 X-49.2250 Y56.7900
G00 Z2.0000
G00 X-49.2221 Y56.8500
G01 F60.00
G01 Z-0.0649
G01 F120.00
G01 X-49.3379 Y56.8500
G00 Z2.0000
G00 X-49.3557 Y56.9100
G01 F60.00
G01 Z-0.0649
G01 F120.00
G01 X-49.2043 Y56.9100
G00 Z2.0000
G00 X-49.1660 Y56.9700
G01 F60.00
G01 Z-0.0649
G01 F120.00
G01 X-49.3911 Y56.9700
G01 X-49.3911 Y57.0300
G01 X-49.0855 Y57.0300
G00 Z2.0000
G00 X-47.8940 Y56.9700
G01 F60.00
G01 Z-0.0649
G01 F120.00
G01 X-47.6689 Y56.9700
G01 X-47.6689 Y57.0300
G01 X-47.9745 Y57.0300
G01 X-47.6689 Y57.0900
G01 X-49.3911 Y57.0900
G01 X-49.3911 Y57.1500
G01 X-47.6689 Y57.1500
G01 X-47.6689 Y57.2100
G01 X-49.3911 Y57.2100
G01 X-49.3911 Y57.2700
G01 X-47.6689 Y57.2700
G01 X-47.6689 Y57.3300
G01 X-49.3911 Y57.3300
G01 X-49.3911 Y57.3900
G01 X-47.6689 Y57.3900
G01 X-47.6689 Y57.4500
G01 X-49.3911 Y57.4500
G01 X-49.3911 Y57.5100
G01 X-47.6689 Y57.5100
G01 X-47.6689 Y57.5700
G01 X-49.3911 Y57.5700
G01 X-49.3911 Y57.6300
G01 X-47.6689 Y57.6300
G01 X-47.6689 Y57.6900
G01 X-49.3911 Y57.6900
G01 X-49.3911 Y57.7500
G01 X-47.6689 Y57.7500
G01 X-47.6689 Y57.8100
G01 X-49.3911 Y57.8100
G01 X-49.3911 Y57.8700
G01 X-47.6689 Y57.8700
G01 X-47.6689 Y57.9300
G01 X-49.3911 Y57.9300
G01 X-49.3911 Y57.9900
G01 X-47.6689 Y57.9900
G01 X-47.6689 Y58.0500
G01 X-49.3911 Y58.0500
G01 X-49.3911 Y58.1100
G01 X-47.6689 Y58.1100
G01 X-47.6689 Y58.1700
G01 X-49.3911 Y58.1700
G01 X-49.3911 Y58.2300
G01 X-47.6689 Y58.2300
G01 X-47.6689 Y58.2900
G01 X-49.3911 Y58.2900
G01 X-49.3911 Y58.3500
G01 X-47.6689 Y58.3500
G01 X-47.6689 Y58.4100
G01 X-49.3911 Y58.4100
G01 X-49.3911 Y58.4700
G01 X-47.6689 Y58.4700
G01 X-47.6689 Y58.5300
G01 X-49.3911 Y58.5300
G01 X-49.3911 Y58.5900
G01 X-47.6689 Y58.5900
G01 X-47.6689 Y58.6500
G01 X-49.3911 Y58.6500
G01 X-49.3911 Y58.7100
G01 X-47.6689 Y58.7100
G01 X-47.6689 Y58.7700
G01 X-49.3911 Y58.7700
G01 X-49.3911 Y58.8300
G01 X-47.6689 Y58.8300
G01 X-47.6689 Y58.8900
G01 X-49.3911 Y58.8900
G01 X-49.3911 Y58.9500
G01 X-47.6689 Y58.9500
G00 Z2.0000
G00 X-46.1689 Y58.9500
G01 F60.00
G01 Z-0.0649
G01 F120.00
G01 X-46.3911 Y58.9500
G01 X-46.3911 Y58.8900
G01 X-46.1689 Y58.8900
G01 X-46.1689 Y58.8300
G01 X-46.3911 Y58.8300
G01 X-46.3911 Y58.7700
G01 X-46.1689 Y58.7700
G01 X-46.1689 Y58.7100
G01 X-46.3911 Y58.7100
G01 X-46.3911 Y58.6500
G01 X-46.1689 Y58.6500
G01 X-46.1689 Y58.5900
G01 X-46.3911 Y58.5900
G01 X-46.3911 Y58.5300
G01 X-46.1689 Y58.5300
G01 X-46.1689 Y58.4700
G01 X-46.3911 Y58.4700
G01 X-46.3911 Y58.4100
G01 X-46.1689 Y58.4100
G01 X-46.1689 Y58.3500
G01 X-46.3911 Y58.3500
G01 X-46.3911 Y58.2900
G01 X-46.1689 Y58.2900
G01 X-46.1689 Y58.2300
G01 X-46.3911 Y58.2300
G01 X-46.3911 Y58.1700
G01 X-46.1689 Y58.1700
G01 X-46.1689 Y58.1100
G01 X-46.3911 Y58.1100
G01 X-46.3911 Y58.0500
G01 X-46.1689 Y58.0500
G01 X-46.1689 Y57.9900
G01 X-46.3911 Y57.9900
G01 X-46.3911 Y57.9300
G01 X-46.1689 Y57.9300
G01 X-46.1689 Y57.8700
G01 X-46.3911 Y57.8700
G01 X-46.3911 Y57.8100
G01 X-46.1689 Y57.8100
G01 X-46.1689 Y57.7500
G01 X-46.3911 Y57.7500
G01 X-46.3911 Y57.6900
G01 X-46.1689 Y57.6900
G01 X-46.1689 Y57.6300
G01 X-46.3911 Y57.6300
G01 X-46.3911 Y57.5700
G01 X-46.1689 Y57.5700
G01 X-46.1689 Y57.5100
G01 X-46.3911 Y57.5100
G01 X-46.3911 Y57.4500
G01 X-46.1689 Y57.4500
G01 X-46.1689 Y57.3900
G01 X-46.3911 Y57.3900
G01 X-46.3911 Y57.3300
G01 X-46.1689 Y57.3300
G01 X-46.1689 Y57.2700
G01 X-46.3911 Y57.2700
G01 X-46.3911 Y57.2100
G01 X-46.1689 Y57.2100
G01 X-46.1689 Y57.1500
G01 X-46.3911 Y57.1500
G01 X-46.3911 Y57.0900
G01 X-46.1689 Y57.0900
G01 X-46.1689 Y57.0300
G01 X-46.3911 Y57.0300
G01 X-46.3911 Y56.9700
G01 X-46.1689 Y56.9700
G00 Z2.0000
G00 X-46.2043 Y56.9100
G01 F60.00
G01 Z-0.0649
G01 F120.00
G01 X-46.3557 Y56.9100
G00 Z2.0000
G00 X-46.3379 Y56.8500
G01 F60.00
G01 Z-0.0649
G01 F120.00
G01 X-46.2221 Y56.8500
G00 Z2.0000
G00 X-46.2250 Y56.7900
G01 F60.00
G01 Z-0.0649
G01 F120.00
G01 X-46.3350 Y56.7900
G01 X-46.3350 Y56.7300
G01 X-46.2250 Y56.7300
G01 X-46.2250 Y56.6700
G01 X-46.3350 Y56.6700
G01 X-46.3350 Y56.6100
G01 X-46.2250 Y56.6100
G01 X-46.2250 Y56.5500
G01 X-46.3350 Y56.5500
G01 X-46.3350 Y56.4900
G01 X-46.2250 Y56.4900
G01 X-46.2250 Y56.4300
G01 X-46.3350 Y56.4300
G01 X-46.3350 Y56.3700
G01 X-46.2250 Y56.3700
G01 X-46.2250 Y56.3100
G01 X-46.3350 Y56.3100
G01 X-46.3350 Y56.2500
G01 X-46.2250 Y56.2500
G01 X-46.2250 Y56.1900
G01 X-46.3350 Y56.1900
G01 X-46.3350 Y56.1300
G01 X-46.2250 Y56.1300
G01 X-46.2250 Y56.0700
G01 X-46.3350 Y56.0700
G01 X-46.3350 Y56.0100
G01 X-46.2250 Y56.0100
G00 Z2.0000
G00 X-46.2246 Y55.9500
G01 F60.00
G01 Z-0.0649
G01 F120.00
G01 X-46.3354 Y55.9500
G00 Z2.0000
G00 X-46.3464 Y55.8900
G01 F60.00
G01 Z-0.0649
G01 F120.00
G01 X-46.2136 Y55.8900
G00 Z2.0000
G00 X-46.1846 Y55.8300
G01 F60.00
G01 Z-0.0649
G01 F120.00
G01 X-46.3754 Y55.8300
G00 Z2.0000
G00 X-46.4331 Y55.7700
G01 F60.00
G01 Z-0.0649
G01 F120.00
G01 X-46.1269 Y55.7700
G00 Z2.0000
G00 X-45.9556 Y54.6900
G01 F60.00
G01 Z-0.0649
G01 F120.00
G01 X-41.0500 Y54.6900
G01 X-41.0500 Y54.6300
G01 X-45.8342 Y54.6300
G00 Z2.0000
G00 X-45.7493 Y54.5700
G01 F60.00
G01 Z-0.0649
G01 F120.00
G01 X-41.0500 Y54.5700
G01 X-41.0500 Y54.5100
G01 X-45.6845 Y54.5100
G01 X-45.6245 Y54.4500
G01 X-41.0500 Y54.4500
G01 X-41.0500 Y54.3900
G01 X-45.5645 Y54.3900
G01 X-45.5045 Y54.3300
G01 X-41.0500 Y54.3300
G01 X-41.0500 Y54.2700
G01 X-45.4445 Y54.2700
G01 X-45.3845 Y54.2100
G01 X-41.0500 Y54.2100
G01 X-41.0500 Y54.1500
G01 X-45.3245 Y54.1500
G01 X-45.2645 Y54.0900
G01 X-41.0500 Y54.0900
G01 X-41.0500 Y54.0300
G01 X-45.2045 Y54.0300
G01 X-45.1445 Y53.9700
G01 X-41.0500 Y53.9700
G01 X-41.0500 Y53.9100
G01 X-45.0845 Y53.9100
G01 X-45.0245 Y53.8500
G01 X-41.0500 Y53.8500
G01 X-41.0500 Y53.7900
G01 X-44.9645 Y53.7900
G01 X-44.9045 Y53.7300
G01 X-41.0500 Y53.7300
G01 X-41.0500 Y53.6700
G01 X-44.8445 Y53.6700
G01 X-44.7845 Y53.6100
G01 X-41.0500 Y53.6100
G01 X-41.0500 Y53.5500
G01 X-44.7245 Y53.5500
G01 X-44.6645 Y53.4900
G01 X-41.0500 Y53.4900
G01 X-41.0500 Y53.4300
G01 X-44.6045 Y53.4300
G01 X-44.5445 Y53.3700
G01 X-41.0500 Y53.3700
G01 X-41.0500 Y53.3100
G01 X-44.4845 Y53.3100
G01 X-44.4245 Y53.2500
G01 X-41.0500 Y53.2500
G01 X-41.0500 Y53.1900
G01 X-44.3645 Y53.1900
G01 X-44.3045 Y53.1300
G01 X-41.0500 Y53.1300
G01 X-41.0500 Y53.0700
G01 X-44.2445 Y53.0700
G00 Z2.0000
G00 X-46.3147 Y53.0500
G01 F60.00
G01 Z-0.0649
G01 F120.00
G01 X-48.6560 Y53.0500
G01 X-48.6560 Y53.2614
G01 X-46.5261 Y53.2614
G01 X-46.3147 Y53.0500
G01 X-46.3461 Y53.0814
G01 X-48.6560 Y53.0814
G01 X-48.6560 Y53.1414
G01 X-46.4061 Y53.1414
G01 X-46.4661 Y53.2014
G01 X-48.6560 Y53.2014
G00 Z2.0000
G00 X-47.8007 Y54.7500
G01 F60.00
G01 Z-0.0649
G01 F120.00
G01 X-41.0500 Y54.7500
G01 X-41.0500 Y54.8100
G01 X-47.7935 Y54.8100
G00 Z2.0000
G00 X-47.7911 Y54.8700
G01 F60.00
G01 Z-0.0649
G01 F120.00
G01 X-41.0500 Y54.8700
G01 X-41.0500 Y54.9300
G01 X-47.7940 Y54.9300
G00 Z2.0000
G00 X-47.8020 Y54.9900
G01 F60.00
G01 Z-0.0649
G01 F120.00
G01 X-41.0500 Y54.9900
G01 X-41.0500 Y55.0500
G01 X-47.8151 Y55.0500
G00 Z2.0000
G00 X-47.8333 Y55.1100
G01 F60.00
G01 Z-0.0649
G01 F120.00
G01 X-41.0500 Y55.1100
G01 X-41.0500 Y55.1700
G01 X-47.8573 Y55.1700
G00 Z2.0000
G00 X-47.8877 Y55.2300
G01 F60.00
G01 Z-0.0649
G01 F120.00
G01 X-41.0500 Y55.2300
G01 X-41.0500 Y55.2900
G01 X-47.8911 Y55.2900
G01 X-47.8911 Y55.3500
G01 X-41.0500 Y55.3500
G01 X-41.0500 Y55.4100
G01 X-47.8911 Y55.4100
G01 X-47.8911 Y55.4700
G01 X-41.0500 Y55.4700
G01 X-41.0500 Y55.5300
G01 X-47.8911 Y55.5300
G01 X-47.8911 Y55.5900
G01 X-41.0500 Y55.5900
G01 X-41.0500 Y55.6500
G01 X-47.8911 Y55.6500
G01 X-47.8911 Y55.7100
G01 X-41.0500 Y55.7100
G00 Z2.0000
G00 X-41.0500 Y57.0300
G01 F60.00
G01 Z-0.0649
G01 F120.00
G01 X-43.4745 Y57.0300
G00 Z2.0000
G00 X-44.5855 Y57.0300
G01 F60.00
G01 Z-0.0649
G01 F120.00
G01 X-44.8911 Y57.0300
G01 X-44.8911 Y57.0900
G01 X-41.0500 Y57.0900
G01 X-41.0500 Y57.1500
G01 X-44.8911 Y57.1500
G01 X-44.8911 Y57.2100
G01 X-41.0500 Y57.2100
G01 X-41.0500 Y57.2700
G01 X-44.8911 Y57.2700
G01 X-44.8911 Y57.3300
G01 X-41.0500 Y57.3300
G01 X-41.0500 Y57.3900
G01 X-44.8911 Y57.3900
G01 X-44.8911 Y57.4500
G01 X-41.0500 Y57.4500
G01 X-41.0500 Y57.5100
G01 X-44.8911 Y57.5100
G01 X-44.8911 Y57.5700
G01 X-41.0500 Y57.5700
G01 X-41.0500 Y57.6300
G01 X-44.8911 Y57.6300
G01 X-44.8911 Y57.6900
G01 X-41.0500 Y57.6900
G01 X-41.0500 Y57.7500
G01 X-44.8911 Y57.7500
G01 X-44.8911 Y57.8100
G01 X-41.0500 Y57.8100
G01 X-41.0500 Y57.8700
G01 X-44.8911 Y57.8700
G01 X-44.8911 Y57.9300
G01 X-41.0500 Y57.9300
G01 X-41.0500 Y57.9900
G01 X-44.8911 Y57.9900
G01 X-44.8911 Y58.0500
G01 X-41.0500 Y58.0500
G01 X-41.0500 Y58.1100
G01 X-44.8911 Y58.1100
G01 X-44.8911 Y58.1700
G01 X-41.0500 Y58.1700
G01 X-41.0500 Y58.2300
G01 X-44.8911 Y58.2300
G01 X-44.8911 Y58.2900
G01 X-41.0500 Y58.2900
G01 X-41.0500 Y58.3500
G01 X-44.8911 Y58.3500
G01 X-44.8911 Y58.4100
G01 X-41.0500 Y58.4100
G01 X-41.0500 Y58.4700
G01 X-44.8911 Y58.4700
G01 X-44.8911 Y58.5300
G01 X-41.0500 Y58.5300
G01 X-41.0500 Y58.5900
G01 X-44.8911 Y58.5900
G01 X-44.8911 Y58.6500
G01 X-41.0500 Y58.6500
G01 X-41.0500 Y58.7100
G01 X-44.8911 Y58.7100
G01 X-44.8911 Y58.7700
G01 X-41.0500 Y58.7700
G01 X-41.0500 Y58.8300
G01 X-44.8911 Y58.8300
G01 X-44.8911 Y58.8900
G01 X-41.0500 Y58.8900
G01 X-41.0500 Y58.9500
G01 X-44.8911 Y58.9500
G00 Z2.0000
G00 X-44.8911 Y56.9700
G01 F60.00
G01 Z-0.0649
G01 F120.00
G01 X-44.6660 Y56.9700
G00 Z2.0000
G00 X-44.7043 Y56.9100
G01 F60.00
G01 Z-0.0649
G01 F120.00
G01 X-44.8557 Y56.9100
G00 Z2.0000
G00 X-44.8379 Y56.8500
G01 F60.00
G01 Z-0.0649
G01 F120.00
G01 X-44.7221 Y56.8500
G00 Z2.0000
G00 X-44.8350 Y56.7900
G01 F60.00
G01 Z-0.0649
G01 F120.00
G01 X-44.7250 Y56.7900
G01 X-44.7250 Y56.7300
G01 X-44.8350 Y56.7300
G01 X-44.8350 Y56.6700
G01 X-44.7250 Y56.6700
G01 X-44.7250 Y56.6100
G01 X-44.8350 Y56.6100
G01 X-44.8350 Y56.5500
G01 X-44.7250 Y56.5500
G01 X-44.7250 Y56.4900
G01 X-44.8350 Y56.4900
G01 X-44.8350 Y56.4300
G01 X-44.7250 Y56.4300
G01 X-44.7250 Y56.3700
G01 X-44.8350 Y56.3700
G01 X-44.8350 Y56.3100
G01 X-44.7250 Y56.3100
G01 X-44.7250 Y56.2500
G01 X-44.8350 Y56.2500
G01 X-44.8350 Y56.1900
G01 X-44.7250 Y56.1900
G01 X-44.7250 Y56.1300
G01 X-44.8350 Y56.1300
G01 X-44.8350 Y56.0700
G01 X-44.7250 Y56.0700
G01 X-44.7250 Y56.0100
G01 X-44.8350 Y56.0100
G00 Z2.0000
G00 X-44.8354 Y55.9500
G01 F60.00
G01 Z-0.0649
G01 F120.00
G01 X-44.7246 Y55.9500
G00 Z2.0000
G00 X-44.7136 Y55.8900
G01 F60.00
G01 Z-0.0649
G01 F120.00
G01 X-44.8464 Y55.8900
G00 Z2.0000
G00 X-44.8754 Y55.8300
G01 F60.00
G01 Z-0.0649
G01 F120.00
G01 X-44.6846 Y55.8300
G00 Z2.0000
G00 X-44.6269 Y55.7700
G01 F60.00
G01 Z-0.0649
G01 F120.00
G01 X-44.9331 Y55.7700
G00 Z2.0000
G00 X-47.6269 Y55.7700
G01 F60.00
G01 Z-0.0649
G01 F120.00
G01 X-47.8911 Y55.7700
G00 Z2.0000
G00 X-47.8754 Y55.8300
G01 F60.00
G01 Z-0.0649
G01 F120.00
G01 X-47.6846 Y55.8300
G00 Z2.0000
G00 X-47.7136 Y55.8900
G01 F60.00
G01 Z-0.0649
G01 F120.00
G01 X-47.8464 Y55.8900
G00 Z2.0000
G00 X-47.8354 Y55.9500
G01 F60.00
G01 Z-0.0649
G01 F120.00
G01 X-47.7246 Y55.9500
G00 Z2.0000
G00 X-47.8350 Y56.0100
G01 F60.00
G01 Z-0.0649
G01 F120.00
G01 X-47.7250 Y56.0100
G01 X-47.7250 Y56.0700
G01 X-47.8350 Y56.0700
G01 X-47.8350 Y56.1300
G01 X-47.7250 Y56.1300
G01 X-47.7250 Y56.1900
G01 X-47.8350 Y56.1900
G01 X-47.8350 Y56.2500
G01 X-47.7250 Y56.2500
G01 X-47.7250 Y56.3100
G01 X-47.8350 Y56.3100
G01 X-47.8350 Y56.3700
G01 X-47.7250 Y56.3700
G01 X-47.7250 Y56.4300
G01 X-47.8350 Y56.4300
G01 X-47.8350 Y56.4900
G01 X-47.7250 Y56.4900
G01 X-47.7250 Y56.5500
G01 X-47.8350 Y56.5500
G01 X-47.8350 Y56.6100
G01 X-47.7250 Y56.6100
G01 X-47.7250 Y56.6700
G01 X-47.8350 Y56.6700
G01 X-47.8350 Y56.7300
G01 X-47.7250 Y56.7300
G01 X-47.7250 Y56.7900
G01 X-47.8350 Y56.7900
G00 Z2.0000
G00 X-47.8379 Y56.8500
G01 F60.00
G01 Z-0.0649
G01 F120.00
G01 X-47.7221 Y56.8500
G00 Z2.0000
G00 X-47.7043 Y56.9100
G01 F60.00
G01 Z-0.0649
G01 F120.00
G01 X-47.8557 Y56.9100
G00 Z2.0000
G00 X-53.5855 Y57.0300
G01 F60.00
G01 Z-0.0649
G01 F120.00
G01 X-53.9745 Y57.0300
G00 Z2.0000
G00 X-53.8940 Y56.9700
G01 F60.00
G01 Z-0.0649
G01 F120.00
G01 X-53.6660 Y56.9700
G00 Z2.0000
G00 X-53.7043 Y56.9100
G01 F60.00
G01 Z-0.0649
G01 F120.00
G01 X-53.8557 Y56.9100
G00 Z2.0000
G00 X-53.8379 Y56.8500
G01 F60.00
G01 Z-0.0649
G01 F120.00
G01 X-53.7221 Y56.8500
G00 Z2.0000
G00 X-53.8350 Y56.7900
G01 F60.00
G01 Z-0.0649
G01 F120.00
G01 X-53.7250 Y56.7900
G01 X-53.7250 Y56.7300
G01 X-53.8350 Y56.7300
G01 X-53.8350 Y56.6700
G01 X-53.7250 Y56.6700
G01 X-53.7250 Y56.6100
G01 X-53.8350 Y56.6100
G01 X-53.8350 Y56.5500
G01 X-53.7250 Y56.5500
G01 X-53.7250 Y56.4900
G01 X-53.8350 Y56.4900
G01 X-53.8350 Y56.4300
G01 X-53.7250 Y56.4300
G01 X-53.7250 Y56.3700
G01 X-53.8350 Y56.3700
G01 X-53.8350 Y56.3100
G01 X-53.7250 Y56.3100
G01 X-53.7250 Y56.2500
G01 X-53.8350 Y56.2500
G01 X-53.8350 Y56.1900
G01 X-53.7250 Y56.1900
G01 X-53.7250 Y56.1300
G01 X-53.8350 Y56.1300
G01 X-53.8350 Y56.0700
G01 X-53.7250 Y56.0700
G01 X-53.7250 Y56.0100
G01 X-53.8350 Y56.0100
G00 Z2.0000
G00 X-53.8354 Y55.9500
G01 F60.00
G01 Z-0.0649
G01 F120.00
G01 X-53.7246 Y55.9500
G00 Z2.0000
G00 X-53.7249 Y55.9577
G01 F60.00
G01 Z-0.0649
G01 F120.00
G01 X-53.7238 Y55.9389
G01 X-53.7223 Y55.9273
G01 X-53.7205 Y55.9169
G01 X-53.7162 Y55.8986
G01 X-53.7129 Y55.8879
G01 X-53.7092 Y55.8776
G01 X-53.7018 Y55.8603
G01 X-53.6965 Y55.8498
G01 X-53.6907 Y55.8396
G01 X-53.6848 Y55.8303
G01 X-53.6782 Y55.8210
G01 X-53.6666 Y55.8065
G01 X-53.6587 Y55.7979
G01 X-53.6513 Y55.7904
G01 X-53.6426 Y55.7825
G01 X-53.6336 Y55.7751
G01 X-53.6184 Y55.7641
G01 X-53.6084 Y55.7578
G01 X-53.5993 Y55.7527
G01 X-53.5824 Y55.7444
G01 X-53.5716 Y55.7400
G01 X-53.5613 Y55.7363
G01 X-53.5504 Y55.7330
G01 X-53.5392 Y55.7301
G01 X-53.5207 Y55.7267
G01 X-53.5032 Y55.7248
G01 X-53.4862 Y55.7242
G01 X-52.5738 Y55.7242
G01 X-52.5626 Y55.7244
G01 X-52.5451 Y55.7259
G01 X-52.5278 Y55.7287
G01 X-52.5107 Y55.7327
G01 X-52.4939 Y55.7379
G01 X-52.4775 Y55.7444
G01 X-52.4618 Y55.7521
G01 X-52.4466 Y55.7609
G01 X-52.4319 Y55.7709
G01 X-52.4227 Y55.7781
G01 X-52.4130 Y55.7864
G01 X-52.4013 Y55.7979
G01 X-52.3934 Y55.8065
G01 X-52.3852 Y55.8165
G01 X-52.3756 Y55.8298
G01 X-52.3687 Y55.8407
G01 X-52.3629 Y55.8509
G01 X-52.3577 Y55.8614
G01 X-52.3513 Y55.8764
G01 X-52.3471 Y55.8879
G01 X-52.3435 Y55.8998
G01 X-52.3397 Y55.9157
G01 X-52.3377 Y55.9273
G01 X-52.3362 Y55.9389
G01 X-52.3353 Y55.9518
G01 X-52.3350 Y55.9629
G01 X-52.3350 Y56.8129
G01 X-52.3353 Y56.8240
G01 X-52.3368 Y56.8415
G01 X-52.3395 Y56.8589
G01 X-52.3435 Y56.8760
G01 X-52.3488 Y56.8927
G01 X-52.3553 Y56.9091
G01 X-52.3629 Y56.9249
G01 X-52.3717 Y56.9401
G01 X-52.3818 Y56.9548
G01 X-52.3889 Y56.9640
G01 X-52.3973 Y56.9737
G01 X-52.4087 Y56.9854
G01 X-52.4174 Y56.9933
G01 X-52.4274 Y57.0015
G01 X-52.4406 Y57.0110
G01 X-52.4516 Y57.0180
G01 X-52.4618 Y57.0237
G01 X-52.4765 Y57.0309
G01 X-52.4873 Y57.0354
G01 X-52.4987 Y57.0395
G01 X-52.5107 Y57.0431
G01 X-52.5220 Y57.0460
G01 X-52.5381 Y57.0489
G01 X-52.5510 Y57.0505
G01 X-52.5626 Y57.0514
G01 X-52.5738 Y57.0516
G01 X-53.4862 Y57.0516
