(Block-name: Header)
(Block-expand: 0)
(Block-enable: 1)
(G-CODE GENERATED BY FLATCAM v8.993 - www.flatcam.org - Version Date: 2020/08/01)

(Name: Wasserhahn-B_Cu.gbl_iso_ncc_cnc)
(Type: G-code from Geometry)
(Units: MM)

(Created on Samstag, 16 Mai 2020 at 21:12)

(This preprocessor is the default preprocessor used by FlatCAM.)
(It is made to work with MACH3 compatible motion controllers.)

(TOOL DIAMETER: 0.2 mm)
(Feedrate_XY: 120.0 mm/min)
(Feedrate_Z: 60.0 mm/min)
(Feedrate rapids 1500.0 mm/min)

(Z_Cut: -0.1866 mm)
(Z_Move: 2.0 mm)
(Z Start: None mm)
(Z End: 15.0 mm)
(Steps per circle: 64)
(Preprocessor Geometry: default)

(X range:  116.8350 ...  186.3520  mm)
(Y range: -105.5343 ...  -29.0400  mm)

(Spindle Speed: None RPM)
G21
G90
G94



G01 F120.00
G00 Z2.0000
(Block-name: block)
(Block-expand: 0)
(Block-enable: 1)

M03
G00 X117.2036 Y-53.3038
G01 F60.00
G01 Z-0.1866
G01 F120.00
G01 X117.2201 Y-53.4154
G01 X117.2225 Y-53.4290
G01 X117.2255 Y-53.4424
G01 X117.2529 Y-53.5519
G01 X117.2566 Y-53.5651
G01 X117.2609 Y-53.5782
G01 X117.2989 Y-53.6844
G01 X117.3039 Y-53.6972
G01 X117.3094 Y-53.7098
G01 X117.3577 Y-53.8118
G01 X117.3639 Y-53.8241
G01 X117.3706 Y-53.8361
G01 X117.4286 Y-53.9329
G01 X117.4360 Y-53.9445
G01 X117.4439 Y-53.9557
G01 X117.5111 Y-54.0463
G01 X117.5196 Y-54.0572
G01 X117.5286 Y-54.0676
G01 X117.6044 Y-54.1512
G01 X117.6138 Y-54.1612
G01 X117.6238 Y-54.1706
G01 X117.7074 Y-54.2464
G01 X117.7178 Y-54.2554
G01 X117.7287 Y-54.2639
G01 X117.8193 Y-54.3311
G01 X117.8305 Y-54.3390
G01 X117.8421 Y-54.3464
G01 X117.9389 Y-54.4044
G01 X117.9509 Y-54.4111
G01 X117.9632 Y-54.4173
G01 X118.0652 Y-54.4656
G01 X118.0778 Y-54.4711
G01 X118.0906 Y-54.4761
G01 X118.1968 Y-54.5141
G01 X118.2099 Y-54.5184
G01 X118.2231 Y-54.5221
G01 X118.3326 Y-54.5495
G01 X118.3460 Y-54.5525
G01 X118.3596 Y-54.5549
G01 X118.4712 Y-54.5714
G01 X118.4848 Y-54.5731
G01 X118.4985 Y-54.5741
G01 X118.6113 Y-54.5797
G01 X118.6250 Y-54.5800
G01 X118.6387 Y-54.5797
G01 X118.7515 Y-54.5741
G01 X118.7652 Y-54.5731
G01 X118.7788 Y-54.5714
G01 X118.8904 Y-54.5549
G01 X118.9040 Y-54.5525
G01 X118.9174 Y-54.5495
G01 X119.0269 Y-54.5221
G01 X119.0401 Y-54.5184
G01 X119.0532 Y-54.5141
G01 X119.1594 Y-54.4761
G01 X119.1722 Y-54.4711
G01 X119.1848 Y-54.4656
G01 X119.2868 Y-54.4173
G01 X119.2991 Y-54.4111
G01 X119.3111 Y-54.4044
G01 X119.4079 Y-54.3464
G01 X119.4195 Y-54.3390
G01 X119.4307 Y-54.3311
G01 X119.5213 Y-54.2639
G01 X119.5322 Y-54.2554
G01 X119.5426 Y-54.2464
G01 X119.6262 Y-54.1706
G01 X119.6362 Y-54.1612
G01 X119.6456 Y-54.1512
G01 X119.7214 Y-54.0676
G01 X119.7304 Y-54.0572
G01 X119.7389 Y-54.0463
G01 X119.8061 Y-53.9557
G01 X119.8140 Y-53.9445
G01 X119.8214 Y-53.9329
G01 X119.8794 Y-53.8361
G01 X119.8861 Y-53.8241
G01 X119.8923 Y-53.8118
G01 X119.9406 Y-53.7098
G01 X119.9461 Y-53.6972
G01 X119.9511 Y-53.6844
G01 X119.9891 Y-53.5782
G01 X119.9934 Y-53.5651
G01 X119.9971 Y-53.5519
G01 X120.0245 Y-53.4424
G01 X120.0275 Y-53.4290
G01 X120.0299 Y-53.4154
G01 X120.0464 Y-53.3038
G01 X120.0481 Y-53.2902
G01 X120.0491 Y-53.2765
G01 X120.0547 Y-53.1637
G01 X120.0550 Y-53.1500
G01 X120.0547 Y-53.1363
G01 X120.0491 Y-53.0235
G01 X120.0481 Y-53.0098
G01 X120.0464 Y-52.9962
G01 X120.0299 Y-52.8846
G01 X120.0275 Y-52.8710
G01 X120.0245 Y-52.8576
G01 X119.9971 Y-52.7481
G01 X119.9934 Y-52.7349
G01 X119.9891 Y-52.7218
G01 X119.9511 Y-52.6156
G01 X119.9461 Y-52.6028
G01 X119.9406 Y-52.5902
G01 X119.8923 Y-52.4882
G01 X119.8861 Y-52.4759
G01 X119.8794 Y-52.4639
G01 X119.8214 Y-52.3671
G01 X119.8140 Y-52.3555
G01 X119.8061 Y-52.3443
G01 X119.7389 Y-52.2537
G01 X119.7304 Y-52.2428
G01 X119.7214 Y-52.2324
G01 X119.6456 Y-52.1488
G01 X119.6362 Y-52.1388
G01 X119.6262 Y-52.1294
G01 X119.5426 Y-52.0536
G01 X119.5322 Y-52.0446
G01 X119.5213 Y-52.0361
G01 X119.4307 Y-51.9689
G01 X119.4195 Y-51.9610
G01 X119.4053 Y-51.9521
G01 X119.4053 Y-46.1632
G01 X124.1482 Y-41.4203
G01 X136.4541 Y-41.4203
G01 X136.5044 Y-41.4659
G01 X136.5149 Y-41.4749
G01 X136.5257 Y-41.4833
G01 X136.5887 Y-41.5301
G01 X136.6000 Y-41.5380
G01 X136.6116 Y-41.5453
G01 X136.6789 Y-41.5857
G01 X136.6909 Y-41.5925
G01 X136.7032 Y-41.5987
G01 X136.7741 Y-41.6322
G01 X136.7867 Y-41.6378
G01 X136.7995 Y-41.6427
G01 X136.8734 Y-41.6692
G01 X136.8865 Y-41.6735
G01 X136.8997 Y-41.6772
G01 X136.9759 Y-41.6962
G01 X136.9893 Y-41.6992
G01 X137.0028 Y-41.7016
G01 X137.0805 Y-41.7131
G01 X137.0941 Y-41.7148
G01 X137.1078 Y-41.7158
G01 X137.1863 Y-41.7197
G01 X137.2000 Y-41.7200
G01 X137.2137 Y-41.7197
G01 X137.2922 Y-41.7158
G01 X137.3059 Y-41.7148
G01 X137.3195 Y-41.7131
G01 X137.3972 Y-41.7016
G01 X137.4107 Y-41.6992
G01 X137.4241 Y-41.6962
G01 X137.5003 Y-41.6772
G01 X137.5135 Y-41.6735
G01 X137.5266 Y-41.6692
G01 X137.6005 Y-41.6427
G01 X137.6133 Y-41.6378
G01 X137.6259 Y-41.6322
G01 X137.6968 Y-41.5987
G01 X137.7091 Y-41.5925
G01 X137.7211 Y-41.5857
G01 X137.7884 Y-41.5453
G01 X137.8000 Y-41.5380
G01 X137.8113 Y-41.5301
G01 X137.8743 Y-41.4833
G01 X137.8851 Y-41.4749
G01 X137.8956 Y-41.4659
G01 X137.9537 Y-41.4132
G01 X137.9685 Y-41.3988
G01 X138.0259 Y-41.3356
G01 X138.0349 Y-41.3251
G01 X138.0433 Y-41.3143
G01 X138.0901 Y-41.2513
G01 X138.0980 Y-41.2400
G01 X138.1053 Y-41.2284
G01 X138.1457 Y-41.1611
G01 X138.1525 Y-41.1491
G01 X138.1587 Y-41.1368
G01 X138.1922 Y-41.0659
G01 X138.1978 Y-41.0533
G01 X138.2027 Y-41.0405
G01 X138.2292 Y-40.9666
G01 X138.2335 Y-40.9535
G01 X138.2372 Y-40.9403
G01 X138.2562 Y-40.8641
G01 X138.2592 Y-40.8507
G01 X138.2616 Y-40.8372
G01 X138.2731 Y-40.7595
G01 X138.2748 Y-40.7459
G01 X138.2758 Y-40.7322
G01 X138.2799 Y-40.6469
G01 X138.2797 Y-40.6263
G01 X138.2758 Y-40.5478
G01 X138.2748 Y-40.5341
G01 X138.2731 Y-40.5205
G01 X138.2616 Y-40.4428
G01 X138.2592 Y-40.4293
G01 X138.2562 Y-40.4159
G01 X138.2372 Y-40.3397
G01 X138.2335 Y-40.3265
G01 X138.2292 Y-40.3134
G01 X138.2003 Y-40.2331
G01 X138.1922 Y-40.2141
G01 X138.1587 Y-40.1432
G01 X138.1525 Y-40.1309
G01 X138.1457 Y-40.1189
G01 X138.1017 Y-40.0457
G01 X138.0901 Y-40.0287
G01 X138.0433 Y-39.9657
G01 X138.0349 Y-39.9549
G01 X138.0259 Y-39.9444
G01 X137.9803 Y-39.8941
G01 X137.9803 Y-31.3982
G01 X138.1182 Y-31.2603
G01 X159.2397 Y-31.2603
G01 X159.2397 Y-33.4735
G01 X159.2259 Y-33.4862
G01 X159.2162 Y-33.4959
G01 X159.1555 Y-33.5627
G01 X159.1465 Y-33.5731
G01 X159.1380 Y-33.5840
G01 X159.0884 Y-33.6510
G01 X159.0767 Y-33.6680
G01 X159.0302 Y-33.7454
G01 X159.0234 Y-33.7573
G01 X159.0173 Y-33.7696
G01 X158.9816 Y-33.8450
G01 X158.9760 Y-33.8576
G01 X158.9711 Y-33.8704
G01 X158.9430 Y-33.9489
G01 X158.9387 Y-33.9620
G01 X158.9350 Y-33.9752
G01 X158.9147 Y-34.0561
G01 X158.9117 Y-34.0695
G01 X158.9094 Y-34.0831
G01 X158.8971 Y-34.1656
G01 X158.8954 Y-34.1792
G01 X158.8944 Y-34.1929
G01 X158.8903 Y-34.2763
G01 X158.8900 Y-34.2900
G01 X158.8903 Y-34.3037
G01 X158.8944 Y-34.3871
G01 X158.8954 Y-34.4008
G01 X158.8971 Y-34.4144
G01 X158.9094 Y-34.4969
G01 X158.9117 Y-34.5105
G01 X158.9147 Y-34.5239
G01 X158.9350 Y-34.6048
G01 X158.9387 Y-34.6180
G01 X158.9430 Y-34.6311
G01 X158.9711 Y-34.7096
G01 X158.9760 Y-34.7224
G01 X158.9816 Y-34.7350
G01 X159.0173 Y-34.8104
G01 X159.0234 Y-34.8227
G01 X159.0302 Y-34.8346
G01 X159.0731 Y-34.9062
G01 X159.0804 Y-34.9178
G01 X159.0884 Y-34.9290
G01 X159.1380 Y-34.9960
G01 X159.1465 Y-35.0069
G01 X159.1555 Y-35.0173
G01 X159.2115 Y-35.0791
G01 X159.2210 Y-35.0890
G01 X159.2309 Y-35.0985
G01 X159.2927 Y-35.1545
G01 X159.3031 Y-35.1635
G01 X159.3140 Y-35.1720
G01 X159.3810 Y-35.2216
G01 X159.3922 Y-35.2296
G01 X159.4038 Y-35.2369
G01 X159.4754 Y-35.2798
G01 X159.4873 Y-35.2866
G01 X159.4996 Y-35.2927
G01 X159.5750 Y-35.3284
G01 X159.5876 Y-35.3340
G01 X159.6004 Y-35.3389
G01 X159.6789 Y-35.3670
G01 X159.6920 Y-35.3713
G01 X159.7052 Y-35.3750
G01 X159.7861 Y-35.3953
G01 X159.7995 Y-35.3983
G01 X159.8131 Y-35.4006
G01 X159.8956 Y-35.4129
G01 X159.9092 Y-35.4146
G01 X159.9229 Y-35.4156
G01 X160.0063 Y-35.4197
G01 X160.0200 Y-35.4200
G01 X160.0337 Y-35.4197
G01 X160.1171 Y-35.4156
G01 X160.1308 Y-35.4146
G01 X160.1444 Y-35.4129
G01 X160.2269 Y-35.4006
G01 X160.2405 Y-35.3983
G01 X160.2539 Y-35.3953
G01 X160.3348 Y-35.3750
G01 X160.3480 Y-35.3713
G01 X160.3611 Y-35.3670
G01 X160.4396 Y-35.3389
G01 X160.4524 Y-35.3340
G01 X160.4650 Y-35.3284
G01 X160.5404 Y-35.2927
G01 X160.5527 Y-35.2866
G01 X160.5646 Y-35.2798
G01 X160.6362 Y-35.2369
G01 X160.6478 Y-35.2296
G01 X160.6590 Y-35.2216
G01 X160.7260 Y-35.1720
G01 X160.7369 Y-35.1635
G01 X160.7473 Y-35.1545
G01 X160.8091 Y-35.0985
G01 X160.8190 Y-35.0890
G01 X160.8285 Y-35.0791
G01 X160.8845 Y-35.0173
G01 X160.8935 Y-35.0069
G01 X160.9020 Y-34.9960
G01 X160.9516 Y-34.9290
G01 X160.9596 Y-34.9178
G01 X160.9669 Y-34.9062
G01 X161.0098 Y-34.8346
G01 X161.0166 Y-34.8227
G01 X161.0227 Y-34.8104
G01 X161.0584 Y-34.7350
G01 X161.0640 Y-34.7224
G01 X161.0689 Y-34.7096
G01 X161.0970 Y-34.6311
G01 X161.1013 Y-34.6180
G01 X161.1050 Y-34.6048
G01 X161.1253 Y-34.5239
G01 X161.1283 Y-34.5105
G01 X161.1306 Y-34.4969
G01 X161.1429 Y-34.4144
G01 X161.1446 Y-34.4008
G01 X161.1456 Y-34.3871
G01 X161.1497 Y-34.3037
G01 X161.1500 Y-34.2900
G01 X161.1497 Y-34.2763
G01 X161.1456 Y-34.1929
G01 X161.1446 Y-34.1792
G01 X161.1429 Y-34.1656
G01 X161.1306 Y-34.0831
G01 X161.1283 Y-34.0695
G01 X161.1253 Y-34.0561
G01 X161.1050 Y-33.9752
G01 X161.1013 Y-33.9620
G01 X161.0970 Y-33.9489
G01 X161.0689 Y-33.8704
G01 X161.0640 Y-33.8576
G01 X161.0584 Y-33.8450
G01 X161.0227 Y-33.7696
G01 X161.0166 Y-33.7573
G01 X161.0098 Y-33.7454
G01 X160.9633 Y-33.6680
G01 X160.9516 Y-33.6510
G01 X160.9020 Y-33.5840
G01 X160.8935 Y-33.5731
G01 X160.8845 Y-33.5627
G01 X160.8238 Y-33.4959
G01 X160.8141 Y-33.4862
G01 X160.8003 Y-33.4735
G01 X160.8003 Y-31.2603
G01 X171.9741 Y-31.2603
G01 X172.0244 Y-31.3059
G01 X172.0349 Y-31.3149
G01 X172.0457 Y-31.3233
G01 X172.1087 Y-31.3701
G01 X172.1200 Y-31.3780
G01 X172.1316 Y-31.3853
G01 X172.1989 Y-31.4257
G01 X172.2109 Y-31.4325
G01 X172.2232 Y-31.4387
G01 X172.2941 Y-31.4722
G01 X172.3067 Y-31.4778
G01 X172.3195 Y-31.4827
G01 X172.3934 Y-31.5092
G01 X172.4065 Y-31.5135
G01 X172.4197 Y-31.5172
G01 X172.4959 Y-31.5362
G01 X172.5093 Y-31.5392
G01 X172.5228 Y-31.5416
G01 X172.6005 Y-31.5531
G01 X172.6141 Y-31.5548
G01 X172.6278 Y-31.5558
G01 X172.7063 Y-31.5597
G01 X172.7200 Y-31.5600
G01 X172.7337 Y-31.5597
G01 X172.8122 Y-31.5558
G01 X172.8259 Y-31.5548
G01 X172.8395 Y-31.5531
G01 X172.9172 Y-31.5416
G01 X172.9307 Y-31.5392
G01 X172.9441 Y-31.5362
G01 X173.0203 Y-31.5172
G01 X173.0335 Y-31.5135
G01 X173.0466 Y-31.5092
G01 X173.1205 Y-31.4827
G01 X173.1333 Y-31.4778
G01 X173.1459 Y-31.4722
G01 X173.2168 Y-31.4387
G01 X173.2291 Y-31.4325
G01 X173.2411 Y-31.4257
G01 X173.3084 Y-31.3853
G01 X173.3200 Y-31.3780
G01 X173.3313 Y-31.3701
G01 X173.3943 Y-31.3233
G01 X173.4051 Y-31.3149
G01 X173.4156 Y-31.3059
G01 X173.4659 Y-31.2603
G01 X184.1317 Y-31.2603
G01 X184.1317 Y-81.8041
G01 X184.0861 Y-81.8544
G01 X184.0771 Y-81.8649
G01 X184.0687 Y-81.8757
G01 X184.0219 Y-81.9387
G01 X184.0140 Y-81.9500
G01 X184.0067 Y-81.9616
G01 X183.9663 Y-82.0289
G01 X183.9595 Y-82.0409
G01 X183.9533 Y-82.0532
G01 X183.9198 Y-82.1241
G01 X183.9142 Y-82.1367
G01 X183.9093 Y-82.1495
G01 X183.8828 Y-82.2234
G01 X183.8785 Y-82.2365
G01 X183.8748 Y-82.2497
G01 X183.8558 Y-82.3259
G01 X183.8528 Y-82.3393
G01 X183.8504 Y-82.3528
G01 X183.8389 Y-82.4305
G01 X183.8372 Y-82.4441
G01 X183.8362 Y-82.4578
G01 X183.8323 Y-82.5363
G01 X183.8320 Y-82.5500
G01 X183.8323 Y-82.5637
G01 X183.8362 Y-82.6422
G01 X183.8372 Y-82.6559
G01 X183.8389 Y-82.6695
G01 X183.8504 Y-82.7472
G01 X183.8528 Y-82.7607
G01 X183.8558 Y-82.7741
G01 X183.8748 Y-82.8503
G01 X183.8785 Y-82.8635
G01 X183.8828 Y-82.8766
G01 X183.9093 Y-82.9505
G01 X183.9142 Y-82.9633
G01 X183.9198 Y-82.9759
G01 X183.9533 Y-83.0468
G01 X183.9595 Y-83.0591
G01 X183.9663 Y-83.0711
G01 X184.0067 Y-83.1384
G01 X184.0140 Y-83.1500
G01 X184.0219 Y-83.1613
G01 X184.0687 Y-83.2243
G01 X184.0771 Y-83.2351
G01 X184.0861 Y-83.2456
G01 X184.1317 Y-83.2959
G01 X184.1317 Y-102.2928
G01 X182.8108 Y-103.6137
G01 X144.0872 Y-103.6137
G01 X140.8034 Y-100.3300
G01 X142.7818 Y-98.3517
G01 X142.8096 Y-98.3309
G01 X142.8202 Y-98.3222
G01 X142.8618 Y-98.2847
G01 X142.8717 Y-98.2752
G01 X142.8812 Y-98.2652
G01 X142.9142 Y-98.2289
G01 X142.9231 Y-98.2185
G01 X142.9316 Y-98.2076
G01 X142.9608 Y-98.1682
G01 X142.9725 Y-98.1512
G01 X143.0013 Y-98.1032
G01 X143.0113 Y-98.0852
G01 X143.0381 Y-98.0284
G01 X143.0458 Y-98.0092
G01 X143.0646 Y-97.9565
G01 X143.0703 Y-97.9367
G01 X143.0822 Y-97.8891
G01 X143.0853 Y-97.8757
G01 X143.0876 Y-97.8622
G01 X143.0948 Y-97.8136
G01 X143.0965 Y-97.8000
G01 X143.0975 Y-97.7862
G01 X143.0999 Y-97.7372
G01 X143.1003 Y-97.7235
G01 X143.1003 Y-97.2576
G01 X143.1862 Y-97.2061
G01 X143.1978 Y-97.1987
G01 X143.2090 Y-97.1908
G01 X143.3115 Y-97.1148
G01 X143.3223 Y-97.1064
G01 X143.3327 Y-97.0974
G01 X143.4273 Y-97.0117
G01 X143.4372 Y-97.0022
G01 X143.4467 Y-96.9923
G01 X143.5324 Y-96.8977
G01 X143.5414 Y-96.8873
G01 X143.5498 Y-96.8765
G01 X143.6258 Y-96.7740
G01 X143.6337 Y-96.7628
G01 X143.6411 Y-96.7512
G01 X143.7067 Y-96.6418
G01 X143.7134 Y-96.6298
G01 X143.7196 Y-96.6175
G01 X143.7742 Y-96.5022
G01 X143.7797 Y-96.4896
G01 X143.7847 Y-96.4768
G01 X143.8277 Y-96.3567
G01 X143.8320 Y-96.3436
G01 X143.8356 Y-96.3304
G01 X143.8666 Y-96.2067
G01 X143.8696 Y-96.1932
G01 X143.8720 Y-96.1797
G01 X143.8907 Y-96.0535
G01 X143.8924 Y-96.0399
G01 X143.8934 Y-96.0262
G01 X143.8997 Y-95.8987
G01 X143.9000 Y-95.8850
G01 X143.8997 Y-95.8713
G01 X143.8934 Y-95.7438
G01 X143.8924 Y-95.7301
G01 X143.8907 Y-95.7165
G01 X143.8720 Y-95.5903
G01 X143.8696 Y-95.5768
G01 X143.8666 Y-95.5633
G01 X143.8356 Y-95.4396
G01 X143.8320 Y-95.4264
G01 X143.8277 Y-95.4133
G01 X143.7847 Y-95.2932
G01 X143.7797 Y-95.2804
G01 X143.7742 Y-95.2678
G01 X143.7196 Y-95.1525
G01 X143.7101 Y-95.1342
G01 X143.6375 Y-95.0130
G01 X143.6298 Y-95.0015
G01 X143.6137 Y-94.9797
G01 X145.1032 Y-93.4903
G01 X150.8068 Y-93.4903
G01 X152.5409 Y-95.2244
G01 X152.5401 Y-95.2431
G01 X152.5401 Y-95.2569
G01 X152.5449 Y-95.3539
G01 X152.5471 Y-95.3744
G01 X152.5605 Y-95.4637
G01 X152.5647 Y-95.4839
G01 X152.5850 Y-95.5648
G01 X152.5887 Y-95.5780
G01 X152.5930 Y-95.5911
G01 X152.6211 Y-95.6696
G01 X152.6260 Y-95.6824
G01 X152.6316 Y-95.6950
G01 X152.6673 Y-95.7704
G01 X152.6734 Y-95.7827
G01 X152.6802 Y-95.7946
G01 X152.7231 Y-95.8662
G01 X152.7343 Y-95.8835
G01 X152.7880 Y-95.9560
G01 X152.8009 Y-95.9721
G01 X152.8662 Y-96.0441
G01 X152.8759 Y-96.0538
G01 X152.8897 Y-96.0665
G01 X152.8897 Y-96.9735
G01 X152.8759 Y-96.9862
G01 X152.8662 Y-96.9959
G01 X152.8009 Y-97.0679
G01 X152.7880 Y-97.0840
G01 X152.7343 Y-97.1565
G01 X152.7231 Y-97.1738
G01 X152.6802 Y-97.2454
G01 X152.6734 Y-97.2573
G01 X152.6673 Y-97.2696
G01 X152.6287 Y-97.3513
G01 X152.6211 Y-97.3704
G01 X152.5930 Y-97.4489
G01 X152.5887 Y-97.4620
G01 X152.5850 Y-97.4752
G01 X152.5647 Y-97.5561
G01 X152.5617 Y-97.5695
G01 X152.5594 Y-97.5831
G01 X152.5471 Y-97.6656
G01 X152.5454 Y-97.6792
G01 X152.5444 Y-97.6929
G01 X152.5403 Y-97.7763
G01 X152.5400 Y-97.7900
G01 X152.5403 Y-97.8037
G01 X152.5444 Y-97.8871
G01 X152.5454 Y-97.9008
G01 X152.5471 Y-97.9144
G01 X152.5594 Y-97.9969
G01 X152.5617 Y-98.0105
G01 X152.5647 Y-98.0239
G01 X152.5850 Y-98.1048
G01 X152.5887 Y-98.1180
G01 X152.5930 Y-98.1311
G01 X152.6211 Y-98.2096
G01 X152.6260 Y-98.2224
G01 X152.6316 Y-98.2350
G01 X152.6673 Y-98.3104
G01 X152.6734 Y-98.3227
G01 X152.6802 Y-98.3346
G01 X152.7231 Y-98.4062
G01 X152.7304 Y-98.4178
G01 X152.7384 Y-98.4290
G01 X152.7922 Y-98.5015
G01 X152.8055 Y-98.5173
G01 X152.8615 Y-98.5791
G01 X152.8710 Y-98.5890
G01 X152.8809 Y-98.5985
G01 X152.9427 Y-98.6545
G01 X152.9531 Y-98.6635
G01 X152.9640 Y-98.6720
G01 X153.0310 Y-98.7216
G01 X153.0422 Y-98.7296
G01 X153.0538 Y-98.7369
G01 X153.1254 Y-98.7798
G01 X153.1373 Y-98.7866
G01 X153.1496 Y-98.7927
G01 X153.2250 Y-98.8284
G01 X153.2376 Y-98.8340
G01 X153.2504 Y-98.8389
G01 X153.3289 Y-98.8670
G01 X153.3420 Y-98.8713
G01 X153.3552 Y-98.8750
G01 X153.4361 Y-98.8953
G01 X153.4495 Y-98.8983
G01 X153.4631 Y-98.9006
G01 X153.5456 Y-98.9129
G01 X153.5592 Y-98.9146
G01 X153.5729 Y-98.9156
G01 X153.6563 Y-98.9197
G01 X153.6700 Y-98.9200
G01 X153.6837 Y-98.9197
G01 X153.7671 Y-98.9156
G01 X153.7808 Y-98.9146
G01 X153.7944 Y-98.9129
G01 X153.8769 Y-98.9006
G01 X153.8905 Y-98.8983
G01 X153.9039 Y-98.8953
G01 X153.9848 Y-98.8750
G01 X153.9980 Y-98.8713
G01 X154.0111 Y-98.8670
G01 X154.0896 Y-98.8389
G01 X154.1024 Y-98.8340
G01 X154.1150 Y-98.8284
G01 X154.1904 Y-98.7927
G01 X154.2027 Y-98.7866
G01 X154.2146 Y-98.7798
G01 X154.2862 Y-98.7369
G01 X154.2978 Y-98.7296
G01 X154.3090 Y-98.7216
G01 X154.3760 Y-98.6720
G01 X154.3869 Y-98.6635
G01 X154.3973 Y-98.6545
G01 X154.4591 Y-98.5985
G01 X154.4690 Y-98.5890
G01 X154.4785 Y-98.5791
G01 X154.5345 Y-98.5173
G01 X154.5435 Y-98.5069
G01 X154.5520 Y-98.4960
G01 X154.6016 Y-98.4290
G01 X154.6096 Y-98.4178
G01 X154.6169 Y-98.4062
G01 X154.6598 Y-98.3346
G01 X154.6666 Y-98.3227
G01 X154.6727 Y-98.3104
G01 X154.7084 Y-98.2350
G01 X154.7140 Y-98.2224
G01 X154.7189 Y-98.2096
G01 X154.7470 Y-98.1311
G01 X154.7513 Y-98.1180
G01 X154.7550 Y-98.1048
G01 X154.7753 Y-98.0239
G01 X154.7783 Y-98.0105
G01 X154.7806 Y-97.9969
G01 X154.7929 Y-97.9144
G01 X154.7946 Y-97.9008
G01 X154.7956 Y-97.8871
G01 X154.7997 Y-97.8037
G01 X154.8000 Y-97.7900
G01 X154.7997 Y-97.7763
G01 X154.7951 Y-97.6861
G01 X154.7929 Y-97.6656
G01 X154.7806 Y-97.5831
G01 X154.7783 Y-97.5695
G01 X154.7753 Y-97.5561
G01 X154.7550 Y-97.4752
G01 X154.7513 Y-97.4620
G01 X154.7470 Y-97.4489
G01 X154.7189 Y-97.3704
G01 X154.7140 Y-97.3576
G01 X154.7084 Y-97.3450
G01 X154.6727 Y-97.2696
G01 X154.6666 Y-97.2573
G01 X154.6598 Y-97.2454
G01 X154.6169 Y-97.1738
G01 X154.6096 Y-97.1622
G01 X154.6016 Y-97.1510
G01 X154.5520 Y-97.0840
G01 X154.5435 Y-97.0731
G01 X154.5345 Y-97.0627
G01 X154.4785 Y-97.0009
G01 X154.4641 Y-96.9862
G01 X154.4503 Y-96.9735
G01 X154.4503 Y-96.0665
G01 X154.4641 Y-96.0538
G01 X154.4785 Y-96.0391
G01 X154.5345 Y-95.9773
G01 X154.5478 Y-95.9615
G01 X154.6016 Y-95.8890
G01 X154.6096 Y-95.8778
G01 X154.6169 Y-95.8662
G01 X154.6598 Y-95.7946
G01 X154.6666 Y-95.7827
G01 X154.6727 Y-95.7704
G01 X154.7084 Y-95.6950
G01 X154.7140 Y-95.6824
G01 X154.7189 Y-95.6696
G01 X154.7470 Y-95.5911
G01 X154.7513 Y-95.5780
G01 X154.7550 Y-95.5648
G01 X154.7753 Y-95.4839
G01 X154.7783 Y-95.4705
G01 X154.7806 Y-95.4569
G01 X154.7929 Y-95.3744
G01 X154.7946 Y-95.3608
G01 X154.7956 Y-95.3471
G01 X154.7997 Y-95.2637
G01 X154.8000 Y-95.2500
G01 X154.7997 Y-95.2363
G01 X154.7956 Y-95.1529
G01 X154.7946 Y-95.1392
G01 X154.7929 Y-95.1256
G01 X154.7806 Y-95.0431
G01 X154.7783 Y-95.0295
G01 X154.7753 Y-95.0161
G01 X154.7550 Y-94.9352
G01 X154.7513 Y-94.9220
G01 X154.7470 Y-94.9089
G01 X154.7189 Y-94.8304
G01 X154.7140 Y-94.8176
G01 X154.7084 Y-94.8050
G01 X154.6727 Y-94.7296
G01 X154.6666 Y-94.7173
G01 X154.6598 Y-94.7054
G01 X154.6169 Y-94.6338
G01 X154.6096 Y-94.6222
G01 X154.6016 Y-94.6110
G01 X154.5520 Y-94.5440
G01 X154.5435 Y-94.5331
G01 X154.5345 Y-94.5227
G01 X154.4785 Y-94.4609
G01 X154.4690 Y-94.4510
G01 X154.4591 Y-94.4415
G01 X154.3973 Y-94.3855
G01 X154.3869 Y-94.3765
G01 X154.3760 Y-94.3680
G01 X154.3090 Y-94.3184
G01 X154.2978 Y-94.3104
G01 X154.2862 Y-94.3031
G01 X154.2146 Y-94.2602
G01 X154.2027 Y-94.2534
G01 X154.1904 Y-94.2473
G01 X154.1150 Y-94.2116
G01 X154.1024 Y-94.2060
G01 X154.0896 Y-94.2011
G01 X154.0111 Y-94.1730
G01 X153.9980 Y-94.1687
G01 X153.9848 Y-94.1650
G01 X153.9039 Y-94.1447
G01 X153.8905 Y-94.1417
G01 X153.8769 Y-94.1394
G01 X153.7944 Y-94.1271
G01 X153.7808 Y-94.1254
G01 X153.7671 Y-94.1244
G01 X153.6769 Y-94.1201
G01 X153.6631 Y-94.1201
G01 X153.6444 Y-94.1209
G01 X151.6817 Y-92.1583
G01 X151.6718 Y-92.1488
G01 X151.6354 Y-92.1158
G01 X151.6250 Y-92.1069
G01 X151.6142 Y-92.0984
G01 X151.5747 Y-92.0692
G01 X151.5577 Y-92.0575
G01 X151.5098 Y-92.0287
G01 X151.4978 Y-92.0219
G01 X151.4855 Y-92.0157
G01 X151.4349 Y-91.9919
G01 X151.4158 Y-91.9842
G01 X151.3695 Y-91.9677
G01 X151.3565 Y-91.9633
G01 X151.3432 Y-91.9597
G01 X151.2956 Y-91.9478
G01 X151.2822 Y-91.9447
G01 X151.2687 Y-91.9424
G01 X151.2133 Y-91.9343
G01 X151.1928 Y-91.9325
G01 X151.1437 Y-91.9301
G01 X151.1300 Y-91.9297
G01 X144.7731 Y-91.9298
G01 X144.7172 Y-91.9325
G01 X144.7035 Y-91.9335
G01 X144.6899 Y-91.9352
G01 X144.6413 Y-91.9424
G01 X144.6278 Y-91.9447
G01 X144.6144 Y-91.9478
G01 X144.5668 Y-91.9597
G01 X144.5535 Y-91.9633
G01 X144.5405 Y-91.9677
G01 X144.4942 Y-91.9842
G01 X144.4814 Y-91.9891
G01 X144.4688 Y-91.9947
G01 X144.4245 Y-92.0157
G01 X144.4122 Y-92.0219
G01 X144.4002 Y-92.0287
G01 X144.3523 Y-92.0575
G01 X144.3353 Y-92.0692
G01 X144.2958 Y-92.0984
G01 X144.2850 Y-92.1069
G01 X144.2746 Y-92.1158
G01 X144.2382 Y-92.1488
G01 X144.2283 Y-92.1583
G01 X142.0585 Y-94.3281
G01 X142.0185 Y-94.3341
G01 X142.0050 Y-94.3368
G01 X141.8680 Y-94.3711
G01 X141.8483 Y-94.3773
G01 X141.7217 Y-94.4227
G01 X141.7028 Y-94.4308
G01 X141.5875 Y-94.4854
G01 X141.5752 Y-94.4916
G01 X141.5632 Y-94.4983
G01 X141.4480 Y-94.5675
G01 X141.4310 Y-94.5792
G01 X141.3285 Y-94.6552
G01 X141.3177 Y-94.6636
G01 X141.3073 Y-94.6726
G01 X141.2127 Y-94.7583
G01 X141.2028 Y-94.7678
G01 X141.1933 Y-94.7777
G01 X141.1076 Y-94.8723
G01 X141.0986 Y-94.8827
G01 X141.0902 Y-94.8935
G01 X141.0142 Y-94.9960
G01 X141.0063 Y-95.0072
G01 X140.9989 Y-95.0188
G01 X140.9333 Y-95.1282
G01 X140.9266 Y-95.1402
G01 X140.9204 Y-95.1525
G01 X140.8658 Y-95.2678
G01 X140.8603 Y-95.2804
G01 X140.8553 Y-95.2932
G01 X140.8123 Y-95.4133
G01 X140.8080 Y-95.4264
G01 X140.8044 Y-95.4396
G01 X140.7734 Y-95.5633
G01 X140.7704 Y-95.5768
G01 X140.7680 Y-95.5903
G01 X140.7493 Y-95.7165
G01 X140.7476 Y-95.7301
G01 X140.7466 Y-95.7438
G01 X140.7403 Y-95.8713
G01 X140.7400 Y-95.8850
G01 X140.7403 Y-95.8987
G01 X140.7466 Y-96.0262
G01 X140.7476 Y-96.0399
G01 X140.7493 Y-96.0535
G01 X140.7680 Y-96.1797
G01 X140.7718 Y-96.2000
G01 X140.8044 Y-96.3304
G01 X140.8080 Y-96.3436
G01 X140.8123 Y-96.3567
G01 X140.8553 Y-96.4768
G01 X140.8603 Y-96.4896
G01 X140.8658 Y-96.5022
G01 X140.9204 Y-96.6175
G01 X140.9266 Y-96.6298
G01 X140.9333 Y-96.6418
G01 X141.0025 Y-96.7570
G01 X141.0142 Y-96.7740
G01 X141.0902 Y-96.8765
G01 X141.0986 Y-96.8873
G01 X141.1076 Y-96.8977
G01 X141.1933 Y-96.9923
G01 X141.2077 Y-97.0070
G01 X141.3073 Y-97.0974
G01 X141.3177 Y-97.1064
G01 X141.3285 Y-97.1148
G01 X141.4310 Y-97.1908
G01 X141.4422 Y-97.1987
G01 X141.4538 Y-97.2061
G01 X141.5397 Y-97.2576
G01 X141.5397 Y-97.3868
G01 X139.3768 Y-99.5497
G01 X135.2497 Y-99.5497
G01 X133.1003 Y-97.4003
G01 X133.1003 Y-97.2576
G01 X133.1862 Y-97.2061
G01 X133.1978 Y-97.1987
G01 X133.2090 Y-97.1908
G01 X133.3170 Y-97.1107
G01 X133.3327 Y-97.0974
G01 X133.4273 Y-97.0117
G01 X133.4420 Y-96.9973
G01 X133.5324 Y-96.8977
G01 X133.5414 Y-96.8873
G01 X133.5498 Y-96.8765
G01 X133.6258 Y-96.7740
G01 X133.6337 Y-96.7628
G01 X133.6411 Y-96.7512
G01 X133.7067 Y-96.6418
G01 X133.7134 Y-96.6298
G01 X133.7196 Y-96.6175
G01 X133.7742 Y-96.5022
G01 X133.7797 Y-96.4896
G01 X133.7847 Y-96.4768
G01 X133.8277 Y-96.3567
G01 X133.8320 Y-96.3436
G01 X133.8356 Y-96.3304
G01 X133.8666 Y-96.2067
G01 X133.8696 Y-96.1932
G01 X133.8720 Y-96.1797
G01 X133.8907 Y-96.0535
G01 X133.8924 Y-96.0399
G01 X133.8934 Y-96.0262
G01 X133.8997 Y-95.8987
G01 X133.9000 Y-95.8850
G01 X133.8997 Y-95.8713
G01 X133.8934 Y-95.7438
G01 X133.8924 Y-95.7301
G01 X133.8907 Y-95.7165
G01 X133.8720 Y-95.5903
G01 X133.8696 Y-95.5768
G01 X133.8666 Y-95.5633
G01 X133.8356 Y-95.4396
G01 X133.8320 Y-95.4264
G01 X133.8277 Y-95.4133
G01 X133.7847 Y-95.2932
G01 X133.7797 Y-95.2804
G01 X133.7742 Y-95.2678
G01 X133.7196 Y-95.1525
G01 X133.7134 Y-95.1402
G01 X133.7067 Y-95.1282
G01 X133.6411 Y-95.0188
G01 X133.6337 Y-95.0072
G01 X133.6258 Y-94.9960
G01 X133.5498 Y-94.8935
G01 X133.5414 Y-94.8827
G01 X133.5324 Y-94.8723
G01 X133.4467 Y-94.7777
G01 X133.4372 Y-94.7678
G01 X133.4273 Y-94.7583
G01 X133.3327 Y-94.6726
G01 X133.3223 Y-94.6636
G01 X133.3115 Y-94.6552
G01 X133.2090 Y-94.5792
G01 X133.1978 Y-94.5713
G01 X133.1862 Y-94.5639
G01 X133.0768 Y-94.4983
G01 X133.0648 Y-94.4916
G01 X133.0525 Y-94.4854
G01 X132.9372 Y-94.4308
G01 X132.9246 Y-94.4253
G01 X132.9118 Y-94.4203
G01 X132.7917 Y-94.3773
G01 X132.7786 Y-94.3730
G01 X132.7654 Y-94.3694
G01 X132.6417 Y-94.3384
G01 X132.6282 Y-94.3354
G01 X132.6147 Y-94.3330
G01 X132.4885 Y-94.3143
G01 X132.4749 Y-94.3126
G01 X132.4612 Y-94.3116
G01 X132.3337 Y-94.3053
G01 X132.3200 Y-94.3050
G01 X132.3063 Y-94.3053
G01 X132.1788 Y-94.3116
G01 X132.1651 Y-94.3126
G01 X132.1515 Y-94.3143
G01 X132.0253 Y-94.3330
G01 X132.0118 Y-94.3354
G01 X131.9983 Y-94.3384
G01 X131.8746 Y-94.3694
G01 X131.8614 Y-94.3730
G01 X131.8483 Y-94.3773
G01 X131.7282 Y-94.4203
G01 X131.7154 Y-94.4253
G01 X131.7028 Y-94.4308
G01 X131.5875 Y-94.4854
G01 X131.5752 Y-94.4916
G01 X131.5632 Y-94.4983
G01 X131.4538 Y-94.5639
G01 X131.4422 Y-94.5713
G01 X131.4310 Y-94.5792
G01 X131.3285 Y-94.6552
G01 X131.3177 Y-94.6636
G01 X131.3073 Y-94.6726
G01 X131.2127 Y-94.7583
G01 X131.2028 Y-94.7678
G01 X131.1933 Y-94.7777
G01 X131.1076 Y-94.8723
G01 X131.0986 Y-94.8827
G01 X131.0902 Y-94.8935
G01 X131.0142 Y-94.9960
G01 X131.0063 Y-95.0072
G01 X130.9989 Y-95.0188
G01 X130.9333 Y-95.1282
G01 X130.9266 Y-95.1402
G01 X130.9204 Y-95.1525
G01 X130.8658 Y-95.2678
G01 X130.8603 Y-95.2804
G01 X130.8553 Y-95.2932
G01 X130.8123 Y-95.4133
G01 X130.8080 Y-95.4264
G01 X130.8044 Y-95.4396
G01 X130.7734 Y-95.5633
G01 X130.7704 Y-95.5768
G01 X130.7680 Y-95.5903
G01 X130.7493 Y-95.7165
G01 X130.7476 Y-95.7301
G01 X130.7466 Y-95.7438
G01 X130.7403 Y-95.8713
G01 X130.7401 Y-95.8919
G01 X130.7466 Y-96.0262
G01 X130.7476 Y-96.0399
G01 X130.7493 Y-96.0535
G01 X130.7680 Y-96.1797
G01 X130.7704 Y-96.1932
G01 X130.7734 Y-96.2067
G01 X130.8044 Y-96.3304
G01 X130.8080 Y-96.3436
G01 X130.8123 Y-96.3567
G01 X130.8553 Y-96.4768
G01 X130.8603 Y-96.4896
G01 X130.8658 Y-96.5022
G01 X130.9204 Y-96.6175
G01 X130.9266 Y-96.6298
G01 X130.9333 Y-96.6418
G01 X130.9989 Y-96.7512
G01 X131.0063 Y-96.7628
G01 X131.0142 Y-96.7740
G01 X131.0902 Y-96.8765
G01 X131.0986 Y-96.8873
G01 X131.1076 Y-96.8977
G01 X131.1933 Y-96.9923
G01 X131.2028 Y-97.0022
G01 X131.2127 Y-97.0117
G01 X131.3073 Y-97.0974
G01 X131.3177 Y-97.1064
G01 X131.3285 Y-97.1148
G01 X131.4310 Y-97.1908
G01 X131.4422 Y-97.1987
G01 X131.4538 Y-97.2061
G01 X131.5397 Y-97.2576
G01 X131.5398 Y-97.7303
G01 X131.5425 Y-97.7862
G01 X131.5435 Y-97.8000
G01 X131.5452 Y-97.8136
G01 X131.5524 Y-97.8622
G01 X131.5547 Y-97.8757
G01 X131.5578 Y-97.8891
G01 X131.5697 Y-97.9367
G01 X131.5733 Y-97.9500
G01 X131.5777 Y-97.9630
G01 X131.5942 Y-98.0092
G01 X131.5991 Y-98.0221
G01 X131.6047 Y-98.0346
G01 X131.6257 Y-98.0790
G01 X131.6319 Y-98.0913
G01 X131.6387 Y-98.1032
G01 X131.6639 Y-98.1453
G01 X131.6712 Y-98.1570
G01 X131.6792 Y-98.1682
G01 X131.7084 Y-98.2076
G01 X131.7169 Y-98.2185
G01 X131.7258 Y-98.2289
G01 X131.7588 Y-98.2652
G01 X131.7683 Y-98.2752
G01 X134.3748 Y-100.8817
G01 X134.3848 Y-100.8912
G01 X134.4211 Y-100.9242
G01 X134.4315 Y-100.9331
G01 X134.4424 Y-100.9416
G01 X134.4874 Y-100.9749
G01 X134.5047 Y-100.9861
G01 X134.5468 Y-101.0113
G01 X134.5587 Y-101.0181
G01 X134.5710 Y-101.0243
G01 X134.6154 Y-101.0453
G01 X134.6279 Y-101.0509
G01 X134.6408 Y-101.0558
G01 X134.6870 Y-101.0723
G01 X134.7000 Y-101.0767
G01 X134.7133 Y-101.0803
G01 X134.7609 Y-101.0922
G01 X134.7743 Y-101.0953
G01 X134.7878 Y-101.0976
G01 X134.8364 Y-101.1048
G01 X134.8500 Y-101.1065
G01 X134.8638 Y-101.1075
G01 X134.9197 Y-101.1102
G01 X139.3768 Y-101.1103
G01 X143.2172 Y-104.9505
G01 X143.2586 Y-104.9882
G01 X143.2690 Y-104.9971
G01 X143.2798 Y-105.0056
G01 X143.3248 Y-105.0389
G01 X143.3421 Y-105.0501
G01 X143.3842 Y-105.0753
G01 X143.3962 Y-105.0821
G01 X143.4085 Y-105.0883
G01 X143.4528 Y-105.1093
G01 X143.4654 Y-105.1149
G01 X143.4782 Y-105.1198
G01 X143.5245 Y-105.1363
G01 X143.5375 Y-105.1407
G01 X143.5508 Y-105.1443
G01 X143.5984 Y-105.1562
G01 X143.6118 Y-105.1593
G01 X143.6253 Y-105.1616
G01 X143.6807 Y-105.1697
G01 X143.7012 Y-105.1715
G01 X143.7503 Y-105.1739
G01 X143.7640 Y-105.1743
G01 X183.1340 Y-105.1743
G01 X183.1477 Y-105.1739
G01 X183.1968 Y-105.1715
G01 X183.2105 Y-105.1705
G01 X183.2241 Y-105.1688
G01 X183.2795 Y-105.1605
G01 X183.2996 Y-105.1562
G01 X183.3472 Y-105.1443
G01 X183.3605 Y-105.1407
G01 X183.3735 Y-105.1363
G01 X183.4198 Y-105.1198
G01 X183.4326 Y-105.1149
G01 X183.4452 Y-105.1093
G01 X183.4895 Y-105.0883
G01 X183.5018 Y-105.0821
G01 X183.5138 Y-105.0753
G01 X183.5559 Y-105.0501
G01 X183.5675 Y-105.0428
G01 X183.5787 Y-105.0348
G01 X183.6236 Y-105.0014
G01 X183.6394 Y-104.9882
G01 X183.6758 Y-104.9552
G01 X183.6857 Y-104.9457
G01 X185.4637 Y-103.1677
G01 X185.4732 Y-103.1578
G01 X185.5062 Y-103.1214
G01 X185.5151 Y-103.1110
G01 X185.5236 Y-103.1002
G01 X185.5528 Y-103.0607
G01 X185.5608 Y-103.0495
G01 X185.5681 Y-103.0379
G01 X185.5968 Y-102.9898
G01 X185.6063 Y-102.9715
G01 X185.6273 Y-102.9272
G01 X185.6329 Y-102.9146
G01 X185.6378 Y-102.9018
G01 X185.6543 Y-102.8555
G01 X185.6587 Y-102.8425
G01 X185.6623 Y-102.8292
G01 X185.6742 Y-102.7816
G01 X185.6773 Y-102.7682
G01 X185.6796 Y-102.7547
G01 X185.6868 Y-102.7061
G01 X185.6885 Y-102.6925
G01 X185.6895 Y-102.6788
G01 X185.6919 Y-102.6297
G01 X185.6923 Y-102.6160
G01 X185.6923 Y-83.2959
G01 X185.7379 Y-83.2456
G01 X185.7469 Y-83.2351
G01 X185.7553 Y-83.2243
G01 X185.8021 Y-83.1613
G01 X185.8100 Y-83.1500
G01 X185.8173 Y-83.1384
G01 X185.8577 Y-83.0711
G01 X185.8645 Y-83.0591
G01 X185.8707 Y-83.0468
G01 X185.9042 Y-82.9759
G01 X185.9098 Y-82.9633
G01 X185.9147 Y-82.9505
G01 X185.9412 Y-82.8766
G01 X185.9455 Y-82.8635
G01 X185.9492 Y-82.8503
G01 X185.9682 Y-82.7741
G01 X185.9712 Y-82.7607
G01 X185.9736 Y-82.7472
G01 X185.9851 Y-82.6695
G01 X185.9868 Y-82.6559
G01 X185.9878 Y-82.6422
G01 X185.9917 Y-82.5637
G01 X185.9920 Y-82.5500
G01 X185.9917 Y-82.5363
G01 X185.9878 Y-82.4578
G01 X185.9868 Y-82.4441
G01 X185.9851 Y-82.4305
G01 X185.9736 Y-82.3528
G01 X185.9712 Y-82.3393
G01 X185.9682 Y-82.3259
G01 X185.9492 Y-82.2497
G01 X185.9455 Y-82.2365
G01 X185.9412 Y-82.2234
G01 X185.9147 Y-82.1495
G01 X185.9098 Y-82.1367
G01 X185.9042 Y-82.1241
G01 X185.8707 Y-82.0532
G01 X185.8645 Y-82.0409
G01 X185.8577 Y-82.0289
G01 X185.8173 Y-81.9616
G01 X185.8100 Y-81.9500
G01 X185.8021 Y-81.9387
G01 X185.7553 Y-81.8757
G01 X185.7469 Y-81.8649
G01 X185.7379 Y-81.8544
G01 X185.6923 Y-81.8041
G01 X185.6923 Y-30.4800
G01 X185.6919 Y-30.4663
G01 X185.6895 Y-30.4172
G01 X185.6885 Y-30.4035
G01 X185.6868 Y-30.3899
G01 X185.6796 Y-30.3413
G01 X185.6773 Y-30.3278
G01 X185.6742 Y-30.3144
G01 X185.6623 Y-30.2668
G01 X185.6587 Y-30.2535
G01 X185.6543 Y-30.2405
G01 X185.6378 Y-30.1942
G01 X185.6329 Y-30.1814
G01 X185.6273 Y-30.1688
G01 X185.6063 Y-30.1245
G01 X185.6001 Y-30.1122
G01 X185.5933 Y-30.1002
G01 X185.5681 Y-30.0581
G01 X185.5608 Y-30.0465
G01 X185.5528 Y-30.0353
G01 X185.5236 Y-29.9958
G01 X185.5151 Y-29.9850
G01 X185.5062 Y-29.9746
G01 X185.4685 Y-29.9332
G01 X185.4538 Y-29.9188
G01 X185.4174 Y-29.8858
G01 X185.4070 Y-29.8769
G01 X185.3962 Y-29.8684
G01 X185.3567 Y-29.8392
G01 X185.3455 Y-29.8312
G01 X185.3339 Y-29.8239
G01 X185.2858 Y-29.7952
G01 X185.2675 Y-29.7857
G01 X185.2232 Y-29.7647
G01 X185.2106 Y-29.7591
G01 X185.1978 Y-29.7542
G01 X185.1515 Y-29.7377
G01 X185.1385 Y-29.7333
G01 X185.1252 Y-29.7297
G01 X185.0776 Y-29.7178
G01 X185.0642 Y-29.7147
G01 X185.0507 Y-29.7124
G01 X185.0021 Y-29.7052
G01 X184.9885 Y-29.7035
G01 X184.9748 Y-29.7025
G01 X184.9257 Y-29.7001
G01 X184.9120 Y-29.6997
G01 X173.4659 Y-29.6997
G01 X173.4156 Y-29.6541
G01 X173.4051 Y-29.6451
G01 X173.3943 Y-29.6367
G01 X173.3313 Y-29.5899
G01 X173.3200 Y-29.5820
G01 X173.3084 Y-29.5747
G01 X173.2411 Y-29.5343
G01 X173.2291 Y-29.5275
G01 X173.2168 Y-29.5213
G01 X173.1459 Y-29.4878
G01 X173.1333 Y-29.4822
G01 X173.1205 Y-29.4773
G01 X173.0466 Y-29.4508
G01 X173.0335 Y-29.4465
G01 X173.0203 Y-29.4428
G01 X172.9441 Y-29.4238
G01 X172.9307 Y-29.4208
G01 X172.9172 Y-29.4184
G01 X172.8395 Y-29.4069
G01 X172.8259 Y-29.4052
G01 X172.8122 Y-29.4042
G01 X172.7337 Y-29.4003
G01 X172.7200 Y-29.4000
G01 X172.7063 Y-29.4003
G01 X172.6278 Y-29.4042
G01 X172.6141 Y-29.4052
G01 X172.6005 Y-29.4069
G01 X172.5228 Y-29.4184
G01 X172.5093 Y-29.4208
G01 X172.4959 Y-29.4238
G01 X172.4197 Y-29.4428
G01 X172.4065 Y-29.4465
G01 X172.3934 Y-29.4508
G01 X172.3195 Y-29.4773
G01 X172.3067 Y-29.4822
G01 X172.2941 Y-29.4878
G01 X172.2232 Y-29.5213
G01 X172.2109 Y-29.5275
G01 X172.1989 Y-29.5343
G01 X172.1316 Y-29.5747
G01 X172.1200 Y-29.5820
G01 X172.1087 Y-29.5899
G01 X172.0457 Y-29.6367
G01 X172.0349 Y-29.6451
G01 X172.0244 Y-29.6541
G01 X171.9741 Y-29.6997
G01 X137.7950 Y-29.6997
G01 X137.7813 Y-29.7001
G01 X137.7322 Y-29.7025
G01 X137.7185 Y-29.7035
G01 X137.7049 Y-29.7052
G01 X137.6563 Y-29.7124
G01 X137.6428 Y-29.7147
G01 X137.6294 Y-29.7178
G01 X137.5751 Y-29.7314
G01 X137.5555 Y-29.7377
G01 X137.5092 Y-29.7542
G01 X137.4964 Y-29.7591
G01 X137.4838 Y-29.7647
G01 X137.4395 Y-29.7857
G01 X137.4212 Y-29.7952
G01 X137.3731 Y-29.8239
G01 X137.3615 Y-29.8312
G01 X137.3503 Y-29.8392
G01 X137.3108 Y-29.8684
G01 X137.2948 Y-29.8813
G01 X137.2532 Y-29.9188
G01 X137.2433 Y-29.9283
G01 X136.6483 Y-30.5233
G01 X136.6388 Y-30.5332
G01 X136.6058 Y-30.5696
G01 X136.5969 Y-30.5800
G01 X136.5884 Y-30.5908
G01 X136.5592 Y-30.6303
G01 X136.5475 Y-30.6473
G01 X136.5187 Y-30.6952
G01 X136.5119 Y-30.7072
G01 X136.5057 Y-30.7195
G01 X136.4819 Y-30.7701
G01 X136.4742 Y-30.7892
G01 X136.4577 Y-30.8355
G01 X136.4533 Y-30.8485
G01 X136.4497 Y-30.8618
G01 X136.4378 Y-30.9094
G01 X136.4347 Y-30.9228
G01 X136.4324 Y-30.9363
G01 X136.4243 Y-30.9917
G01 X136.4225 Y-31.0122
G01 X136.4201 Y-31.0613
G01 X136.4197 Y-31.0750
G01 X136.4197 Y-39.8597
G01 X123.8250 Y-39.8597
G01 X123.8113 Y-39.8601
G01 X123.7622 Y-39.8625
G01 X123.7485 Y-39.8635
G01 X123.7349 Y-39.8652
G01 X123.6863 Y-39.8724
G01 X123.6728 Y-39.8747
G01 X123.6594 Y-39.8778
G01 X123.6118 Y-39.8897
G01 X123.5985 Y-39.8933
G01 X123.5855 Y-39.8977
G01 X123.5392 Y-39.9142
G01 X123.5264 Y-39.9191
G01 X123.5138 Y-39.9247
G01 X123.4695 Y-39.9457
G01 X123.4572 Y-39.9519
G01 X123.4452 Y-39.9587
G01 X123.4031 Y-39.9839
G01 X123.3858 Y-39.9951
G01 X123.3408 Y-40.0284
G01 X123.3300 Y-40.0369
G01 X123.3196 Y-40.0458
G01 X123.2832 Y-40.0788
G01 X123.2733 Y-40.0883
G01 X118.0733 Y-45.2883
G01 X118.0638 Y-45.2982
G01 X118.0308 Y-45.3346
G01 X118.0219 Y-45.3450
G01 X118.0134 Y-45.3558
G01 X117.9842 Y-45.3953
G01 X117.9762 Y-45.4065
G01 X117.9689 Y-45.4181
G01 X117.9437 Y-45.4602
G01 X117.9369 Y-45.4722
G01 X117.9307 Y-45.4845
G01 X117.9097 Y-45.5288
G01 X117.9041 Y-45.5414
G01 X117.8992 Y-45.5542
G01 X117.8827 Y-45.6005
G01 X117.8783 Y-45.6135
G01 X117.8747 Y-45.6268
G01 X117.8628 Y-45.6744
G01 X117.8597 Y-45.6878
G01 X117.8574 Y-45.7013
G01 X117.8502 Y-45.7499
G01 X117.8485 Y-45.7635
G01 X117.8475 Y-45.7772
G01 X117.8451 Y-45.8263
G01 X117.8447 Y-45.8400
G01 X117.8447 Y-51.9521
G01 X117.8305 Y-51.9610
G01 X117.8193 Y-51.9689
G01 X117.7287 Y-52.0361
G01 X117.7178 Y-52.0446
G01 X117.7074 Y-52.0536
G01 X117.6238 Y-52.1294
G01 X117.6138 Y-52.1388
G01 X117.6044 Y-52.1488
G01 X117.5286 Y-52.2324
G01 X117.5196 Y-52.2428
G01 X117.5111 Y-52.2537
G01 X117.4439 Y-52.3443
G01 X117.4360 Y-52.3555
G01 X117.4286 Y-52.3671
G01 X117.3706 Y-52.4639
G01 X117.3639 Y-52.4759
G01 X117.3577 Y-52.4882
G01 X117.3094 Y-52.5902
G01 X117.3039 Y-52.6028
G01 X117.2989 Y-52.6156
G01 X117.2609 Y-52.7218
G01 X117.2566 Y-52.7349
G01 X117.2529 Y-52.7481
G01 X117.2255 Y-52.8576
G01 X117.2225 Y-52.8710
G01 X117.2201 Y-52.8846
G01 X117.2036 Y-52.9962
G01 X117.2019 Y-53.0098
G01 X117.2009 Y-53.0235
G01 X117.1953 Y-53.1363
G01 X117.1950 Y-53.1500
G01 X117.1953 Y-53.1637
G01 X117.2009 Y-53.2765
G01 X117.2019 Y-53.2902
G01 X117.2036 Y-53.3038
G00 Z2.0000
(Block-name: block)
(Block-expand: 0)
(Block-enable: 1)
G00 X117.3816 Y-53.2774
G01 F60.00
G01 Z-0.1866
G01 F120.00
G01 X117.3990 Y-53.3939
G01 X117.4288 Y-53.5129
G01 X117.4702 Y-53.6284
G01 X117.5204 Y-53.7349
G01 X117.5250 Y-53.7435
G01 X117.5830 Y-53.8403
G01 X117.5885 Y-53.8485
G01 X117.6587 Y-53.9430
G01 X117.7377 Y-54.0303
G01 X117.7447 Y-54.0373
G01 X117.8283 Y-54.1131
G01 X117.8359 Y-54.1193
G01 X117.9305 Y-54.1893
G01 X118.0358 Y-54.2524
G01 X118.1466 Y-54.3048
G01 X118.2575 Y-54.3446
G01 X118.2669 Y-54.3475
G01 X118.3811 Y-54.3760
G01 X118.4976 Y-54.3934
G01 X118.5074 Y-54.3943
G01 X118.6250 Y-54.4000
G01 X118.7475 Y-54.3940
G01 X118.8689 Y-54.3760
G01 X118.9831 Y-54.3475
G01 X118.9925 Y-54.3446
G01 X119.0988 Y-54.3066
G01 X119.1078 Y-54.3029
G01 X119.2142 Y-54.2524
G01 X119.3195 Y-54.1893
G01 X119.4180 Y-54.1163
G01 X119.5053 Y-54.0373
G01 X119.5123 Y-54.0303
G01 X119.5881 Y-53.9467
G01 X119.5943 Y-53.9391
G01 X119.6643 Y-53.8445
G01 X119.7262 Y-53.7414
G01 X119.7296 Y-53.7349
G01 X119.7798 Y-53.6284
G01 X119.8212 Y-53.5129
G01 X119.8510 Y-53.3939
G01 X119.8690 Y-53.2725
G01 X119.8750 Y-53.1500
G01 X119.8690 Y-53.0275
G01 X119.8510 Y-52.9061
G01 X119.8212 Y-52.7871
G01 X119.7798 Y-52.6716
G01 X119.7274 Y-52.5608
G01 X119.6643 Y-52.4555
G01 X119.5913 Y-52.3570
G01 X119.5089 Y-52.2661
G01 X119.4180 Y-52.1837
G01 X119.3195 Y-52.1107
G01 X119.2253 Y-52.0541
G01 X119.2253 Y-46.0886
G01 X124.0736 Y-41.2403
G01 X136.5307 Y-41.2403
G01 X136.5654 Y-41.2781
G01 X136.6272 Y-41.3341
G01 X136.6329 Y-41.3387
G01 X136.6980 Y-41.3869
G01 X136.7041 Y-41.3909
G01 X136.7757 Y-41.4337
G01 X136.8533 Y-41.4705
G01 X136.8602 Y-41.4733
G01 X136.9387 Y-41.5012
G01 X137.0244 Y-41.5227
G01 X137.1118 Y-41.5357
G01 X137.2000 Y-41.5400
G01 X137.2882 Y-41.5357
G01 X137.3756 Y-41.5227
G01 X137.4613 Y-41.5012
G01 X137.5444 Y-41.4715
G01 X137.6243 Y-41.4337
G01 X137.7000 Y-41.3883
G01 X137.7710 Y-41.3357
G01 X137.8328 Y-41.2798
G01 X137.8381 Y-41.2746
G01 X137.8957 Y-41.2110
G01 X137.9483 Y-41.1400
G01 X137.9937 Y-41.0643
G01 X138.0315 Y-40.9844
G01 X138.0612 Y-40.9013
G01 X138.0827 Y-40.8156
G01 X138.0957 Y-40.7282
G01 X138.1000 Y-40.6425
G01 X138.0999 Y-40.6351
G01 X138.0957 Y-40.5518
G01 X138.0827 Y-40.4644
G01 X138.0612 Y-40.3787
G01 X138.0333 Y-40.3002
G01 X138.0305 Y-40.2933
G01 X137.9937 Y-40.2157
G01 X137.9509 Y-40.1441
G01 X137.9469 Y-40.1380
G01 X137.8987 Y-40.0729
G01 X137.8941 Y-40.0672
G01 X137.8381 Y-40.0054
G01 X137.8003 Y-39.9707
G01 X137.8003 Y-31.3236
G01 X138.0436 Y-31.0803
G01 X159.4197 Y-31.0803
G01 X159.4197 Y-33.5537
G01 X159.4136 Y-33.5588
G01 X159.3482 Y-33.6182
G01 X159.2888 Y-33.6836
G01 X159.2826 Y-33.6912
G01 X159.2301 Y-33.7622
G01 X159.1846 Y-33.8379
G01 X159.1800 Y-33.8466
G01 X159.1423 Y-33.9265
G01 X159.1124 Y-34.0096
G01 X159.1096 Y-34.0190
G01 X159.0883 Y-34.1047
G01 X159.0752 Y-34.1920
G01 X159.0742 Y-34.2018
G01 X159.0700 Y-34.2900
G01 X159.0742 Y-34.3782
G01 X159.0752 Y-34.3880
G01 X159.0883 Y-34.4753
G01 X159.1109 Y-34.5658
G01 X159.1423 Y-34.6535
G01 X159.1822 Y-34.7378
G01 X159.2301 Y-34.8178
G01 X159.2856 Y-34.8927
G01 X159.3482 Y-34.9618
G01 X159.4136 Y-35.0212
G01 X159.4212 Y-35.0274
G01 X159.4922 Y-35.0799
G01 X159.5679 Y-35.1254
G01 X159.5766 Y-35.1300
G01 X159.6520 Y-35.1657
G01 X159.6610 Y-35.1695
G01 X159.7442 Y-35.1991
G01 X159.8347 Y-35.2217
G01 X159.9269 Y-35.2354
G01 X160.0200 Y-35.2400
G01 X160.1131 Y-35.2354
G01 X160.2053 Y-35.2217
G01 X160.2958 Y-35.1991
G01 X160.3790 Y-35.1695
G01 X160.3880 Y-35.1657
G01 X160.4634 Y-35.1300
G01 X160.4721 Y-35.1254
G01 X160.5478 Y-35.0799
G01 X160.6188 Y-35.0274
G01 X160.6264 Y-35.0212
G01 X160.6918 Y-34.9618
G01 X160.7544 Y-34.8927
G01 X160.8099 Y-34.8178
G01 X160.8578 Y-34.7378
G01 X160.8977 Y-34.6535
G01 X160.9291 Y-34.5658
G01 X160.9517 Y-34.4753
G01 X160.9648 Y-34.3880
G01 X160.9658 Y-34.3782
G01 X160.9700 Y-34.2900
G01 X160.9658 Y-34.2018
G01 X160.9648 Y-34.1920
G01 X160.9517 Y-34.1047
G01 X160.9304 Y-34.0190
G01 X160.9276 Y-34.0096
G01 X160.8977 Y-33.9265
G01 X160.8600 Y-33.8466
G01 X160.8554 Y-33.8379
G01 X160.8099 Y-33.7622
G01 X160.7574 Y-33.6912
G01 X160.7512 Y-33.6836
G01 X160.6918 Y-33.6182
G01 X160.6264 Y-33.5588
G01 X160.6203 Y-33.5537
G01 X160.6203 Y-31.0803
G01 X172.0507 Y-31.0803
G01 X172.0854 Y-31.1181
G01 X172.1472 Y-31.1741
G01 X172.1529 Y-31.1787
G01 X172.2180 Y-31.2269
G01 X172.2241 Y-31.2309
G01 X172.2957 Y-31.2737
G01 X172.3733 Y-31.3105
G01 X172.3802 Y-31.3133
G01 X172.4587 Y-31.3412
G01 X172.5444 Y-31.3627
G01 X172.6318 Y-31.3757
G01 X172.7200 Y-31.3800
G01 X172.8082 Y-31.3757
G01 X172.8956 Y-31.3627
G01 X172.9813 Y-31.3412
G01 X173.0598 Y-31.3133
G01 X173.0667 Y-31.3105
G01 X173.1443 Y-31.2737
G01 X173.2159 Y-31.2309
G01 X173.2220 Y-31.2269
G01 X173.2871 Y-31.1787
G01 X173.2928 Y-31.1741
G01 X173.3546 Y-31.1181
G01 X173.3893 Y-31.0803
G01 X184.3117 Y-31.0803
G01 X184.3117 Y-81.8807
G01 X184.2739 Y-81.9154
G01 X184.2179 Y-81.9772
G01 X184.2133 Y-81.9829
G01 X184.1651 Y-82.0480
G01 X184.1611 Y-82.0541
G01 X184.1183 Y-82.1257
G01 X184.0815 Y-82.2033
G01 X184.0787 Y-82.2102
G01 X184.0508 Y-82.2887
G01 X184.0293 Y-82.3744
G01 X184.0163 Y-82.4618
G01 X184.0120 Y-82.5500
G01 X184.0163 Y-82.6382
G01 X184.0293 Y-82.7256
G01 X184.0508 Y-82.8113
G01 X184.0787 Y-82.8898
G01 X184.0815 Y-82.8967
G01 X184.1183 Y-82.9743
G01 X184.1611 Y-83.0459
G01 X184.1651 Y-83.0520
G01 X184.2133 Y-83.1171
G01 X184.2179 Y-83.1228
G01 X184.2739 Y-83.1846
G01 X184.3117 Y-83.2193
G01 X184.3117 Y-102.3674
G01 X182.8854 Y-103.7937
G01 X144.0126 Y-103.7937
G01 X140.5489 Y-100.3300
G01 X142.6639 Y-98.2150
G01 X142.7008 Y-98.1875
G01 X142.7444 Y-98.1479
G01 X142.7840 Y-98.1043
G01 X142.8163 Y-98.0610
G01 X142.8204 Y-98.0549
G01 X142.8470 Y-98.0107
G01 X142.8516 Y-98.0020
G01 X142.8746 Y-97.9532
G01 X142.8929 Y-97.9024
G01 X142.8957 Y-97.8930
G01 X142.9087 Y-97.8406
G01 X142.9174 Y-97.7823
G01 X142.9203 Y-97.7235
G01 X142.9203 Y-97.1481
G01 X142.9821 Y-97.1185
G01 X143.0957 Y-97.0504
G01 X143.1018 Y-97.0462
G01 X143.2062 Y-96.9687
G01 X143.2119 Y-96.9640
G01 X143.3099 Y-96.8749
G01 X143.3990 Y-96.7769
G01 X143.4037 Y-96.7712
G01 X143.4812 Y-96.6668
G01 X143.4867 Y-96.6587
G01 X143.5547 Y-96.5450
G01 X143.6114 Y-96.4252
G01 X143.6152 Y-96.4162
G01 X143.6597 Y-96.2914
G01 X143.6920 Y-96.1629
G01 X143.6935 Y-96.1557
G01 X143.7127 Y-96.0271
G01 X143.7136 Y-96.0173
G01 X143.7200 Y-95.8850
G01 X143.7136 Y-95.7527
G01 X143.7127 Y-95.7429
G01 X143.6931 Y-95.6119
G01 X143.6604 Y-95.4810
G01 X143.6582 Y-95.4739
G01 X143.6134 Y-95.3492
G01 X143.5569 Y-95.2294
G01 X143.5535 Y-95.2229
G01 X143.4867 Y-95.1113
G01 X143.4827 Y-95.1052
G01 X143.4037 Y-94.9988
G01 X143.3737 Y-94.9652
G01 X145.0286 Y-93.3103
G01 X150.8814 Y-93.3103
G01 X152.7249 Y-95.1538
G01 X152.7242 Y-95.1618
G01 X152.7200 Y-95.2500
G01 X152.7242 Y-95.3382
G01 X152.7252 Y-95.3480
G01 X152.7383 Y-95.4353
G01 X152.7596 Y-95.5210
G01 X152.7624 Y-95.5304
G01 X152.7923 Y-95.6135
G01 X152.8300 Y-95.6934
G01 X152.8346 Y-95.7021
G01 X152.8801 Y-95.7778
G01 X152.9326 Y-95.8488
G01 X152.9388 Y-95.8564
G01 X152.9982 Y-95.9218
G01 X153.0636 Y-95.9812
G01 X153.0697 Y-95.9863
G01 X153.0697 Y-97.0537
G01 X153.0636 Y-97.0588
G01 X153.0018 Y-97.1149
G01 X152.9949 Y-97.1218
G01 X152.9356 Y-97.1873
G01 X152.8829 Y-97.2582
G01 X152.8775 Y-97.2664
G01 X152.8322 Y-97.3422
G01 X152.7943 Y-97.4220
G01 X152.7905 Y-97.4310
G01 X152.7609 Y-97.5142
G01 X152.7393 Y-97.5999
G01 X152.7374 Y-97.6095
G01 X152.7246 Y-97.6969
G01 X152.7200 Y-97.7900
G01 X152.7242 Y-97.8782
G01 X152.7252 Y-97.8880
G01 X152.7388 Y-97.9777
G01 X152.7609 Y-98.0658
G01 X152.7905 Y-98.1490
G01 X152.7943 Y-98.1580
G01 X152.8322 Y-98.2378
G01 X152.8801 Y-98.3178
G01 X152.9326 Y-98.3888
G01 X152.9388 Y-98.3964
G01 X152.9949 Y-98.4582
G01 X153.0018 Y-98.4651
G01 X153.0673 Y-98.5244
G01 X153.1382 Y-98.5771
G01 X153.1464 Y-98.5825
G01 X153.2179 Y-98.6254
G01 X153.2266 Y-98.6300
G01 X153.3065 Y-98.6677
G01 X153.3942 Y-98.6991
G01 X153.4847 Y-98.7217
G01 X153.5720 Y-98.7348
G01 X153.5818 Y-98.7358
G01 X153.6700 Y-98.7400
G01 X153.7582 Y-98.7358
G01 X153.7680 Y-98.7348
G01 X153.8505 Y-98.7226
G01 X153.8601 Y-98.7207
G01 X153.9458 Y-98.6991
G01 X154.0335 Y-98.6677
G01 X154.1178 Y-98.6278
G01 X154.1936 Y-98.5825
G01 X154.2018 Y-98.5771
G01 X154.2727 Y-98.5244
G01 X154.3418 Y-98.4618
G01 X154.4044 Y-98.3927
G01 X154.4599 Y-98.3178
G01 X154.5078 Y-98.2378
G01 X154.5477 Y-98.1535
G01 X154.5791 Y-98.0658
G01 X154.6017 Y-97.9753
G01 X154.6148 Y-97.8880
G01 X154.6158 Y-97.8782
G01 X154.6200 Y-97.7900
G01 X154.6154 Y-97.6969
G01 X154.6026 Y-97.6095
G01 X154.6007 Y-97.5999
G01 X154.5791 Y-97.5142
G01 X154.5495 Y-97.4310
G01 X154.5457 Y-97.4220
G01 X154.5078 Y-97.3422
G01 X154.4625 Y-97.2664
G01 X154.4571 Y-97.2582
G01 X154.4044 Y-97.1873
G01 X154.3451 Y-97.1218
G01 X154.3382 Y-97.1149
G01 X154.2764 Y-97.0588
G01 X154.2703 Y-97.0537
G01 X154.2703 Y-95.9863
G01 X154.2764 Y-95.9812
G01 X154.3418 Y-95.9218
G01 X154.4044 Y-95.8527
G01 X154.4599 Y-95.7778
G01 X154.5078 Y-95.6978
G01 X154.5477 Y-95.6135
G01 X154.5791 Y-95.5258
G01 X154.6017 Y-95.4353
G01 X154.6148 Y-95.3480
G01 X154.6158 Y-95.3382
G01 X154.6200 Y-95.2500
G01 X154.6154 Y-95.1569
G01 X154.6017 Y-95.0647
G01 X154.5791 Y-94.9742
G01 X154.5477 Y-94.8865
G01 X154.5078 Y-94.8022
G01 X154.4599 Y-94.7222
G01 X154.4074 Y-94.6512
G01 X154.4028 Y-94.6454
G01 X154.3451 Y-94.5818
G01 X154.3382 Y-94.5749
G01 X154.2727 Y-94.5156
G01 X154.2018 Y-94.4629
G01 X154.1936 Y-94.4575
G01 X154.1178 Y-94.4122
G01 X154.0335 Y-94.3723
G01 X153.9504 Y-94.3424
G01 X153.9410 Y-94.3396
G01 X153.8553 Y-94.3183
G01 X153.7680 Y-94.3052
G01 X153.7582 Y-94.3042
G01 X153.6700 Y-94.3000
G01 X153.5818 Y-94.3042
G01 X153.5738 Y-94.3049
G01 X151.5527 Y-92.2838
G01 X151.5145 Y-92.2492
G01 X151.5069 Y-92.2430
G01 X151.4635 Y-92.2109
G01 X151.4172 Y-92.1830
G01 X151.4086 Y-92.1784
G01 X151.3597 Y-92.1554
G01 X151.3089 Y-92.1371
G01 X151.2995 Y-92.1343
G01 X151.2471 Y-92.1213
G01 X151.1937 Y-92.1132
G01 X151.1839 Y-92.1123
G01 X151.1300 Y-92.1097
G01 X144.7800 Y-92.1097
G01 X144.7212 Y-92.1126
G01 X144.6677 Y-92.1204
G01 X144.6581 Y-92.1224
G01 X144.6034 Y-92.1363
G01 X144.5503 Y-92.1554
G01 X144.5014 Y-92.1784
G01 X144.4928 Y-92.1830
G01 X144.4465 Y-92.2109
G01 X144.4031 Y-92.2430
G01 X144.3955 Y-92.2492
G01 X144.3573 Y-92.2838
G01 X142.1437 Y-94.4974
G01 X142.0469 Y-94.5119
G01 X141.9183 Y-94.5440
G01 X141.9089 Y-94.5468
G01 X141.7888 Y-94.5898
G01 X141.7798 Y-94.5936
G01 X141.6600 Y-94.6503
G01 X141.5443 Y-94.7196
G01 X141.5382 Y-94.7238
G01 X141.4318 Y-94.8028
G01 X141.3301 Y-94.8951
G01 X141.2378 Y-94.9968
G01 X141.1559 Y-95.1072
G01 X141.0853 Y-95.2250
G01 X141.0266 Y-95.3492
G01 X140.9803 Y-95.4786
G01 X140.9469 Y-95.6119
G01 X140.9267 Y-95.7478
G01 X140.9200 Y-95.8850
G01 X140.9267 Y-96.0222
G01 X140.9461 Y-96.1533
G01 X140.9480 Y-96.1629
G01 X140.9803 Y-96.2914
G01 X141.0248 Y-96.4162
G01 X141.0286 Y-96.4252
G01 X141.0831 Y-96.5406
G01 X141.0877 Y-96.5492
G01 X141.1559 Y-96.6628
G01 X141.2363 Y-96.7712
G01 X141.2410 Y-96.7769
G01 X141.3301 Y-96.8749
G01 X141.4281 Y-96.9640
G01 X141.4338 Y-96.9687
G01 X141.5382 Y-97.0462
G01 X141.5443 Y-97.0504
G01 X141.6579 Y-97.1185
G01 X141.7197 Y-97.1481
G01 X141.7197 Y-97.4614
G01 X139.4514 Y-99.7297
G01 X135.1752 Y-99.7297
G01 X132.9203 Y-97.4748
G01 X132.9203 Y-97.1481
G01 X132.9821 Y-97.1185
G01 X133.0937 Y-97.0517
G01 X133.0998 Y-97.0477
G01 X133.2082 Y-96.9672
G01 X133.3082 Y-96.8767
G01 X133.3133 Y-96.8714
G01 X133.4022 Y-96.7732
G01 X133.4812 Y-96.6668
G01 X133.4867 Y-96.6587
G01 X133.5523 Y-96.5492
G01 X133.5558 Y-96.5428
G01 X133.6114 Y-96.4252
G01 X133.6152 Y-96.4162
G01 X133.6597 Y-96.2914
G01 X133.6920 Y-96.1629
G01 X133.6939 Y-96.1533
G01 X133.7133 Y-96.0222
G01 X133.7199 Y-95.8899
G01 X133.7200 Y-95.8825
G01 X133.7133 Y-95.7478
G01 X133.6939 Y-95.6167
G01 X133.6920 Y-95.6071
G01 X133.6597 Y-95.4786
G01 X133.6134 Y-95.3492
G01 X133.5569 Y-95.2294
G01 X133.5523 Y-95.2208
G01 X133.4841 Y-95.1072
G01 X133.4022 Y-94.9968
G01 X133.3133 Y-94.8986
G01 X133.3064 Y-94.8917
G01 X133.2082 Y-94.8028
G01 X133.1018 Y-94.7238
G01 X133.0937 Y-94.7183
G01 X132.9800 Y-94.6503
G01 X132.8580 Y-94.5925
G01 X132.8512 Y-94.5898
G01 X132.7264 Y-94.5453
G01 X132.5979 Y-94.5130
G01 X132.5883 Y-94.5111
G01 X132.4572 Y-94.4917
G01 X132.3249 Y-94.4851
G01 X132.3151 Y-94.4851
G01 X132.1828 Y-94.4917
G01 X132.0517 Y-94.5111
G01 X132.0421 Y-94.5130
G01 X131.9136 Y-94.5453
G01 X131.7888 Y-94.5898
G01 X131.7798 Y-94.5936
G01 X131.6600 Y-94.6503
G01 X131.5422 Y-94.7209
G01 X131.4318 Y-94.8028
G01 X131.3336 Y-94.8917
G01 X131.3267 Y-94.8986
G01 X131.2378 Y-94.9968
G01 X131.1588 Y-95.1032
G01 X131.1533 Y-95.1113
G01 X131.0853 Y-95.2250
G01 X131.0286 Y-95.3448
G01 X131.0248 Y-95.3538
G01 X130.9803 Y-95.4786
G01 X130.9480 Y-95.6071
G01 X130.9461 Y-95.6167
G01 X130.9267 Y-95.7478
G01 X130.9201 Y-95.8801
G01 X130.9200 Y-95.8875
G01 X130.9267 Y-96.0222
G01 X130.9461 Y-96.1533
G01 X130.9480 Y-96.1629
G01 X130.9803 Y-96.2914
G01 X131.0248 Y-96.4162
G01 X131.0286 Y-96.4252
G01 X131.0853 Y-96.5450
G01 X131.1546 Y-96.6607
G01 X131.1588 Y-96.6668
G01 X131.2348 Y-96.7693
G01 X131.2410 Y-96.7769
G01 X131.3301 Y-96.8749
G01 X131.4300 Y-96.9656
G01 X131.4357 Y-96.9702
G01 X131.5382 Y-97.0462
G01 X131.5443 Y-97.0504
G01 X131.6579 Y-97.1185
G01 X131.7197 Y-97.1481
G01 X131.7197 Y-97.7235
G01 X131.7223 Y-97.7774
G01 X131.7232 Y-97.7872
G01 X131.7313 Y-97.8406
G01 X131.7443 Y-97.8930
G01 X131.7471 Y-97.9024
G01 X131.7654 Y-97.9532
G01 X131.7884 Y-98.0020
G01 X131.7930 Y-98.0107
G01 X131.8209 Y-98.0570
G01 X131.8530 Y-98.1004
G01 X131.8592 Y-98.1080
G01 X131.8956 Y-98.1479
G01 X134.5021 Y-100.7544
G01 X134.5457 Y-100.7940
G01 X134.5910 Y-100.8277
G01 X134.6393 Y-100.8570
G01 X134.6480 Y-100.8616
G01 X134.6968 Y-100.8846
G01 X134.7523 Y-100.9044
G01 X134.8046 Y-100.9176
G01 X134.8143 Y-100.9196
G01 X134.8677 Y-100.9274
G01 X134.9241 Y-100.9302
G01 X139.4514 Y-100.9303
G01 X143.3413 Y-104.8202
G01 X143.3832 Y-104.8580
G01 X143.4265 Y-104.8903
G01 X143.4347 Y-104.8957
G01 X143.4768 Y-104.9210
G01 X143.4854 Y-104.9256
G01 X143.5343 Y-104.9486
G01 X143.5898 Y-104.9684
G01 X143.6469 Y-104.9827
G01 X143.7027 Y-104.9911
G01 X143.7101 Y-104.9917
G01 X143.7640 Y-104.9943
G01 X183.1389 Y-104.9941
G01 X183.1928 Y-104.9914
G01 X183.2511 Y-104.9827
G01 X183.3082 Y-104.9684
G01 X183.3591 Y-104.9503
G01 X183.3682 Y-104.9466
G01 X183.4170 Y-104.9234
G01 X183.4633 Y-104.8957
G01 X183.4715 Y-104.8903
G01 X183.5109 Y-104.8610
G01 X183.5185 Y-104.8548
G01 X183.5584 Y-104.8184
G01 X185.3364 Y-103.0404
G01 X185.3760 Y-102.9968
G01 X185.4083 Y-102.9535
G01 X185.4137 Y-102.9453
G01 X185.4390 Y-102.9032
G01 X185.4436 Y-102.8946
G01 X185.4666 Y-102.8457
G01 X185.4864 Y-102.7902
G01 X185.5007 Y-102.7331
G01 X185.5088 Y-102.6797
G01 X185.5097 Y-102.6699
G01 X185.5123 Y-102.6160
G01 X185.5123 Y-83.2193
G01 X185.5501 Y-83.1846
G01 X185.6061 Y-83.1228
G01 X185.6107 Y-83.1171
G01 X185.6589 Y-83.0520
G01 X185.6629 Y-83.0459
G01 X185.7057 Y-82.9743
G01 X185.7425 Y-82.8967
G01 X185.7453 Y-82.8898
G01 X185.7732 Y-82.8113
G01 X185.7947 Y-82.7256
G01 X185.8077 Y-82.6382
G01 X185.8120 Y-82.5500
G01 X185.8077 Y-82.4618
G01 X185.7947 Y-82.3744
G01 X185.7732 Y-82.2887
G01 X185.7453 Y-82.2102
G01 X185.7425 Y-82.2033
G01 X185.7057 Y-82.1257
G01 X185.6629 Y-82.0541
G01 X185.6589 Y-82.0480
G01 X185.6107 Y-81.9829
G01 X185.6061 Y-81.9772
G01 X185.5501 Y-81.9154
G01 X185.5123 Y-81.8807
G01 X185.5123 Y-30.4800
G01 X185.5094 Y-30.4212
G01 X185.5016 Y-30.3677
G01 X185.4996 Y-30.3581
G01 X185.4864 Y-30.3058
G01 X185.4683 Y-30.2549
G01 X185.4646 Y-30.2458
G01 X185.4414 Y-30.1970
G01 X185.4111 Y-30.1465
G01 X185.3790 Y-30.1031
G01 X185.3728 Y-30.0955
G01 X185.3398 Y-30.0591
G01 X185.3329 Y-30.0522
G01 X185.2928 Y-30.0160
G01 X185.2495 Y-29.9837
G01 X185.2413 Y-29.9783
G01 X185.1992 Y-29.9530
G01 X185.1906 Y-29.9484
G01 X185.1417 Y-29.9254
G01 X185.0862 Y-29.9056
G01 X185.0291 Y-29.8913
G01 X184.9757 Y-29.8832
G01 X184.9659 Y-29.8823
G01 X184.9120 Y-29.8797
G01 X173.3893 Y-29.8797
G01 X173.3546 Y-29.8419
G01 X173.2928 Y-29.7859
G01 X173.2871 Y-29.7813
G01 X173.2220 Y-29.7331
G01 X173.2159 Y-29.7291
G01 X173.1443 Y-29.6863
G01 X173.0667 Y-29.6495
G01 X173.0598 Y-29.6467
G01 X172.9813 Y-29.6188
G01 X172.8956 Y-29.5973
G01 X172.8082 Y-29.5843
G01 X172.7200 Y-29.5800
G01 X172.6318 Y-29.5843
G01 X172.5444 Y-29.5973
G01 X172.4587 Y-29.6188
G01 X172.3802 Y-29.6467
G01 X172.3733 Y-29.6495
G01 X172.2957 Y-29.6863
G01 X172.2241 Y-29.7291
G01 X172.2180 Y-29.7331
G01 X172.1529 Y-29.7813
G01 X172.1472 Y-29.7859
G01 X172.0854 Y-29.8419
G01 X172.0507 Y-29.8797
G01 X137.7950 Y-29.8797
G01 X137.7362 Y-29.8826
G01 X137.6827 Y-29.8904
G01 X137.6731 Y-29.8924
G01 X137.6184 Y-29.9063
G01 X137.5653 Y-29.9254
G01 X137.5120 Y-29.9506
G01 X137.4615 Y-29.9809
G01 X137.4181 Y-30.0130
G01 X137.4123 Y-30.0176
G01 X137.3706 Y-30.0556
G01 X136.7722 Y-30.6541
G01 X136.7360 Y-30.6942
G01 X136.7009 Y-30.7415
G01 X136.6706 Y-30.7920
G01 X136.6474 Y-30.8408
G01 X136.6437 Y-30.8499
G01 X136.6271 Y-30.8961
G01 X136.6243 Y-30.9055
G01 X136.6113 Y-30.9579
G01 X136.6026 Y-31.0162
G01 X136.5997 Y-31.0750
G01 X136.5997 Y-39.9707
G01 X136.5636 Y-40.0036
G01 X136.5307 Y-40.0397
G01 X123.8225 Y-40.0398
G01 X123.7662 Y-40.0426
G01 X123.7127 Y-40.0504
G01 X123.7031 Y-40.0524
G01 X123.6508 Y-40.0656
G01 X123.5953 Y-40.0854
G01 X123.5464 Y-40.1084
G01 X123.5378 Y-40.1130
G01 X123.4895 Y-40.1423
G01 X123.4442 Y-40.1760
G01 X123.4006 Y-40.2156
G01 X118.2006 Y-45.4156
G01 X118.1610 Y-45.4592
G01 X118.1259 Y-45.5065
G01 X118.0956 Y-45.5570
G01 X118.0724 Y-45.6058
G01 X118.0687 Y-45.6149
G01 X118.0506 Y-45.6658
G01 X118.0363 Y-45.7229
G01 X118.0276 Y-45.7812
G01 X118.0247 Y-45.8400
G01 X118.0247 Y-52.0541
G01 X117.9305 Y-52.1107
G01 X117.8359 Y-52.1807
G01 X117.8283 Y-52.1869
G01 X117.7411 Y-52.2661
G01 X117.6619 Y-52.3533
G01 X117.6557 Y-52.3609
G01 X117.5857 Y-52.4555
G01 X117.5226 Y-52.5608
G01 X117.4702 Y-52.6716
G01 X117.4304 Y-52.7825
G01 X117.4275 Y-52.7919
G01 X117.3990 Y-52.9061
G01 X117.3810 Y-53.0275
G01 X117.3751 Y-53.1451
G01 X117.3751 Y-53.1549
G01 X117.3807 Y-53.2676
G01 X117.3816 Y-53.2774
G00 Z2.0000
(Block-name: block)
(Block-expand: 0)
(Block-enable: 1)
G00 X132.6036 Y-53.3038
G01 F60.00
G01 Z-0.1866
G01 F120.00
G01 X132.6201 Y-53.4154
G01 X132.6225 Y-53.4290
G01 X132.6255 Y-53.4424
G01 X132.6529 Y-53.5519
G01 X132.6566 Y-53.5651
G01 X132.6609 Y-53.5782
G01 X132.6989 Y-53.6844
G01 X132.7039 Y-53.6972
G01 X132.7094 Y-53.7098
G01 X132.7577 Y-53.8118
G01 X132.7639 Y-53.8241
G01 X132.7706 Y-53.8361
G01 X132.8286 Y-53.9329
G01 X132.8360 Y-53.9445
G01 X132.8439 Y-53.9557
G01 X132.9111 Y-54.0463
G01 X132.9196 Y-54.0572
G01 X132.9286 Y-54.0676
G01 X133.0044 Y-54.1512
G01 X133.0138 Y-54.1612
G01 X133.0238 Y-54.1706
G01 X133.1074 Y-54.2464
G01 X133.1232 Y-54.2597
G01 X133.2193 Y-54.3311
G01 X133.2305 Y-54.3390
G01 X133.2421 Y-54.3464
G01 X133.3389 Y-54.4044
G01 X133.3509 Y-54.4111
G01 X133.3632 Y-54.4173
G01 X133.4652 Y-54.4656
G01 X133.4778 Y-54.4711
G01 X133.4906 Y-54.4761
G01 X133.5968 Y-54.5141
G01 X133.6099 Y-54.5184
G01 X133.6231 Y-54.5221
G01 X133.7326 Y-54.5495
G01 X133.7460 Y-54.5525
G01 X133.7596 Y-54.5549
G01 X133.8712 Y-54.5714
G01 X133.8848 Y-54.5731
G01 X133.8985 Y-54.5741
G01 X134.0113 Y-54.5797
G01 X134.0250 Y-54.5800
G01 X134.0387 Y-54.5797
G01 X134.1515 Y-54.5741
G01 X134.1652 Y-54.5731
G01 X134.1788 Y-54.5714
G01 X134.2904 Y-54.5549
G01 X134.3040 Y-54.5525
G01 X134.3203 Y-54.5488
G01 X134.9333 Y-55.1617
G01 X134.9432 Y-55.1712
G01 X134.9848 Y-55.2087
G01 X135.0008 Y-55.2216
G01 X135.0403 Y-55.2508
G01 X135.0515 Y-55.2588
G01 X135.0631 Y-55.2661
G01 X135.1052 Y-55.2913
G01 X135.1172 Y-55.2981
G01 X135.1295 Y-55.3043
G01 X135.1738 Y-55.3253
G01 X135.1864 Y-55.3309
G01 X135.1992 Y-55.3358
G01 X135.2520 Y-55.3546
G01 X135.2718 Y-55.3603
G01 X135.3194 Y-55.3722
G01 X135.3328 Y-55.3753
G01 X135.3463 Y-55.3776
G01 X135.3949 Y-55.3848
G01 X135.4085 Y-55.3865
G01 X135.4222 Y-55.3875
G01 X135.4713 Y-55.3899
G01 X135.4850 Y-55.3903
G01 X138.7380 Y-55.3903
G01 X138.7078 Y-55.4541
G01 X138.7022 Y-55.4667
G01 X138.6973 Y-55.4795
G01 X138.6708 Y-55.5534
G01 X138.6646 Y-55.5731
G01 X138.6438 Y-55.6559
G01 X138.6408 Y-55.6693
G01 X138.6384 Y-55.6828
G01 X138.6269 Y-55.7605
G01 X138.6252 Y-55.7741
G01 X138.6242 Y-55.7878
G01 X138.6203 Y-55.8663
G01 X138.6200 Y-55.8800
G01 X138.6203 Y-55.8937
G01 X138.6242 Y-55.9722
G01 X138.6252 Y-55.9859
G01 X138.6269 Y-55.9995
G01 X138.6384 Y-56.0772
G01 X138.6408 Y-56.0907
G01 X138.6438 Y-56.1041
G01 X138.6646 Y-56.1869
G01 X138.6708 Y-56.2066
G01 X138.6973 Y-56.2805
G01 X138.7022 Y-56.2933
G01 X138.7078 Y-56.3059
G01 X138.7413 Y-56.3768
G01 X138.7475 Y-56.3891
G01 X138.7543 Y-56.4011
G01 X138.7947 Y-56.4684
G01 X138.8020 Y-56.4800
G01 X138.8099 Y-56.4913
G01 X138.8567 Y-56.5543
G01 X138.8651 Y-56.5651
G01 X138.8741 Y-56.5756
G01 X138.9268 Y-56.6337
G01 X138.9363 Y-56.6437
G01 X138.9463 Y-56.6532
G01 X139.0044 Y-56.7059
G01 X139.0202 Y-56.7191
G01 X139.0887 Y-56.7701
G01 X139.1000 Y-56.7780
G01 X139.1116 Y-56.7853
G01 X139.1789 Y-56.8257
G01 X139.1909 Y-56.8325
G01 X139.2032 Y-56.8387
G01 X139.2741 Y-56.8722
G01 X139.2867 Y-56.8778
G01 X139.2995 Y-56.8827
G01 X139.3734 Y-56.9092
G01 X139.3931 Y-56.9154
G01 X139.4759 Y-56.9362
G01 X139.4893 Y-56.9392
G01 X139.5028 Y-56.9416
G01 X139.5805 Y-56.9531
G01 X139.5941 Y-56.9548
G01 X139.6078 Y-56.9558
G01 X139.6863 Y-56.9597
G01 X139.7000 Y-56.9600
G01 X139.7137 Y-56.9597
G01 X139.7922 Y-56.9558
G01 X139.8059 Y-56.9548
G01 X139.8195 Y-56.9531
G01 X139.8972 Y-56.9416
G01 X139.9107 Y-56.9392
G01 X139.9241 Y-56.9362
G01 X140.0069 Y-56.9154
G01 X140.0266 Y-56.9092
G01 X140.1005 Y-56.8827
G01 X140.1133 Y-56.8778
G01 X140.1259 Y-56.8722
G01 X140.1968 Y-56.8387
G01 X140.2151 Y-56.8292
G01 X140.2884 Y-56.7853
G01 X140.3000 Y-56.7780
G01 X140.3113 Y-56.7701
G01 X140.3743 Y-56.7233
G01 X140.3851 Y-56.7149
G01 X140.3956 Y-56.7059
G01 X140.4459 Y-56.6603
G01 X144.8233 Y-56.6603
G01 X144.8593 Y-56.6869
G01 X144.8763 Y-56.6986
G01 X144.9411 Y-56.7375
G01 X144.9591 Y-56.7474
G01 X145.0274 Y-56.7798
G01 X145.0400 Y-56.7854
G01 X145.0528 Y-56.7903
G01 X145.1175 Y-56.8135
G01 X145.1305 Y-56.8178
G01 X145.1438 Y-56.8215
G01 X145.2104 Y-56.8382
G01 X145.2238 Y-56.8412
G01 X145.2374 Y-56.8435
G01 X145.3053 Y-56.8536
G01 X145.3189 Y-56.8553
G01 X145.3326 Y-56.8563
G01 X145.4013 Y-56.8597
G01 X145.4150 Y-56.8600
G01 X145.4287 Y-56.8597
G01 X145.4974 Y-56.8563
G01 X145.5111 Y-56.8553
G01 X145.5247 Y-56.8536
G01 X145.5994 Y-56.8424
G01 X145.6196 Y-56.8382
G01 X145.6862 Y-56.8215
G01 X145.7060 Y-56.8157
G01 X145.7772 Y-56.7903
G01 X145.7900 Y-56.7854
G01 X145.8026 Y-56.7798
G01 X145.8647 Y-56.7505
G01 X145.8770 Y-56.7443
G01 X145.8889 Y-56.7375
G01 X145.9478 Y-56.7022
G01 X145.9595 Y-56.6948
G01 X145.9707 Y-56.6869
G01 X146.0259 Y-56.6460
G01 X146.0367 Y-56.6376
G01 X146.0471 Y-56.6286
G01 X146.1030 Y-56.5778
G01 X146.1174 Y-56.5630
G01 X146.1636 Y-56.5121
G01 X146.1726 Y-56.5017
G01 X146.1810 Y-56.4909
G01 X146.2219 Y-56.4357
G01 X146.2298 Y-56.4245
G01 X146.2372 Y-56.4128
G01 X146.2725 Y-56.3539
G01 X146.2793 Y-56.3420
G01 X146.2855 Y-56.3297
G01 X146.3148 Y-56.2676
G01 X146.3204 Y-56.2550
G01 X146.3253 Y-56.2422
G01 X146.3485 Y-56.1775
G01 X146.3528 Y-56.1645
G01 X146.3565 Y-56.1512
G01 X146.3732 Y-56.0846
G01 X146.3762 Y-56.0712
G01 X146.3785 Y-56.0576
G01 X146.3886 Y-55.9897
G01 X146.3903 Y-55.9761
G01 X146.3913 Y-55.9624
G01 X146.3947 Y-55.8937
G01 X146.3950 Y-55.8800
G01 X146.3947 Y-55.8663
G01 X146.3913 Y-55.7976
G01 X146.3903 Y-55.7839
G01 X146.3886 Y-55.7703
G01 X146.3785 Y-55.7024
G01 X146.3762 Y-55.6888
G01 X146.3732 Y-55.6754
G01 X146.3565 Y-55.6088
G01 X146.3528 Y-55.5955
G01 X146.3485 Y-55.5825
G01 X146.3253 Y-55.5178
G01 X146.3204 Y-55.5050
G01 X146.3148 Y-55.4924
G01 X146.2855 Y-55.4303
G01 X146.2793 Y-55.4180
G01 X146.2725 Y-55.4061
G01 X146.2372 Y-55.3472
G01 X146.2298 Y-55.3355
G01 X146.2219 Y-55.3243
G01 X146.1810 Y-55.2691
G01 X146.1726 Y-55.2583
G01 X146.1636 Y-55.2479
G01 X146.1174 Y-55.1970
G01 X146.1080 Y-55.1870
G01 X146.0980 Y-55.1776
G01 X146.0471 Y-55.1314
G01 X146.0367 Y-55.1224
G01 X146.0259 Y-55.1140
G01 X145.9707 Y-55.0731
G01 X145.9595 Y-55.0652
G01 X145.9478 Y-55.0578
G01 X145.8889 Y-55.0225
G01 X145.8770 Y-55.0157
G01 X145.8647 Y-55.0095
G01 X145.8026 Y-54.9802
G01 X145.7900 Y-54.9746
G01 X145.7772 Y-54.9697
G01 X145.7125 Y-54.9465
G01 X145.6995 Y-54.9422
G01 X145.6862 Y-54.9385
G01 X145.6196 Y-54.9218
G01 X145.6062 Y-54.9188
G01 X145.5926 Y-54.9165
G01 X145.5247 Y-54.9064
G01 X145.5111 Y-54.9047
G01 X145.4974 Y-54.9037
G01 X145.4287 Y-54.9003
G01 X145.4150 Y-54.9000
G01 X145.4013 Y-54.9003
G01 X145.3326 Y-54.9037
G01 X145.3189 Y-54.9047
G01 X145.3053 Y-54.9064
G01 X145.2306 Y-54.9176
G01 X145.2104 Y-54.9218
G01 X145.1438 Y-54.9385
G01 X145.1305 Y-54.9422
G01 X145.1175 Y-54.9465
G01 X145.0528 Y-54.9697
G01 X145.0337 Y-54.9773
G01 X144.9653 Y-55.0095
G01 X144.9470 Y-55.0190
G01 X144.8822 Y-55.0578
G01 X144.8705 Y-55.0652
G01 X144.8593 Y-55.0731
G01 X144.8233 Y-55.0997
G01 X140.4803 Y-55.0997
G01 X140.4803 Y-54.9332
G01 X149.8843 Y-45.5291
G01 X149.9522 Y-45.5258
G01 X149.9659 Y-45.5248
G01 X149.9795 Y-45.5231
G01 X150.0572 Y-45.5116
G01 X150.0707 Y-45.5092
G01 X150.0841 Y-45.5062
G01 X150.1603 Y-45.4872
G01 X150.1735 Y-45.4835
G01 X150.1866 Y-45.4792
G01 X150.2605 Y-45.4527
G01 X150.2733 Y-45.4478
G01 X150.2859 Y-45.4422
G01 X150.3568 Y-45.4087
G01 X150.3691 Y-45.4025
G01 X150.3811 Y-45.3957
G01 X150.4484 Y-45.3553
G01 X150.4600 Y-45.3480
G01 X150.4713 Y-45.3401
G01 X150.5343 Y-45.2933
G01 X150.5451 Y-45.2849
G01 X150.5556 Y-45.2759
G01 X150.6137 Y-45.2232
G01 X150.6285 Y-45.2088
G01 X150.6859 Y-45.1456
G01 X150.6949 Y-45.1351
G01 X150.7033 Y-45.1243
G01 X150.7501 Y-45.0613
G01 X150.7580 Y-45.0500
G01 X150.7653 Y-45.0384
G01 X150.8057 Y-44.9711
G01 X150.8125 Y-44.9591
G01 X150.8187 Y-44.9468
G01 X150.8522 Y-44.8759
G01 X150.8578 Y-44.8633
G01 X150.8627 Y-44.8505
G01 X150.8892 Y-44.7766
G01 X150.8935 Y-44.7635
G01 X150.8972 Y-44.7503
G01 X150.9162 Y-44.6741
G01 X150.9192 Y-44.6607
G01 X150.9216 Y-44.6472
G01 X150.9340 Y-44.5627
G01 X150.9358 Y-44.5422
G01 X150.9397 Y-44.4637
G01 X150.9400 Y-44.4500
G01 X150.9397 Y-44.4363
G01 X150.9358 Y-44.3578
G01 X150.9348 Y-44.3441
G01 X150.9331 Y-44.3305
G01 X150.9216 Y-44.2528
G01 X150.9192 Y-44.2393
G01 X150.9162 Y-44.2259
G01 X150.8972 Y-44.1497
G01 X150.8935 Y-44.1365
G01 X150.8892 Y-44.1234
G01 X150.8627 Y-44.0495
G01 X150.8578 Y-44.0367
G01 X150.8522 Y-44.0241
G01 X150.8187 Y-43.9532
G01 X150.8125 Y-43.9409
G01 X150.8057 Y-43.9289
G01 X150.7653 Y-43.8616
G01 X150.7580 Y-43.8500
G01 X150.7501 Y-43.8387
G01 X150.7033 Y-43.7757
G01 X150.6949 Y-43.7649
G01 X150.6859 Y-43.7544
G01 X150.6403 Y-43.7041
G01 X150.6403 Y-41.4203
G01 X151.0445 Y-41.4203
G01 X151.0948 Y-41.4659
G01 X151.1053 Y-41.4749
G01 X151.1161 Y-41.4833
G01 X151.1847 Y-41.5341
G01 X151.2020 Y-41.5453
G01 X151.2693 Y-41.5857
G01 X151.2874 Y-41.5956
G01 X151.3645 Y-41.6322
G01 X151.3771 Y-41.6378
G01 X151.3899 Y-41.6427
G01 X151.4638 Y-41.6692
G01 X151.4769 Y-41.6735
G01 X151.4901 Y-41.6772
G01 X151.5663 Y-41.6962
G01 X151.5865 Y-41.7005
G01 X151.6709 Y-41.7131
G01 X151.6845 Y-41.7148
G01 X151.6982 Y-41.7158
G01 X151.7767 Y-41.7197
G01 X151.7904 Y-41.7200
G01 X151.8041 Y-41.7197
G01 X151.8826 Y-41.7158
G01 X151.8963 Y-41.7148
G01 X151.9099 Y-41.7131
G01 X151.9876 Y-41.7016
G01 X152.0011 Y-41.6992
G01 X152.0145 Y-41.6962
G01 X152.0907 Y-41.6772
G01 X152.1039 Y-41.6735
G01 X152.1170 Y-41.6692
G01 X152.1909 Y-41.6427
G01 X152.2037 Y-41.6378
G01 X152.2163 Y-41.6322
G01 X152.2872 Y-41.5987
G01 X152.2995 Y-41.5925
G01 X152.3115 Y-41.5857
G01 X152.3788 Y-41.5453
G01 X152.3904 Y-41.5380
G01 X152.4017 Y-41.5301
G01 X152.4647 Y-41.4833
G01 X152.4755 Y-41.4749
G01 X152.4860 Y-41.4659
G01 X152.5441 Y-41.4132
G01 X152.5589 Y-41.3988
G01 X152.6163 Y-41.3356
G01 X152.6253 Y-41.3251
G01 X152.6337 Y-41.3143
G01 X152.6805 Y-41.2513
G01 X152.6884 Y-41.2400
G01 X152.6957 Y-41.2284
G01 X152.7396 Y-41.1551
G01 X152.7491 Y-41.1368
G01 X152.7826 Y-41.0659
G01 X152.7882 Y-41.0533
G01 X152.7931 Y-41.0405
G01 X152.8196 Y-40.9666
G01 X152.8239 Y-40.9535
G01 X152.8276 Y-40.9403
G01 X152.8466 Y-40.8641
G01 X152.8496 Y-40.8507
G01 X152.8520 Y-40.8372
G01 X152.8635 Y-40.7595
G01 X152.8652 Y-40.7459
G01 X152.8662 Y-40.7322
G01 X152.8701 Y-40.6537
G01 X152.8703 Y-40.6331
G01 X152.8662 Y-40.5478
G01 X152.8652 Y-40.5341
G01 X152.8635 Y-40.5205
G01 X152.8520 Y-40.4428
G01 X152.8496 Y-40.4293
G01 X152.8466 Y-40.4159
G01 X152.8276 Y-40.3397
G01 X152.8239 Y-40.3265
G01 X152.8196 Y-40.3134
G01 X152.7931 Y-40.2395
G01 X152.7882 Y-40.2267
G01 X152.7826 Y-40.2141
G01 X152.7491 Y-40.1432
G01 X152.7396 Y-40.1249
G01 X152.6957 Y-40.0516
G01 X152.6884 Y-40.0400
G01 X152.6805 Y-40.0287
G01 X152.6337 Y-39.9657
G01 X152.6253 Y-39.9549
G01 X152.6163 Y-39.9444
G01 X152.5589 Y-39.8812
G01 X152.5441 Y-39.8668
G01 X152.4860 Y-39.8141
G01 X152.4755 Y-39.8051
G01 X152.4647 Y-39.7967
G01 X152.4017 Y-39.7499
G01 X152.3904 Y-39.7420
G01 X152.3788 Y-39.7347
G01 X152.3115 Y-39.6943
G01 X152.2995 Y-39.6875
G01 X152.2872 Y-39.6813
G01 X152.2163 Y-39.6478
G01 X152.2037 Y-39.6422
G01 X152.1909 Y-39.6373
G01 X152.1170 Y-39.6108
G01 X152.1039 Y-39.6065
G01 X152.0907 Y-39.6028
G01 X152.0145 Y-39.5838
G01 X152.0011 Y-39.5808
G01 X151.9876 Y-39.5784
G01 X151.9099 Y-39.5669
G01 X151.8963 Y-39.5652
G01 X151.8826 Y-39.5642
G01 X151.8041 Y-39.5603
G01 X151.7904 Y-39.5600
G01 X151.7767 Y-39.5603
G01 X151.6982 Y-39.5642
G01 X151.6845 Y-39.5652
G01 X151.6709 Y-39.5669
G01 X151.5865 Y-39.5795
G01 X151.5663 Y-39.5838
G01 X151.4901 Y-39.6028
G01 X151.4769 Y-39.6065
G01 X151.4638 Y-39.6108
G01 X151.3899 Y-39.6373
G01 X151.3771 Y-39.6422
G01 X151.3645 Y-39.6478
G01 X151.2874 Y-39.6844
G01 X151.2693 Y-39.6943
G01 X151.2020 Y-39.7347
G01 X151.1847 Y-39.7459
G01 X151.1161 Y-39.7967
G01 X151.1053 Y-39.8051
G01 X151.0948 Y-39.8141
G01 X151.0445 Y-39.8597
G01 X150.6403 Y-39.8597
G01 X150.6403 Y-36.0532
G01 X151.3538 Y-35.3397
G01 X151.3620 Y-35.3475
G01 X151.3724 Y-35.3564
G01 X151.3832 Y-35.3649
G01 X151.3944 Y-35.3728
G01 X151.4120 Y-35.3836
G01 X151.4241 Y-35.3901
G01 X151.4365 Y-35.3960
G01 X151.4492 Y-35.4012
G01 X151.4622 Y-35.4059
G01 X151.4820 Y-35.4116
G01 X151.4954 Y-35.4146
G01 X151.5089 Y-35.4170
G01 X151.5226 Y-35.4187
G01 X151.5363 Y-35.4197
G01 X151.5500 Y-35.4200
G01 X153.2500 Y-35.4200
G01 X153.2637 Y-35.4197
G01 X153.2774 Y-35.4187
G01 X153.2911 Y-35.4170
G01 X153.3046 Y-35.4146
G01 X153.3180 Y-35.4116
G01 X153.3313 Y-35.4079
G01 X153.3443 Y-35.4036
G01 X153.3572 Y-35.3987
G01 X153.3697 Y-35.3931
G01 X153.3820 Y-35.3869
G01 X153.3939 Y-35.3802
G01 X153.4056 Y-35.3728
G01 X153.4168 Y-35.3649
G01 X153.4276 Y-35.3564
G01 X153.4380 Y-35.3475
G01 X153.4480 Y-35.3380
G01 X153.4575 Y-35.3280
G01 X153.4664 Y-35.3176
G01 X153.4749 Y-35.3068
G01 X153.4828 Y-35.2956
G01 X153.4902 Y-35.2839
G01 X153.4969 Y-35.2720
G01 X153.5031 Y-35.2597
G01 X153.5087 Y-35.2472
G01 X153.5136 Y-35.2343
G01 X153.5179 Y-35.2213
G01 X153.5216 Y-35.2080
G01 X153.5246 Y-35.1946
G01 X153.5270 Y-35.1811
G01 X153.5287 Y-35.1674
G01 X153.5297 Y-35.1537
G01 X153.5300 Y-35.1400
G01 X153.5300 Y-33.4400
G01 X153.5297 Y-33.4263
G01 X153.5279 Y-33.4057
G01 X153.5259 Y-33.3921
G01 X153.5232 Y-33.3787
G01 X153.5179 Y-33.3587
G01 X153.5136 Y-33.3457
G01 X153.5087 Y-33.3328
G01 X153.5031 Y-33.3203
G01 X153.4969 Y-33.3080
G01 X153.4902 Y-33.2961
G01 X153.4828 Y-33.2844
G01 X153.4707 Y-33.2677
G01 X153.4620 Y-33.2571
G01 X153.4528 Y-33.2469
G01 X153.4431 Y-33.2372
G01 X153.4329 Y-33.2280
G01 X153.4223 Y-33.2193
G01 X153.4112 Y-33.2111
G01 X153.3998 Y-33.2034
G01 X153.3880 Y-33.1964
G01 X153.3759 Y-33.1899
G01 X153.3635 Y-33.1840
G01 X153.3508 Y-33.1788
G01 X153.3378 Y-33.1741
G01 X153.3247 Y-33.1701
G01 X153.3113 Y-33.1668
G01 X153.2979 Y-33.1641
G01 X153.2843 Y-33.1621
G01 X153.2706 Y-33.1608
G01 X153.2569 Y-33.1601
G01 X151.5431 Y-33.1601
G01 X151.5294 Y-33.1608
G01 X151.5157 Y-33.1621
G01 X151.5021 Y-33.1641
G01 X151.4820 Y-33.1684
G01 X151.4687 Y-33.1721
G01 X151.4557 Y-33.1764
G01 X151.4428 Y-33.1813
G01 X151.4303 Y-33.1869
G01 X151.4180 Y-33.1931
G01 X151.4061 Y-33.1998
G01 X151.3888 Y-33.2111
G01 X151.3724 Y-33.2236
G01 X151.3620 Y-33.2325
G01 X151.3520 Y-33.2420
G01 X151.3380 Y-33.2571
G01 X151.3251 Y-33.2732
G01 X151.3172 Y-33.2844
G01 X151.3098 Y-33.2961
G01 X151.2999 Y-33.3141
G01 X151.2913 Y-33.3328
G01 X151.2864 Y-33.3457
G01 X151.2821 Y-33.3587
G01 X151.2768 Y-33.3787
G01 X151.2730 Y-33.3989
G01 X151.2708 Y-33.4194
G01 X151.2701 Y-33.4331
G01 X151.2700 Y-33.5109
G01 X151.2304 Y-33.5129
G01 X151.2167 Y-33.5143
G01 X151.1613 Y-33.5224
G01 X151.1411 Y-33.5262
G01 X151.0868 Y-33.5397
G01 X151.0735 Y-33.5433
G01 X151.0605 Y-33.5477
G01 X151.0078 Y-33.5666
G01 X150.9888 Y-33.5747
G01 X150.9445 Y-33.5957
G01 X150.9322 Y-33.6019
G01 X150.9202 Y-33.6087
G01 X150.8781 Y-33.6339
G01 X150.8665 Y-33.6412
G01 X150.8553 Y-33.6492
G01 X150.8158 Y-33.6784
G01 X150.7998 Y-33.6913
G01 X150.7582 Y-33.7288
G01 X150.7483 Y-33.7383
G01 X149.3083 Y-35.1783
G01 X149.2988 Y-35.1882
G01 X149.2658 Y-35.2246
G01 X149.2569 Y-35.2350
G01 X149.2484 Y-35.2458
G01 X149.2192 Y-35.2853
G01 X149.2112 Y-35.2965
G01 X149.2039 Y-35.3081
G01 X149.1787 Y-35.3502
G01 X149.1719 Y-35.3622
G01 X149.1657 Y-35.3745
G01 X149.1447 Y-35.4188
G01 X149.1391 Y-35.4314
G01 X149.1342 Y-35.4442
G01 X149.1177 Y-35.4905
G01 X149.1133 Y-35.5035
G01 X149.1097 Y-35.5168
G01 X149.0978 Y-35.5644
G01 X149.0947 Y-35.5778
G01 X149.0924 Y-35.5913
G01 X149.0852 Y-35.6399
G01 X149.0835 Y-35.6535
G01 X149.0825 Y-35.6672
G01 X149.0798 Y-35.7231
G01 X149.0797 Y-39.8597
G01 X140.7800 Y-39.8597
G01 X140.7797 Y-39.8263
G01 X140.7779 Y-39.8057
G01 X140.7759 Y-39.7921
G01 X140.7732 Y-39.7787
G01 X140.7699 Y-39.7653
G01 X140.7659 Y-39.7522
G01 X140.7612 Y-39.7392
G01 X140.7560 Y-39.7265
G01 X140.7501 Y-39.7141
G01 X140.7436 Y-39.7020
G01 X140.7366 Y-39.6902
G01 X140.7289 Y-39.6788
G01 X140.7207 Y-39.6677
G01 X140.7120 Y-39.6571
G01 X140.7028 Y-39.6469
G01 X140.6931 Y-39.6372
G01 X140.6829 Y-39.6280
G01 X140.6723 Y-39.6193
G01 X140.6612 Y-39.6111
G01 X140.6498 Y-39.6034
G01 X140.6380 Y-39.5964
G01 X140.6259 Y-39.5899
G01 X140.6135 Y-39.5840
G01 X140.6008 Y-39.5788
G01 X140.5878 Y-39.5741
G01 X140.5747 Y-39.5701
G01 X140.5613 Y-39.5668
G01 X140.5479 Y-39.5641
G01 X140.5274 Y-39.5613
G01 X140.5137 Y-39.5603
G01 X140.5000 Y-39.5600
G01 X138.9000 Y-39.5600
G01 X138.8863 Y-39.5603
G01 X138.8657 Y-39.5621
G01 X138.8521 Y-39.5641
G01 X138.8387 Y-39.5668
G01 X138.8253 Y-39.5701
G01 X138.8122 Y-39.5741
G01 X138.7992 Y-39.5788
G01 X138.7865 Y-39.5840
G01 X138.7741 Y-39.5899
G01 X138.7620 Y-39.5964
G01 X138.7444 Y-39.6072
G01 X138.7277 Y-39.6193
G01 X138.7171 Y-39.6280
G01 X138.7069 Y-39.6372
G01 X138.6972 Y-39.6469
G01 X138.6880 Y-39.6571
G01 X138.6793 Y-39.6677
G01 X138.6711 Y-39.6788
G01 X138.6634 Y-39.6902
G01 X138.6564 Y-39.7020
G01 X138.6469 Y-39.7203
G01 X138.6413 Y-39.7328
G01 X138.6364 Y-39.7457
G01 X138.6321 Y-39.7587
G01 X138.6284 Y-39.7720
G01 X138.6254 Y-39.7854
G01 X138.6230 Y-39.7989
G01 X138.6213 Y-39.8126
G01 X138.6203 Y-39.8263
G01 X138.6200 Y-39.8400
G01 X138.6200 Y-41.4400
G01 X138.6208 Y-41.4606
G01 X138.6230 Y-41.4811
G01 X138.6254 Y-41.4946
G01 X138.6284 Y-41.5080
G01 X138.6341 Y-41.5278
G01 X138.6413 Y-41.5472
G01 X138.6499 Y-41.5659
G01 X138.6564 Y-41.5780
G01 X138.6634 Y-41.5898
G01 X138.6711 Y-41.6012
G01 X138.6793 Y-41.6123
G01 X138.6925 Y-41.6280
G01 X138.7069 Y-41.6428
G01 X138.7171 Y-41.6520
G01 X138.7277 Y-41.6607
G01 X138.7444 Y-41.6728
G01 X138.7561 Y-41.6802
G01 X138.7680 Y-41.6869
G01 X138.7865 Y-41.6960
G01 X138.8057 Y-41.7036
G01 X138.8187 Y-41.7079
G01 X138.8320 Y-41.7116
G01 X138.8521 Y-41.7159
G01 X138.8726 Y-41.7187
G01 X138.8863 Y-41.7197
G01 X138.9000 Y-41.7200
G01 X140.5000 Y-41.7200
G01 X140.5206 Y-41.7192
G01 X140.5411 Y-41.7170
G01 X140.5546 Y-41.7146
G01 X140.5680 Y-41.7116
G01 X140.5813 Y-41.7079
G01 X140.5943 Y-41.7036
G01 X140.6072 Y-41.6987
G01 X140.6197 Y-41.6931
G01 X140.6380 Y-41.6836
G01 X140.6556 Y-41.6728
G01 X140.6668 Y-41.6649
G01 X140.6776 Y-41.6564
G01 X140.6880 Y-41.6475
G01 X140.6980 Y-41.6380
G01 X140.7075 Y-41.6280
G01 X140.7164 Y-41.6176
G01 X140.7249 Y-41.6068
G01 X140.7328 Y-41.5956
G01 X140.7436 Y-41.5780
G01 X140.7501 Y-41.5659
G01 X140.7560 Y-41.5535
G01 X140.7612 Y-41.5408
G01 X140.7659 Y-41.5278
G01 X140.7699 Y-41.5147
G01 X140.7732 Y-41.5013
G01 X140.7759 Y-41.4879
G01 X140.7779 Y-41.4743
G01 X140.7797 Y-41.4537
G01 X140.7800 Y-41.4203
G01 X149.0797 Y-41.4203
G01 X149.0797 Y-43.7041
G01 X149.0341 Y-43.7544
G01 X149.0251 Y-43.7649
G01 X149.0167 Y-43.7757
G01 X148.9699 Y-43.8387
G01 X148.9620 Y-43.8500
G01 X148.9547 Y-43.8616
G01 X148.9143 Y-43.9289
G01 X148.9075 Y-43.9409
G01 X148.9013 Y-43.9532
G01 X148.8678 Y-44.0241
G01 X148.8622 Y-44.0367
G01 X148.8573 Y-44.0495
G01 X148.8308 Y-44.1234
G01 X148.8265 Y-44.1365
G01 X148.8228 Y-44.1497
G01 X148.8038 Y-44.2259
G01 X148.8008 Y-44.2393
G01 X148.7984 Y-44.2528
G01 X148.7869 Y-44.3305
G01 X148.7852 Y-44.3441
G01 X148.7842 Y-44.3578
G01 X148.7809 Y-44.4257
G01 X139.3768 Y-53.8297
G01 X135.8082 Y-53.8297
G01 X135.4238 Y-53.4453
G01 X135.4275 Y-53.4290
G01 X135.4299 Y-53.4154
G01 X135.4464 Y-53.3038
G01 X135.4481 Y-53.2902
G01 X135.4491 Y-53.2765
G01 X135.4547 Y-53.1637
G01 X135.4550 Y-53.1500
G01 X135.4547 Y-53.1363
G01 X135.4491 Y-53.0235
G01 X135.4481 Y-53.0098
G01 X135.4464 Y-52.9962
G01 X135.4299 Y-52.8846
G01 X135.4275 Y-52.8710
G01 X135.4245 Y-52.8576
G01 X135.3971 Y-52.7481
G01 X135.3934 Y-52.7349
G01 X135.3891 Y-52.7218
G01 X135.3511 Y-52.6156
G01 X135.3461 Y-52.6028
G01 X135.3406 Y-52.5902
G01 X135.2923 Y-52.4882
G01 X135.2861 Y-52.4759
G01 X135.2794 Y-52.4639
G01 X135.2214 Y-52.3671
G01 X135.2140 Y-52.3555
G01 X135.2061 Y-52.3443
G01 X135.1347 Y-52.2482
G01 X135.1214 Y-52.2324
G01 X135.0456 Y-52.1488
G01 X135.0362 Y-52.1388
G01 X135.0262 Y-52.1294
G01 X134.9426 Y-52.0536
G01 X134.9322 Y-52.0446
G01 X134.9213 Y-52.0361
G01 X134.8307 Y-51.9689
G01 X134.8195 Y-51.9610
G01 X134.8079 Y-51.9536
G01 X134.7111 Y-51.8956
G01 X134.6991 Y-51.8889
G01 X134.6868 Y-51.8827
G01 X134.5848 Y-51.8344
G01 X134.5722 Y-51.8289
G01 X134.5594 Y-51.8239
G01 X134.4532 Y-51.7859
G01 X134.4401 Y-51.7816
G01 X134.4269 Y-51.7779
G01 X134.3174 Y-51.7505
G01 X134.3040 Y-51.7475
G01 X134.2904 Y-51.7451
G01 X134.1788 Y-51.7286
G01 X134.1583 Y-51.7263
G01 X134.0387 Y-51.7203
G01 X134.0250 Y-51.7200
G01 X134.0113 Y-51.7203
G01 X133.8985 Y-51.7259
G01 X133.8848 Y-51.7269
G01 X133.8712 Y-51.7286
G01 X133.7596 Y-51.7451
G01 X133.7460 Y-51.7475
G01 X133.7326 Y-51.7505
G01 X133.6231 Y-51.7779
G01 X133.6099 Y-51.7816
G01 X133.5968 Y-51.7859
G01 X133.4906 Y-51.8239
G01 X133.4778 Y-51.8289
G01 X133.4652 Y-51.8344
G01 X133.3632 Y-51.8827
G01 X133.3509 Y-51.8889
G01 X133.3389 Y-51.8956
G01 X133.2421 Y-51.9536
G01 X133.2305 Y-51.9610
G01 X133.2193 Y-51.9689
G01 X133.1287 Y-52.0361
G01 X133.1178 Y-52.0446
G01 X133.1074 Y-52.0536
G01 X133.0238 Y-52.1294
G01 X133.0138 Y-52.1388
G01 X133.0044 Y-52.1488
G01 X132.9286 Y-52.2324
G01 X132.9196 Y-52.2428
G01 X132.9111 Y-52.2537
G01 X132.8439 Y-52.3443
G01 X132.8360 Y-52.3555
G01 X132.8286 Y-52.3671
G01 X132.7706 Y-52.4639
G01 X132.7639 Y-52.4759
G01 X132.7577 Y-52.4882
G01 X132.7094 Y-52.5902
G01 X132.7039 Y-52.6028
G01 X132.6989 Y-52.6156
G01 X132.6609 Y-52.7218
G01 X132.6566 Y-52.7349
G01 X132.6529 Y-52.7481
G01 X132.6255 Y-52.8576
G01 X132.6225 Y-52.8710
G01 X132.6201 Y-52.8846
G01 X132.6036 Y-52.9962
G01 X132.6019 Y-53.0098
G01 X132.6009 Y-53.0235
G01 X132.5953 Y-53.1363
G01 X132.5950 Y-53.1500
G01 X132.5953 Y-53.1637
G01 X132.6009 Y-53.2765
G01 X132.6019 Y-53.2902
G01 X132.6036 Y-53.3038
G00 Z2.0000
(Block-name: block)
(Block-expand: 0)
(Block-enable: 1)
G00 X132.7816 Y-53.2774
G01 F60.00
G01 Z-0.1866
G01 F120.00
G01 X132.7990 Y-53.3939
G01 X132.8288 Y-53.5129
G01 X132.8702 Y-53.6284
G01 X132.9226 Y-53.7392
G01 X132.9857 Y-53.8445
G01 X133.0587 Y-53.9430
G01 X133.1411 Y-54.0339
G01 X133.2283 Y-54.1131
G01 X133.2359 Y-54.1193
G01 X133.3265 Y-54.1865
G01 X133.3347 Y-54.1920
G01 X133.4358 Y-54.2524
G01 X133.5422 Y-54.3029
G01 X133.5512 Y-54.3066
G01 X133.6621 Y-54.3462
G01 X133.7811 Y-54.3760
G01 X133.9025 Y-54.3940
G01 X134.0201 Y-54.3999
G01 X134.0299 Y-54.3999
G01 X134.1426 Y-54.3943
G01 X134.1524 Y-54.3934
G01 X134.2689 Y-54.3760
G01 X134.3755 Y-54.3494
G01 X135.0606 Y-55.0344
G01 X135.1005 Y-55.0708
G01 X135.1081 Y-55.0770
G01 X135.1515 Y-55.1091
G01 X135.2020 Y-55.1394
G01 X135.2553 Y-55.1646
G01 X135.3108 Y-55.1844
G01 X135.3679 Y-55.1987
G01 X135.4213 Y-55.2068
G01 X135.4311 Y-55.2077
G01 X135.4850 Y-55.2103
G01 X139.0997 Y-55.2103
G01 X139.0997 Y-55.2107
G01 X139.0619 Y-55.2454
G01 X139.0059 Y-55.3072
G01 X138.9545 Y-55.3760
G01 X138.9503 Y-55.3820
G01 X138.9063 Y-55.4557
G01 X138.8705 Y-55.5311
G01 X138.8667 Y-55.5402
G01 X138.8381 Y-55.6211
G01 X138.8173 Y-55.7044
G01 X138.8049 Y-55.7869
G01 X138.8040 Y-55.7967
G01 X138.8000 Y-55.8800
G01 X138.8040 Y-55.9633
G01 X138.8049 Y-55.9731
G01 X138.8173 Y-56.0556
G01 X138.8381 Y-56.1389
G01 X138.8667 Y-56.2198
G01 X138.8705 Y-56.2289
G01 X138.9063 Y-56.3043
G01 X138.9491 Y-56.3759
G01 X138.9545 Y-56.3840
G01 X139.0043 Y-56.4510
G01 X139.0602 Y-56.5128
G01 X139.0672 Y-56.5198
G01 X139.1290 Y-56.5757
G01 X139.1960 Y-56.6255
G01 X139.2041 Y-56.6309
G01 X139.2757 Y-56.6737
G01 X139.3511 Y-56.7095
G01 X139.3602 Y-56.7133
G01 X139.4387 Y-56.7412
G01 X139.5196 Y-56.7616
G01 X139.5293 Y-56.7635
G01 X139.6118 Y-56.7757
G01 X139.6951 Y-56.7799
G01 X139.7049 Y-56.7799
G01 X139.7882 Y-56.7757
G01 X139.8707 Y-56.7635
G01 X139.8804 Y-56.7616
G01 X139.9636 Y-56.7405
G01 X140.0398 Y-56.7133
G01 X140.0489 Y-56.7095
G01 X140.1243 Y-56.6737
G01 X140.1980 Y-56.6297
G01 X140.2040 Y-56.6255
G01 X140.2728 Y-56.5741
G01 X140.3346 Y-56.5181
G01 X140.3693 Y-56.4803
G01 X144.8873 Y-56.4803
G01 X144.9094 Y-56.4999
G01 X144.9726 Y-56.5465
G01 X145.0379 Y-56.5855
G01 X145.1044 Y-56.6171
G01 X145.1111 Y-56.6200
G01 X145.1828 Y-56.6456
G01 X145.2589 Y-56.6646
G01 X145.3366 Y-56.6761
G01 X145.4150 Y-56.6800
G01 X145.4934 Y-56.6761
G01 X145.5711 Y-56.6646
G01 X145.6472 Y-56.6456
G01 X145.7211 Y-56.6191
G01 X145.7921 Y-56.5855
G01 X145.8595 Y-56.5452
G01 X145.9225 Y-56.4984
G01 X145.9789 Y-56.4474
G01 X146.0302 Y-56.3912
G01 X146.0364 Y-56.3836
G01 X146.0802 Y-56.3245
G01 X146.1181 Y-56.2614
G01 X146.1227 Y-56.2527
G01 X146.1541 Y-56.1861
G01 X146.1790 Y-56.1169
G01 X146.1819 Y-56.1075
G01 X146.1996 Y-56.0361
G01 X146.2105 Y-55.9633
G01 X146.2115 Y-55.9535
G01 X146.2150 Y-55.8800
G01 X146.2115 Y-55.8065
G01 X146.2105 Y-55.7967
G01 X146.1996 Y-55.7239
G01 X146.1819 Y-55.6525
G01 X146.1790 Y-55.6431
G01 X146.1541 Y-55.5739
G01 X146.1227 Y-55.5073
G01 X146.1181 Y-55.4986
G01 X146.0802 Y-55.4355
G01 X146.0364 Y-55.3764
G01 X146.0302 Y-55.3688
G01 X145.9807 Y-55.3143
G01 X145.9262 Y-55.2648
G01 X145.9186 Y-55.2586
G01 X145.8595 Y-55.2148
G01 X145.7964 Y-55.1769
G01 X145.7877 Y-55.1723
G01 X145.7211 Y-55.1409
G01 X145.6519 Y-55.1160
G01 X145.6449 Y-55.1138
G01 X145.5759 Y-55.0964
G01 X145.5662 Y-55.0945
G01 X145.4934 Y-55.0839
G01 X145.4199 Y-55.0801
G01 X145.4101 Y-55.0801
G01 X145.3366 Y-55.0839
G01 X145.2638 Y-55.0945
G01 X145.2565 Y-55.0959
G01 X145.1828 Y-55.1144
G01 X145.1134 Y-55.1391
G01 X145.1044 Y-55.1429
G01 X145.0401 Y-55.1733
G01 X144.9747 Y-55.2122
G01 X144.9685 Y-55.2162
G01 X144.9094 Y-55.2601
G01 X144.8873 Y-55.2797
G01 X140.3693 Y-55.2797
G01 X140.3364 Y-55.2436
G01 X140.3003 Y-55.2107
G01 X140.3003 Y-54.8586
G01 X149.8112 Y-45.3477
G01 X149.8625 Y-45.3500
G01 X149.9458 Y-45.3459
G01 X150.0307 Y-45.3335
G01 X150.0380 Y-45.3322
G01 X150.1213 Y-45.3112
G01 X150.1998 Y-45.2833
G01 X150.2089 Y-45.2795
G01 X150.2821 Y-45.2449
G01 X150.3559 Y-45.2009
G01 X150.3640 Y-45.1955
G01 X150.4310 Y-45.1457
G01 X150.4928 Y-45.0898
G01 X150.4998 Y-45.0828
G01 X150.5557 Y-45.0210
G01 X150.6055 Y-44.9540
G01 X150.6109 Y-44.9459
G01 X150.6537 Y-44.8743
G01 X150.6895 Y-44.7989
G01 X150.6933 Y-44.7898
G01 X150.7212 Y-44.7113
G01 X150.7427 Y-44.6256
G01 X150.7551 Y-44.5431
G01 X150.7560 Y-44.5333
G01 X150.7599 Y-44.4549
G01 X150.7599 Y-44.4451
G01 X150.7557 Y-44.3618
G01 X150.7427 Y-44.2744
G01 X150.7212 Y-44.1887
G01 X150.6933 Y-44.1102
G01 X150.6905 Y-44.1033
G01 X150.6537 Y-44.0257
G01 X150.6109 Y-43.9541
G01 X150.6069 Y-43.9480
G01 X150.5587 Y-43.8829
G01 X150.5541 Y-43.8772
G01 X150.4981 Y-43.8154
G01 X150.4603 Y-43.7807
G01 X150.4603 Y-41.2403
G01 X151.1211 Y-41.2403
G01 X151.1558 Y-41.2781
G01 X151.2176 Y-41.3341
G01 X151.2864 Y-41.3855
G01 X151.2924 Y-41.3897
G01 X151.3661 Y-41.4337
G01 X151.4415 Y-41.4695
G01 X151.4506 Y-41.4733
G01 X151.5315 Y-41.5019
G01 X151.6148 Y-41.5227
G01 X151.6973 Y-41.5351
G01 X151.7071 Y-41.5360
G01 X151.7904 Y-41.5400
G01 X151.8737 Y-41.5360
G01 X151.8835 Y-41.5351
G01 X151.9660 Y-41.5227
G01 X152.0493 Y-41.5019
G01 X152.1302 Y-41.4733
G01 X152.1393 Y-41.4695
G01 X152.2147 Y-41.4337
G01 X152.2904 Y-41.3883
G01 X152.3614 Y-41.3357
G01 X152.4232 Y-41.2798
G01 X152.4302 Y-41.2728
G01 X152.4829 Y-41.2147
G01 X152.4891 Y-41.2071
G01 X152.5387 Y-41.1400
G01 X152.5841 Y-41.0643
G01 X152.6219 Y-40.9844
G01 X152.6501 Y-40.9059
G01 X152.6530 Y-40.8965
G01 X152.6720 Y-40.8204
G01 X152.6739 Y-40.8107
G01 X152.6861 Y-40.7282
G01 X152.6903 Y-40.6449
G01 X152.6904 Y-40.6375
G01 X152.6861 Y-40.5518
G01 X152.6739 Y-40.4693
G01 X152.6720 Y-40.4596
G01 X152.6530 Y-40.3835
G01 X152.6501 Y-40.3741
G01 X152.6219 Y-40.2956
G01 X152.5841 Y-40.2157
G01 X152.5387 Y-40.1400
G01 X152.4891 Y-40.0729
G01 X152.4829 Y-40.0653
G01 X152.4302 Y-40.0072
G01 X152.4232 Y-40.0002
G01 X152.3614 Y-39.9443
G01 X152.2904 Y-39.8917
G01 X152.2147 Y-39.8463
G01 X152.1393 Y-39.8105
G01 X152.1302 Y-39.8067
G01 X152.0493 Y-39.7781
G01 X151.9660 Y-39.7573
G01 X151.8835 Y-39.7449
G01 X151.8737 Y-39.7440
G01 X151.7904 Y-39.7400
G01 X151.7071 Y-39.7440
G01 X151.6973 Y-39.7449
G01 X151.6148 Y-39.7573
G01 X151.5315 Y-39.7781
G01 X151.4506 Y-39.8067
G01 X151.4415 Y-39.8105
G01 X151.3661 Y-39.8463
G01 X151.2924 Y-39.8903
G01 X151.2864 Y-39.8945
G01 X151.2176 Y-39.9459
G01 X151.1558 Y-40.0019
G01 X151.1211 Y-40.0397
G01 X150.4603 Y-40.0397
G01 X150.4603 Y-35.9786
G01 X151.4500 Y-34.9889
G01 X151.4500 Y-35.1425
G01 X151.4505 Y-35.1498
G01 X151.4515 Y-35.1571
G01 X151.4530 Y-35.1643
G01 X151.4558 Y-35.1737
G01 X151.4586 Y-35.1805
G01 X151.4618 Y-35.1871
G01 X151.4682 Y-35.1976
G01 X151.4727 Y-35.2034
G01 X151.4776 Y-35.2090
G01 X151.4866 Y-35.2173
G01 X151.4924 Y-35.2218
G01 X151.4986 Y-35.2258
G01 X151.5050 Y-35.2293
G01 X151.5117 Y-35.2324
G01 X151.5186 Y-35.2350
G01 X151.5257 Y-35.2370
G01 X151.5378 Y-35.2392
G01 X151.5500 Y-35.2400
G01 X153.2525 Y-35.2400
G01 X153.2622 Y-35.2392
G01 X153.2719 Y-35.2376
G01 X153.2814 Y-35.2350
G01 X153.2883 Y-35.2324
G01 X153.2950 Y-35.2293
G01 X153.3035 Y-35.2245
G01 X153.3115 Y-35.2188
G01 X153.3172 Y-35.2141
G01 X153.3241 Y-35.2072
G01 X153.3303 Y-35.1996
G01 X153.3358 Y-35.1914
G01 X153.3414 Y-35.1805
G01 X153.3457 Y-35.1690
G01 X153.3481 Y-35.1595
G01 X153.3495 Y-35.1498
G01 X153.3500 Y-35.1400
G01 X153.3500 Y-33.4375
G01 X153.3492 Y-33.4278
G01 X153.3481 Y-33.4205
G01 X153.3457 Y-33.4110
G01 X153.3424 Y-33.4017
G01 X153.3382 Y-33.3929
G01 X153.3331 Y-33.3844
G01 X153.3273 Y-33.3766
G01 X153.3224 Y-33.3710
G01 X153.3134 Y-33.3627
G01 X153.3056 Y-33.3569
G01 X153.2971 Y-33.3518
G01 X153.2883 Y-33.3476
G01 X153.2790 Y-33.3443
G01 X153.2695 Y-33.3419
G01 X153.2598 Y-33.3405
G01 X153.2500 Y-33.3400
G01 X151.5500 Y-33.3400
G01 X151.5378 Y-33.3408
G01 X151.5257 Y-33.3430
G01 X151.5163 Y-33.3458
G01 X151.5050 Y-33.3507
G01 X151.4944 Y-33.3569
G01 X151.4847 Y-33.3643
G01 X151.4759 Y-33.3728
G01 X151.4697 Y-33.3804
G01 X151.4630 Y-33.3907
G01 X151.4576 Y-33.4017
G01 X151.4536 Y-33.4133
G01 X151.4515 Y-33.4229
G01 X151.4503 Y-33.4326
G01 X151.4500 Y-33.4400
G01 X151.4500 Y-33.6897
G01 X151.2975 Y-33.6898
G01 X151.2436 Y-33.6924
G01 X151.2363 Y-33.6932
G01 X151.1829 Y-33.7013
G01 X151.1305 Y-33.7143
G01 X151.1211 Y-33.7171
G01 X151.0703 Y-33.7354
G01 X151.0170 Y-33.7606
G01 X150.9665 Y-33.7909
G01 X150.9192 Y-33.8260
G01 X150.8756 Y-33.8656
G01 X149.4356 Y-35.3056
G01 X149.3960 Y-35.3492
G01 X149.3637 Y-35.3925
G01 X149.3583 Y-35.4007
G01 X149.3306 Y-35.4470
G01 X149.3074 Y-35.4958
G01 X149.3037 Y-35.5049
G01 X149.2856 Y-35.5558
G01 X149.2724 Y-35.6081
G01 X149.2704 Y-35.6177
G01 X149.2626 Y-35.6712
G01 X149.2598 Y-35.7275
G01 X149.2597 Y-40.0397
G01 X140.6000 Y-40.0397
G01 X140.6000 Y-39.8375
G01 X140.5989 Y-39.8253
G01 X140.5964 Y-39.8133
G01 X140.5942 Y-39.8063
G01 X140.5914 Y-39.7995
G01 X140.5882 Y-39.7929
G01 X140.5845 Y-39.7865
G01 X140.5803 Y-39.7804
G01 X140.5757 Y-39.7747
G01 X140.5707 Y-39.7693
G01 X140.5653 Y-39.7643
G01 X140.5596 Y-39.7597
G01 X140.5535 Y-39.7555
G01 X140.5471 Y-39.7518
G01 X140.5405 Y-39.7486
G01 X140.5337 Y-39.7458
G01 X140.5267 Y-39.7436
G01 X140.5147 Y-39.7411
G01 X140.5074 Y-39.7403
G01 X140.5000 Y-39.7400
G01 X138.8975 Y-39.7400
G01 X138.8878 Y-39.7408
G01 X138.8781 Y-39.7424
G01 X138.8686 Y-39.7450
G01 X138.8617 Y-39.7476
G01 X138.8550 Y-39.7507
G01 X138.8465 Y-39.7555
G01 X138.8385 Y-39.7612
G01 X138.8310 Y-39.7676
G01 X138.8243 Y-39.7747
G01 X138.8182 Y-39.7824
G01 X138.8130 Y-39.7907
G01 X138.8086 Y-39.7995
G01 X138.8050 Y-39.8086
G01 X138.8024 Y-39.8181
G01 X138.8008 Y-39.8278
G01 X138.8000 Y-39.8375
G01 X138.8000 Y-41.4425
G01 X138.8008 Y-41.4522
G01 X138.8019 Y-41.4595
G01 X138.8043 Y-41.4690
G01 X138.8067 Y-41.4760
G01 X138.8096 Y-41.4828
G01 X138.8142 Y-41.4914
G01 X138.8197 Y-41.4996
G01 X138.8243 Y-41.5053
G01 X138.8293 Y-41.5107
G01 X138.8366 Y-41.5173
G01 X138.8444 Y-41.5231
G01 X138.8529 Y-41.5282
G01 X138.8617 Y-41.5324
G01 X138.8686 Y-41.5350
G01 X138.8757 Y-41.5370
G01 X138.8853 Y-41.5389
G01 X138.8926 Y-41.5397
G01 X138.9000 Y-41.5400
G01 X140.5000 Y-41.5400
G01 X140.5074 Y-41.5397
G01 X140.5171 Y-41.5385
G01 X140.5243 Y-41.5370
G01 X140.5314 Y-41.5350
G01 X140.5383 Y-41.5324
G01 X140.5450 Y-41.5293
G01 X140.5556 Y-41.5231
G01 X140.5615 Y-41.5188
G01 X140.5672 Y-41.5141
G01 X140.5757 Y-41.5053
G01 X140.5803 Y-41.4996
G01 X140.5845 Y-41.4935
G01 X140.5882 Y-41.4871
G01 X140.5914 Y-41.4805
G01 X140.5942 Y-41.4737
G01 X140.5964 Y-41.4667
G01 X140.5989 Y-41.4547
G01 X140.6000 Y-41.4425
G01 X140.6000 Y-41.2403
G01 X149.2597 Y-41.2403
G01 X149.2597 Y-43.7807
G01 X149.2219 Y-43.8154
G01 X149.1659 Y-43.8772
G01 X149.1613 Y-43.8829
G01 X149.1131 Y-43.9480
G01 X149.1091 Y-43.9541
G01 X149.0663 Y-44.0257
G01 X149.0285 Y-44.1056
G01 X148.9988 Y-44.1887
G01 X148.9784 Y-44.2696
G01 X148.9768 Y-44.2768
G01 X148.9649 Y-44.3569
G01 X148.9641 Y-44.3642
G01 X148.9600 Y-44.4475
G01 X148.9623 Y-44.4988
G01 X139.4514 Y-54.0097
G01 X135.7336 Y-54.0097
G01 X135.2244 Y-53.5005
G01 X135.2510 Y-53.3939
G01 X135.2684 Y-53.2774
G01 X135.2693 Y-53.2676
G01 X135.2749 Y-53.1549
G01 X135.2749 Y-53.1451
G01 X135.2690 Y-53.0275
G01 X135.2510 Y-52.9061
G01 X135.2212 Y-52.7871
G01 X135.1816 Y-52.6762
G01 X135.1779 Y-52.6672
G01 X135.1296 Y-52.5651
G01 X135.1250 Y-52.5565
G01 X135.0643 Y-52.4555
G01 X134.9943 Y-52.3609
G01 X134.9881 Y-52.3533
G01 X134.9089 Y-52.2661
G01 X134.8180 Y-52.1837
G01 X134.7195 Y-52.1107
G01 X134.6142 Y-52.0476
G01 X134.5034 Y-51.9952
G01 X134.3879 Y-51.9538
G01 X134.2689 Y-51.9240
G01 X134.1475 Y-51.9060
G01 X134.0250 Y-51.9000
G01 X133.9025 Y-51.9060
G01 X133.7811 Y-51.9240
G01 X133.6669 Y-51.9525
G01 X133.6575 Y-51.9554
G01 X133.5466 Y-51.9952
G01 X133.4401 Y-52.0454
G01 X133.4315 Y-52.0500
G01 X133.3347 Y-52.1080
G01 X133.3265 Y-52.1135
G01 X133.2320 Y-52.1837
G01 X133.1411 Y-52.2661
G01 X133.0587 Y-52.3570
G01 X132.9885 Y-52.4515
G01 X132.9830 Y-52.4597
G01 X132.9250 Y-52.5565
G01 X132.9204 Y-52.5651
G01 X132.8702 Y-52.6716
G01 X132.8304 Y-52.7825
G01 X132.8275 Y-52.7919
G01 X132.7990 Y-52.9061
G01 X132.7810 Y-53.0275
G01 X132.7750 Y-53.1500
G01 X132.7807 Y-53.2676
G01 X132.7816 Y-53.2774
G00 Z2.0000
(Block-name: block)
(Block-expand: 0)
(Block-enable: 1)
G00 X146.6820 Y-56.3141
G01 F60.00
G01 Z-0.1866
G01 F120.00
G01 X148.7197 Y-54.2763
G01 X148.7197 Y-49.5300
G01 X148.7205 Y-49.4986
G01 X148.7229 Y-49.4496
G01 X148.7252 Y-49.4182
G01 X148.7291 Y-49.3871
G01 X148.7388 Y-49.3230
G01 X148.7449 Y-49.2922
G01 X148.7485 Y-49.2769
G01 X148.7645 Y-49.2141
G01 X148.7736 Y-49.1840
G01 X148.8007 Y-49.1082
G01 X148.8127 Y-49.0792
G01 X148.8403 Y-49.0205
G01 X148.8544 Y-48.9925
G01 X148.8699 Y-48.9652
G01 X148.8951 Y-48.9231
G01 X148.9119 Y-48.8965
G01 X148.9300 Y-48.8708
G01 X148.9592 Y-48.8314
G01 X148.9786 Y-48.8066
G01 X148.9991 Y-48.7828
G01 X149.0321 Y-48.7465
G01 X149.0537 Y-48.7237
G01 X149.0765 Y-48.7021
G01 X149.1128 Y-48.6691
G01 X149.1366 Y-48.6486
G01 X149.1614 Y-48.6292
G01 X149.2008 Y-48.6000
G01 X149.2265 Y-48.5819
G01 X149.2531 Y-48.5651
G01 X149.2952 Y-48.5399
G01 X149.3225 Y-48.5244
G01 X149.3505 Y-48.5103
G01 X149.3949 Y-48.4893
G01 X149.4236 Y-48.4765
G01 X149.4530 Y-48.4652
G01 X149.4992 Y-48.4487
G01 X149.5290 Y-48.4388
G01 X149.5593 Y-48.4305
G01 X149.6069 Y-48.4185
G01 X149.6375 Y-48.4117
G01 X149.6685 Y-48.4063
G01 X149.7171 Y-48.3991
G01 X149.7482 Y-48.3952
G01 X149.7796 Y-48.3929
G01 X149.8443 Y-48.3899
G01 X149.8757 Y-48.3899
G01 X149.9561 Y-48.3939
G01 X149.9874 Y-48.3970
G01 X150.0515 Y-48.4063
G01 X150.0670 Y-48.4088
G01 X150.0978 Y-48.4149
G01 X150.1607 Y-48.4305
G01 X150.1910 Y-48.4388
G01 X150.2208 Y-48.4487
G01 X150.2670 Y-48.4652
G01 X150.2964 Y-48.4765
G01 X150.3251 Y-48.4893
G01 X150.3695 Y-48.5103
G01 X150.3975 Y-48.5244
G01 X150.4248 Y-48.5399
G01 X150.4669 Y-48.5651
G01 X150.4935 Y-48.5819
G01 X150.5192 Y-48.6000
G01 X150.5586 Y-48.6292
G01 X150.5755 Y-48.6423
G01 X153.3875 Y-48.6423
G01 X153.4082 Y-48.6367
G01 X153.4235 Y-48.6331
G01 X153.4543 Y-48.6269
G01 X153.4698 Y-48.6244
G01 X153.4854 Y-48.6223
G01 X153.5167 Y-48.6192
G01 X153.5480 Y-48.6177
G01 X154.4798 Y-48.6175
G01 X154.4798 Y-37.9824
G01 X154.1228 Y-37.6250
G01 X154.0687 Y-37.5654
G01 X154.0488 Y-37.5411
G01 X154.0392 Y-37.5286
G01 X154.0008 Y-37.4764
G01 X153.9834 Y-37.4503
G01 X153.9420 Y-37.3813
G01 X153.9272 Y-37.3536
G01 X153.8927 Y-37.2808
G01 X153.8807 Y-37.2518
G01 X153.8536 Y-37.1760
G01 X153.8445 Y-37.1459
G01 X153.8285 Y-37.0831
G01 X153.8217 Y-37.0525
G01 X153.8163 Y-37.0215
G01 X153.8091 Y-36.9729
G01 X153.8052 Y-36.9418
G01 X153.8039 Y-36.9261
G01 X153.7999 Y-36.8457
G01 X153.7997 Y-35.4676
G01 X153.7821 Y-35.4956
G01 X153.7641 Y-35.5212
G01 X153.7545 Y-35.5337
G01 X153.7346 Y-35.5580
G01 X153.7135 Y-35.5813
G01 X153.7025 Y-35.5925
G01 X153.6798 Y-35.6142
G01 X153.6560 Y-35.6347
G01 X153.6312 Y-35.6541
G01 X153.6056 Y-35.6721
G01 X153.5790 Y-35.6889
G01 X153.5517 Y-35.7044
G01 X153.5236 Y-35.7186
G01 X153.4949 Y-35.7313
G01 X153.4803 Y-35.7371
G01 X153.4508 Y-35.7477
G01 X153.4207 Y-35.7568
G01 X153.4055 Y-35.7608
G01 X153.3749 Y-35.7677
G01 X153.3594 Y-35.7706
G01 X153.3283 Y-35.7752
G01 X153.2971 Y-35.7783
G01 X153.2814 Y-35.7792
G01 X153.2500 Y-35.7800
G01 X151.5500 Y-35.7800
G01 X151.5186 Y-35.7792
G01 X151.4873 Y-35.7769
G01 X151.4561 Y-35.7731
G01 X151.4333 Y-35.7692
G01 X151.0003 Y-36.2023
G01 X151.0003 Y-39.4363
G01 X151.0169 Y-39.4259
G01 X151.0843 Y-39.3855
G01 X151.1116 Y-39.3700
G01 X151.1396 Y-39.3559
G01 X151.2106 Y-39.3223
G01 X151.2249 Y-39.3158
G01 X151.2539 Y-39.3038
G01 X151.3426 Y-39.2719
G01 X151.3724 Y-39.2620
G01 X151.4027 Y-39.2536
G01 X151.4941 Y-39.2309
G01 X151.5095 Y-39.2277
G01 X151.5404 Y-39.2223
G01 X151.6181 Y-39.2108
G01 X151.6493 Y-39.2069
G01 X151.6806 Y-39.2046
G01 X151.7590 Y-39.2008
G01 X151.7747 Y-39.2002
G01 X151.8061 Y-39.2002
G01 X151.9002 Y-39.2046
G01 X151.9315 Y-39.2069
G01 X151.9627 Y-39.2108
G01 X152.0559 Y-39.2248
G01 X152.0867 Y-39.2309
G01 X152.1020 Y-39.2346
G01 X152.1781 Y-39.2536
G01 X152.2084 Y-39.2620
G01 X152.2382 Y-39.2719
G01 X152.3122 Y-39.2983
G01 X152.3269 Y-39.3038
G01 X152.3559 Y-39.3158
G01 X152.4412 Y-39.3559
G01 X152.4692 Y-39.3700
G01 X152.4965 Y-39.3855
G01 X152.5773 Y-39.4341
G01 X152.5904 Y-39.4427
G01 X152.6161 Y-39.4608
G01 X152.6792 Y-39.5075
G01 X152.7039 Y-39.5269
G01 X152.7277 Y-39.5474
G01 X152.7859 Y-39.6001
G01 X152.7974 Y-39.6108
G01 X152.8196 Y-39.6330
G01 X152.8830 Y-39.7027
G01 X152.9035 Y-39.7265
G01 X152.9229 Y-39.7512
G01 X152.9788 Y-39.8270
G01 X152.9963 Y-39.8531
G01 X153.0045 Y-39.8665
G01 X153.0449 Y-39.9339
G01 X153.0604 Y-39.9612
G01 X153.0745 Y-39.9892
G01 X153.1081 Y-40.0602
G01 X153.1146 Y-40.0745
G01 X153.1266 Y-40.1035
G01 X153.1585 Y-40.1922
G01 X153.1684 Y-40.2220
G01 X153.1768 Y-40.2523
G01 X153.1958 Y-40.3284
G01 X153.2027 Y-40.3591
G01 X153.2081 Y-40.3900
G01 X153.2196 Y-40.4677
G01 X153.2235 Y-40.4989
G01 X153.2248 Y-40.5145
G01 X153.2296 Y-40.6086
G01 X153.2304 Y-40.6400
G01 X153.2296 Y-40.6714
G01 X153.2248 Y-40.7655
G01 X153.2217 Y-40.7968
G01 X153.2196 Y-40.8123
G01 X153.2081 Y-40.8900
G01 X153.2027 Y-40.9209
G01 X153.1958 Y-40.9516
G01 X153.1768 Y-41.0277
G01 X153.1684 Y-41.0580
G01 X153.1585 Y-41.0878
G01 X153.1266 Y-41.1765
G01 X153.1146 Y-41.2055
G01 X153.1081 Y-41.2198
G01 X153.0745 Y-41.2908
G01 X153.0604 Y-41.3188
G01 X153.0449 Y-41.3461
G01 X153.0045 Y-41.4135
G01 X152.9877 Y-41.4400
G01 X152.9788 Y-41.4530
G01 X152.9229 Y-41.5288
G01 X152.9035 Y-41.5535
G01 X152.8830 Y-41.5773
G01 X152.8196 Y-41.6470
G01 X152.7974 Y-41.6692
G01 X152.7859 Y-41.6799
G01 X152.7277 Y-41.7326
G01 X152.7039 Y-41.7531
G01 X152.6792 Y-41.7725
G01 X152.6161 Y-41.8192
G01 X152.5904 Y-41.8373
G01 X152.5773 Y-41.8459
G01 X152.4965 Y-41.8945
G01 X152.4692 Y-41.9100
G01 X152.4412 Y-41.9241
G01 X152.3559 Y-41.9642
G01 X152.3269 Y-41.9762
G01 X152.3122 Y-41.9817
G01 X152.2382 Y-42.0081
G01 X152.2084 Y-42.0180
G01 X152.1781 Y-42.0264
G01 X152.1020 Y-42.0454
G01 X152.0713 Y-42.0523
G01 X152.0559 Y-42.0552
G01 X151.9627 Y-42.0692
G01 X151.9315 Y-42.0731
G01 X151.9002 Y-42.0754
G01 X151.8061 Y-42.0798
G01 X151.7747 Y-42.0798
G01 X151.7590 Y-42.0792
G01 X151.6806 Y-42.0754
G01 X151.6493 Y-42.0731
G01 X151.6181 Y-42.0692
G01 X151.5404 Y-42.0577
G01 X151.5095 Y-42.0523
G01 X151.4941 Y-42.0491
G01 X151.4027 Y-42.0264
G01 X151.3724 Y-42.0180
G01 X151.3426 Y-42.0081
G01 X151.2539 Y-41.9762
G01 X151.2393 Y-41.9704
G01 X151.2106 Y-41.9577
G01 X151.1396 Y-41.9241
G01 X151.1116 Y-41.9100
G01 X151.0843 Y-41.8945
G01 X151.0169 Y-41.8541
G01 X151.0003 Y-41.8437
G01 X151.0003 Y-43.5717
G01 X151.0484 Y-43.6370
G01 X151.0659 Y-43.6631
G01 X151.1145 Y-43.7439
G01 X151.1300 Y-43.7712
G01 X151.1441 Y-43.7992
G01 X151.1777 Y-43.8702
G01 X151.1904 Y-43.8989
G01 X151.2017 Y-43.9282
G01 X151.2281 Y-44.0022
G01 X151.2380 Y-44.0320
G01 X151.2464 Y-44.0623
G01 X151.2691 Y-44.1537
G01 X151.2752 Y-44.1845
G01 X151.2892 Y-44.2777
G01 X151.2931 Y-44.3089
G01 X151.2954 Y-44.3402
G01 X151.2998 Y-44.4343
G01 X151.2998 Y-44.4657
G01 X151.2954 Y-44.5598
G01 X151.2931 Y-44.5911
G01 X151.2892 Y-44.6223
G01 X151.2777 Y-44.7000
G01 X151.2723 Y-44.7309
G01 X151.2654 Y-44.7616
G01 X151.2464 Y-44.8377
G01 X151.2380 Y-44.8680
G01 X151.2281 Y-44.8978
G01 X151.1962 Y-44.9865
G01 X151.1842 Y-45.0155
G01 X151.1777 Y-45.0298
G01 X151.1441 Y-45.1008
G01 X151.1300 Y-45.1288
G01 X151.1145 Y-45.1561
G01 X151.0741 Y-45.2235
G01 X151.0573 Y-45.2500
G01 X151.0392 Y-45.2757
G01 X150.9925 Y-45.3388
G01 X150.9731 Y-45.3635
G01 X150.9526 Y-45.3873
G01 X150.8999 Y-45.4455
G01 X150.8782 Y-45.4682
G01 X150.8555 Y-45.4899
G01 X150.7973 Y-45.5426
G01 X150.7735 Y-45.5631
G01 X150.7488 Y-45.5825
G01 X150.6857 Y-45.6292
G01 X150.6730 Y-45.6384
G01 X150.6469 Y-45.6559
G01 X150.5661 Y-45.7045
G01 X150.5526 Y-45.7124
G01 X150.5249 Y-45.7272
G01 X150.4255 Y-45.7742
G01 X150.4111 Y-45.7804
G01 X150.3818 Y-45.7917
G01 X150.2930 Y-45.8233
G01 X150.2780 Y-45.8280
G01 X150.2477 Y-45.8364
G01 X150.1716 Y-45.8554
G01 X150.1409 Y-45.8623
G01 X150.1100 Y-45.8677
G01 X150.0453 Y-45.8773
G01 X141.1828 Y-54.7397
G01 X144.7125 Y-54.7397
G01 X144.7560 Y-54.7137
G01 X144.7833 Y-54.6982
G01 X144.8114 Y-54.6841
G01 X144.8735 Y-54.6547
G01 X144.8878 Y-54.6482
G01 X144.9168 Y-54.6362
G01 X144.9962 Y-54.6076
G01 X145.0110 Y-54.6024
G01 X145.0411 Y-54.5933
G01 X145.1382 Y-54.5690
G01 X145.1690 Y-54.5629
G01 X145.2525 Y-54.5503
G01 X145.2680 Y-54.5482
G01 X145.2993 Y-54.5451
G01 X145.3993 Y-54.5402
G01 X145.4150 Y-54.5400
G01 X145.4464 Y-54.5408
G01 X145.5307 Y-54.5451
G01 X145.5620 Y-54.5482
G01 X145.5775 Y-54.5503
G01 X145.6455 Y-54.5604
G01 X145.6764 Y-54.5657
G01 X145.7071 Y-54.5726
G01 X145.7889 Y-54.5933
G01 X145.8040 Y-54.5977
G01 X145.8338 Y-54.6076
G01 X145.8985 Y-54.6307
G01 X145.9278 Y-54.6420
G01 X145.9565 Y-54.6547
G01 X146.0186 Y-54.6841
G01 X146.0467 Y-54.6982
G01 X146.0740 Y-54.7137
G01 X146.1329 Y-54.7490
G01 X146.1595 Y-54.7658
G01 X146.1851 Y-54.7839
G01 X146.2403 Y-54.8248
G01 X146.2651 Y-54.8442
G01 X146.2889 Y-54.8647
G01 X146.3398 Y-54.9108
G01 X146.3625 Y-54.9325
G01 X146.3842 Y-54.9552
G01 X146.4303 Y-55.0061
G01 X146.4508 Y-55.0299
G01 X146.4702 Y-55.0547
G01 X146.5111 Y-55.1099
G01 X146.5292 Y-55.1355
G01 X146.5460 Y-55.1621
G01 X146.5813 Y-55.2210
G01 X146.5968 Y-55.2483
G01 X146.6109 Y-55.2764
G01 X146.6403 Y-55.3385
G01 X146.6530 Y-55.3672
G01 X146.6643 Y-55.3965
G01 X146.6874 Y-55.4612
G01 X146.6973 Y-55.4910
G01 X146.7057 Y-55.5213
G01 X146.7224 Y-55.5879
G01 X146.7293 Y-55.6186
G01 X146.7346 Y-55.6495
G01 X146.7447 Y-55.7175
G01 X146.7485 Y-55.7487
G01 X146.7499 Y-55.7643
G01 X146.7542 Y-55.8486
G01 X146.7550 Y-55.8800
G01 X146.7542 Y-55.9114
G01 X146.7509 Y-55.9800
G01 X146.7499 Y-55.9957
G01 X146.7468 Y-56.0270
G01 X146.7346 Y-56.1105
G01 X146.7293 Y-56.1414
G01 X146.7260 Y-56.1568
G01 X146.7017 Y-56.2539
G01 X146.6926 Y-56.2840
G01 X146.6820 Y-56.3141
G00 Z2.0000
(Block-name: block)
(Block-expand: 0)
(Block-enable: 1)
G00 X155.0602 Y-66.0925
G01 F60.00
G01 Z-0.1866
G01 F120.00
G01 X155.9762 Y-66.0925
G01 X156.0077 Y-66.0933
G01 X156.0233 Y-66.0942
G01 X156.0546 Y-66.0973
G01 X156.0857 Y-66.1019
G01 X156.1165 Y-66.1081
G01 X156.1469 Y-66.1157
G01 X156.1770 Y-66.1248
G01 X156.2066 Y-66.1354
G01 X156.2356 Y-66.1474
G01 X156.2499 Y-66.1539
G01 X156.2700 Y-66.1639
G01 X156.2901 Y-66.1539
G01 X156.3044 Y-66.1474
G01 X156.3334 Y-66.1354
G01 X156.3630 Y-66.1248
G01 X156.3931 Y-66.1157
G01 X156.4082 Y-66.1117
G01 X156.4389 Y-66.1048
G01 X156.4543 Y-66.1019
G01 X156.4854 Y-66.0973
G01 X156.5167 Y-66.0942
G01 X156.5480 Y-66.0927
G01 X156.5638 Y-66.0925
G01 X157.4762 Y-66.0925
G01 X157.5077 Y-66.0933
G01 X157.5233 Y-66.0942
G01 X157.5546 Y-66.0973
G01 X157.5857 Y-66.1019
G01 X157.6165 Y-66.1081
G01 X157.6469 Y-66.1157
G01 X157.6770 Y-66.1248
G01 X157.7066 Y-66.1354
G01 X157.7356 Y-66.1474
G01 X157.7499 Y-66.1539
G01 X157.7700 Y-66.1639
G01 X157.7901 Y-66.1539
G01 X157.8044 Y-66.1474
G01 X157.8334 Y-66.1354
G01 X157.8630 Y-66.1248
G01 X157.8931 Y-66.1157
G01 X157.9082 Y-66.1117
G01 X157.9389 Y-66.1048
G01 X157.9698 Y-66.0994
G01 X157.9854 Y-66.0973
G01 X158.0010 Y-66.0956
G01 X158.0323 Y-66.0933
G01 X158.0638 Y-66.0925
G01 X158.9762 Y-66.0925
G01 X159.0077 Y-66.0933
G01 X159.0390 Y-66.0956
G01 X159.0702 Y-66.0994
G01 X159.0857 Y-66.1019
G01 X159.1165 Y-66.1081
G01 X159.1469 Y-66.1157
G01 X159.1770 Y-66.1248
G01 X159.2066 Y-66.1354
G01 X159.2356 Y-66.1474
G01 X159.2499 Y-66.1539
G01 X159.2700 Y-66.1639
G01 X159.2901 Y-66.1539
G01 X159.3044 Y-66.1474
G01 X159.3334 Y-66.1354
G01 X159.3630 Y-66.1248
G01 X159.3931 Y-66.1157
G01 X159.4082 Y-66.1117
G01 X159.4389 Y-66.1048
G01 X159.4543 Y-66.1019
G01 X159.4854 Y-66.0973
G01 X159.5167 Y-66.0942
G01 X159.5480 Y-66.0927
G01 X159.5638 Y-66.0925
G01 X160.4762 Y-66.0925
G01 X160.5077 Y-66.0933
G01 X160.5233 Y-66.0942
G01 X160.5546 Y-66.0973
G01 X160.5857 Y-66.1019
G01 X160.6165 Y-66.1081
G01 X160.6469 Y-66.1157
G01 X160.6770 Y-66.1248
G01 X160.7066 Y-66.1354
G01 X160.7356 Y-66.1474
G01 X160.7499 Y-66.1539
G01 X160.7700 Y-66.1639
G01 X160.7901 Y-66.1539
G01 X160.8044 Y-66.1474
G01 X160.8334 Y-66.1354
G01 X160.8630 Y-66.1248
G01 X160.8931 Y-66.1157
G01 X160.9082 Y-66.1117
G01 X160.9389 Y-66.1048
G01 X160.9543 Y-66.1019
G01 X160.9854 Y-66.0973
G01 X161.0167 Y-66.0942
G01 X161.0480 Y-66.0927
G01 X161.0638 Y-66.0925
G01 X161.9762 Y-66.0925
G01 X162.0077 Y-66.0933
G01 X162.0233 Y-66.0942
G01 X162.0546 Y-66.0973
G01 X162.0857 Y-66.1019
G01 X162.1165 Y-66.1081
G01 X162.1469 Y-66.1157
G01 X162.1770 Y-66.1248
G01 X162.2066 Y-66.1354
G01 X162.2356 Y-66.1474
G01 X162.2499 Y-66.1539
G01 X162.2700 Y-66.1639
G01 X162.2901 Y-66.1539
G01 X162.3044 Y-66.1474
