(G-CODE GENERATED BY FLATCAM v8.993 - www.flatcam.org - Version Date: 2020/08/01)

(Name: Wasserhahn-B_Cu.gbl_iso_1_cnc)
(Type: G-code from Geometry)
(Units: MM)

(Created on Sonntag, 17 Mai 2020 at 12:34)

(This preprocessor is the default preprocessor used by FlatCAM.)
(It is made to work with MACH3 compatible motion controllers.)

(TOOL DIAMETER: 0.1348 mm)
(Feedrate_XY: 120.0 mm/min)
(Feedrate_Z: 60.0 mm/min)
(Feedrate rapids 1500.0 mm/min)

(Z_Cut: -0.065 mm)
(Z_Move: 1.0 mm)
(Z Start: None mm)
(Z End: 15.0 mm)
(Steps per circle: 64)
(Preprocessor Geometry: default)

(X range:    0.9106 ...   69.2824  mm)
(Y range:    1.1087 ...   76.4578  mm)

(Spindle Speed: None RPM)
G21
G90
G94



G01 F120.00
G00 Z1.0000

M03
G00 X14.6723 Y12.7055
G01 F60.00
G01 Z-0.0650
G01 F120.00
G01 X14.6723 Y8.2804
G01 X14.6749 Y8.2264
G01 X14.6827 Y8.1729
G01 X14.6840 Y8.1664
G01 X14.6968 Y8.1156
G01 X14.7156 Y8.0632
G01 X14.7379 Y8.0158
G01 X14.7410 Y8.0099
G01 X14.7680 Y7.9650
G01 X14.8012 Y7.9203
G01 X14.8363 Y7.8814
G01 X14.8410 Y7.8767
G01 X14.8799 Y7.8416
G01 X14.9246 Y7.8084
G01 X14.9695 Y7.7814
G01 X14.9754 Y7.7783
G01 X15.0228 Y7.7560
G01 X15.0736 Y7.7377
G01 X15.1260 Y7.7244
G01 X15.1325 Y7.7231
G01 X15.1844 Y7.7155
G01 X15.2400 Y7.7127
G01 X29.5626 Y7.7127
G01 X29.5626 Y7.4304
G01 X29.5633 Y7.4205
G01 X29.5655 Y7.4108
G01 X29.5691 Y7.4016
G01 X29.5740 Y7.3930
G01 X29.5812 Y7.3839
G01 X29.5885 Y7.3773
G01 X29.5982 Y7.3710
G01 X29.6073 Y7.3669
G01 X29.6169 Y7.3643
G01 X29.6234 Y7.3633
G01 X29.6300 Y7.3630
G01 X31.3300 Y7.3630
G01 X31.3383 Y7.3635
G01 X31.3448 Y7.3646
G01 X31.3527 Y7.3669
G01 X31.3603 Y7.3702
G01 X31.3688 Y7.3753
G01 X31.3753 Y7.3805
G01 X31.3810 Y7.3864
G01 X31.3869 Y7.3943
G01 X31.3916 Y7.4031
G01 X31.3945 Y7.4108
G01 X31.3964 Y7.4189
G01 X31.3974 Y7.4287
G01 X31.3974 Y9.1304
G01 X31.3967 Y9.1403
G01 X31.3950 Y9.1484
G01 X31.3916 Y9.1577
G01 X31.3869 Y9.1665
G01 X31.3821 Y9.1732
G01 X31.3753 Y9.1803
G01 X31.3674 Y9.1864
G01 X31.3603 Y9.1906
G01 X31.3527 Y9.1939
G01 X31.3448 Y9.1962
G01 X31.3383 Y9.1973
G01 X31.3300 Y9.1978
G01 X29.6300 Y9.1978
G01 X29.6217 Y9.1973
G01 X29.6104 Y9.1949
G01 X29.6012 Y9.1913
G01 X29.5926 Y9.1864
G01 X29.5835 Y9.1792
G01 X29.5759 Y9.1706
G01 X29.5706 Y9.1622
G01 X29.5665 Y9.1531
G01 X29.5636 Y9.1419
G01 X29.5626 Y9.1304
G01 X29.5626 Y8.8481
G01 X28.5077 Y8.8481
G01 X28.5077 Y16.9353
G01 X31.9851 Y20.4127
G01 X34.9283 Y20.4128
G01 X34.9806 Y20.4155
G01 X35.0357 Y20.4237
G01 X35.0898 Y20.4372
G01 X35.1391 Y20.4548
G01 X35.1453 Y20.4573
G01 X35.1896 Y20.4783
G01 X35.1955 Y20.4814
G01 X35.2404 Y20.5084
G01 X35.2851 Y20.5416
G01 X35.3264 Y20.5790
G01 X36.5964 Y21.8490
G01 X36.6338 Y21.8903
G01 X36.6651 Y21.9323
G01 X36.6688 Y21.9378
G01 X36.6964 Y21.9843
G01 X36.7194 Y22.0332
G01 X36.7382 Y22.0856
G01 X36.7517 Y22.1397
G01 X36.7601 Y22.1964
G01 X36.7627 Y22.2504
G01 X36.7627 Y22.8655
G01 X36.8083 Y22.9071
G01 X36.8655 Y22.9701
G01 X36.9162 Y23.0385
G01 X36.9600 Y23.1115
G01 X36.9964 Y23.1885
G01 X37.0250 Y23.2686
G01 X37.0457 Y23.3512
G01 X37.0578 Y23.4321
G01 X37.0585 Y23.4387
G01 X37.0623 Y23.5171
G01 X37.0623 Y23.5237
G01 X37.0582 Y23.6054
G01 X37.0457 Y23.6896
G01 X37.0259 Y23.7690
G01 X37.0240 Y23.7753
G01 X36.9964 Y23.8523
G01 X36.9607 Y23.9278
G01 X36.9162 Y24.0023
G01 X36.8675 Y24.0681
G01 X36.8633 Y24.0732
G01 X36.8083 Y24.1337
G01 X36.7478 Y24.1887
G01 X36.7427 Y24.1929
G01 X36.6769 Y24.2416
G01 X36.6039 Y24.2854
G01 X36.5300 Y24.3204
G01 X36.5239 Y24.3230
G01 X36.4499 Y24.3494
G01 X36.4436 Y24.3513
G01 X36.3642 Y24.3711
G01 X36.2833 Y24.3832
G01 X36.2767 Y24.3839
G01 X36.1950 Y24.3878
G01 X36.1100 Y24.3836
G01 X36.0258 Y24.3711
G01 X35.9464 Y24.3513
G01 X35.9401 Y24.3494
G01 X35.8631 Y24.3218
G01 X35.7891 Y24.2869
G01 X35.7832 Y24.2837
G01 X35.7159 Y24.2434
G01 X35.7104 Y24.2397
G01 X35.6447 Y24.1909
G01 X35.5805 Y24.1326
G01 X35.5245 Y24.0707
G01 X35.4738 Y24.0023
G01 X35.4300 Y23.9293
G01 X35.3936 Y23.8523
G01 X35.3650 Y23.7722
G01 X35.3443 Y23.6896
G01 X35.3318 Y23.6054
G01 X35.3276 Y23.5187
G01 X35.3318 Y23.4354
G01 X35.3443 Y23.3512
G01 X35.3650 Y23.2686
G01 X35.3924 Y23.1915
G01 X35.3950 Y23.1854
G01 X35.4300 Y23.1115
G01 X35.4720 Y23.0413
G01 X35.4757 Y23.0358
G01 X35.5225 Y22.9727
G01 X35.5267 Y22.9676
G01 X35.5817 Y22.9071
G01 X35.6273 Y22.8655
G01 X35.6273 Y22.4855
G01 X34.6899 Y21.5481
G01 X31.7483 Y21.5480
G01 X31.6944 Y21.5453
G01 X31.6425 Y21.5377
G01 X31.6360 Y21.5364
G01 X31.5852 Y21.5236
G01 X31.5359 Y21.5060
G01 X31.5297 Y21.5035
G01 X31.4824 Y21.4810
G01 X31.4346 Y21.4524
G01 X31.3899 Y21.4192
G01 X31.3486 Y21.3818
G01 X27.5386 Y17.5718
G01 X27.5012 Y17.5305
G01 X27.4671 Y17.4844
G01 X27.4394 Y17.4380
G01 X27.4169 Y17.3907
G01 X27.4144 Y17.3845
G01 X27.3968 Y17.3352
G01 X27.3833 Y17.2811
G01 X27.3755 Y17.2293
G01 X27.3748 Y17.2227
G01 X27.3723 Y17.1704
G01 X27.3723 Y8.8481
G01 X15.8077 Y8.8481
G01 X15.8077 Y12.7055
G01 X15.8533 Y12.7471
G01 X15.9083 Y12.8076
G01 X15.9125 Y12.8127
G01 X15.9593 Y12.8758
G01 X15.9630 Y12.8813
G01 X16.0050 Y12.9515
G01 X16.0407 Y13.0269
G01 X16.0700 Y13.1086
G01 X16.0907 Y13.1912
G01 X16.1032 Y13.2754
G01 X16.1074 Y13.3604
G01 X16.1032 Y13.4454
G01 X16.0907 Y13.5296
G01 X16.0700 Y13.6122
G01 X16.0426 Y13.6893
G01 X16.0400 Y13.6954
G01 X16.0050 Y13.7693
G01 X15.9630 Y13.8395
G01 X15.9593 Y13.8450
G01 X15.9125 Y13.9081
G01 X15.9083 Y13.9132
G01 X15.8533 Y13.9737
G01 X15.7915 Y14.0298
G01 X15.7219 Y14.0816
G01 X15.6489 Y14.1254
G01 X15.5719 Y14.1618
G01 X15.4918 Y14.1904
G01 X15.4092 Y14.2111
G01 X15.3250 Y14.2236
G01 X15.2400 Y14.2278
G01 X15.1550 Y14.2236
G01 X15.0708 Y14.2111
G01 X14.9882 Y14.1904
G01 X14.9081 Y14.1618
G01 X14.8311 Y14.1254
G01 X14.7581 Y14.0816
G01 X14.6897 Y14.0309
G01 X14.6267 Y13.9737
G01 X14.5706 Y13.9119
G01 X14.5188 Y13.8423
G01 X14.4750 Y13.7693
G01 X14.4386 Y13.6923
G01 X14.4100 Y13.6122
G01 X14.3893 Y13.5296
G01 X14.3768 Y13.4454
G01 X14.3726 Y13.3604
G01 X14.3766 Y13.2770
G01 X14.3893 Y13.1912
G01 X14.4100 Y13.1086
G01 X14.4386 Y13.0285
G01 X14.4743 Y12.9530
G01 X14.5188 Y12.8785
G01 X14.5695 Y12.8101
G01 X14.6267 Y12.7471
G01 X14.6723 Y12.7055
G00 Z1.0000
G00 X22.2051 Y17.8727
G01 F60.00
G01 Z-0.0650
G01 F120.00
G01 X22.2467 Y17.8271
G01 X22.3097 Y17.7699
G01 X22.3781 Y17.7192
G01 X22.4526 Y17.6747
G01 X22.5281 Y17.6390
G01 X22.6082 Y17.6104
G01 X22.6908 Y17.5897
G01 X22.7766 Y17.5770
G01 X22.8600 Y17.5730
G01 X22.9450 Y17.5772
G01 X23.0292 Y17.5897
G01 X23.1118 Y17.6104
G01 X23.1919 Y17.6390
G01 X23.2689 Y17.6754
G01 X23.3419 Y17.7192
G01 X23.4115 Y17.7710
G01 X23.4733 Y17.8271
G01 X23.5305 Y17.8901
G01 X23.5812 Y17.9585
G01 X23.6250 Y18.0315
G01 X23.6614 Y18.1085
G01 X23.6900 Y18.1886
G01 X23.7107 Y18.2712
G01 X23.7232 Y18.3554
G01 X23.7274 Y18.4404
G01 X23.7232 Y18.5254
G01 X23.7107 Y18.6096
G01 X23.6900 Y18.6922
G01 X23.6614 Y18.7723
G01 X23.6250 Y18.8493
G01 X23.5812 Y18.9223
G01 X23.5294 Y18.9919
G01 X23.4733 Y19.0537
G01 X23.4128 Y19.1087
G01 X23.4077 Y19.1129
G01 X23.3419 Y19.1616
G01 X23.2718 Y19.2037
G01 X23.2659 Y19.2069
G01 X23.1950 Y19.2404
G01 X23.1889 Y19.2430
G01 X23.1118 Y19.2704
G01 X23.0292 Y19.2911
G01 X22.9450 Y19.3036
G01 X22.8600 Y19.3078
G01 X22.7750 Y19.3036
G01 X22.6908 Y19.2911
G01 X22.6082 Y19.2704
G01 X22.5265 Y19.2411
G01 X22.4511 Y19.2054
G01 X22.3809 Y19.1634
G01 X22.3754 Y19.1597
G01 X22.3123 Y19.1129
G01 X22.3072 Y19.1087
G01 X22.2467 Y19.0537
G01 X22.2051 Y19.0081
G01 X17.8397 Y19.0081
G01 X17.8396 Y26.5701
G01 X17.8372 Y26.6207
G01 X17.8365 Y26.6273
G01 X17.8287 Y26.6791
G01 X17.8161 Y26.7300
G01 X17.8142 Y26.7363
G01 X17.7964 Y26.7856
G01 X17.7726 Y26.8360
G01 X17.7458 Y26.8810
G01 X17.7421 Y26.8865
G01 X17.7108 Y26.9285
G01 X17.6757 Y26.9674
G01 X17.6710 Y26.9721
G01 X17.6321 Y27.0072
G01 X17.5860 Y27.0413
G01 X17.5396 Y27.0690
G01 X17.4923 Y27.0915
G01 X17.4861 Y27.0940
G01 X17.4368 Y27.1116
G01 X17.3827 Y27.1251
G01 X17.3309 Y27.1329
G01 X17.3243 Y27.1336
G01 X17.2720 Y27.1361
G01 X7.6011 Y27.1361
G01 X7.1717 Y27.5655
G01 X7.1717 Y67.0471
G01 X25.3173 Y67.0471
G01 X26.1531 Y66.2113
G01 X26.1531 Y64.3955
G01 X25.8761 Y64.1185
G01 X25.5507 Y64.1184
G01 X25.4968 Y64.1157
G01 X25.4417 Y64.1075
G01 X25.3908 Y64.0949
G01 X25.3845 Y64.0930
G01 X25.3352 Y64.0752
G01 X25.2930 Y64.0554
G01 X25.2834 Y64.0506
G01 X25.2370 Y64.0228
G01 X25.1923 Y63.9896
G01 X25.1510 Y63.9522
G01 X24.1858 Y62.9870
G01 X24.1495 Y62.9470
G01 X24.1171 Y62.9037
G01 X24.1134 Y62.8982
G01 X24.0866 Y62.8532
G01 X24.0628 Y62.8028
G01 X24.0440 Y62.7504
G01 X24.0312 Y62.6996
G01 X24.0299 Y62.6931
G01 X24.0227 Y62.6445
G01 X24.0220 Y62.6379
G01 X24.0195 Y62.5856
G01 X24.0195 Y59.5884
G01 X24.0223 Y59.5328
G01 X24.0305 Y59.4777
G01 X24.0431 Y59.4268
G01 X24.0450 Y59.4205
G01 X24.0628 Y59.3712
G01 X24.0851 Y59.3238
G01 X24.0882 Y59.3179
G01 X24.1152 Y59.2730
G01 X24.1474 Y59.2296
G01 X24.1858 Y59.1870
G01 X24.6784 Y58.6944
G01 X24.6784 Y56.8703
G01 X24.6710 Y56.8650
G01 X24.6649 Y56.8594
G01 X24.6596 Y56.8530
G01 X24.6551 Y56.8461
G01 X24.6515 Y56.8387
G01 X24.6488 Y56.8309
G01 X24.6471 Y56.8228
G01 X24.6464 Y56.8146
G01 X24.6464 Y55.9629
G01 X24.6467 Y55.9563
G01 X24.6476 Y55.9498
G01 X24.6493 Y55.9433
G01 X24.6515 Y55.9371
G01 X24.6543 Y55.9311
G01 X24.6577 Y55.9255
G01 X24.6616 Y55.9201
G01 X24.6661 Y55.9152
G01 X24.6710 Y55.9108
G01 X24.6763 Y55.9069
G01 X24.6864 Y55.9013
G01 X24.6926 Y55.8989
G01 X24.6990 Y55.8971
G01 X24.7055 Y55.8960
G01 X24.7121 Y55.8955
G01 X25.6312 Y55.8957
G01 X25.6378 Y55.8965
G01 X25.6442 Y55.8979
G01 X25.6551 Y55.9020
G01 X25.6651 Y55.9078
G01 X25.6739 Y55.9152
G01 X25.6814 Y55.9241
G01 X25.6872 Y55.9341
G01 X25.6897 Y55.9402
G01 X25.6916 Y55.9465
G01 X25.6935 Y55.9579
G01 X25.6936 Y56.8129
G01 X25.6933 Y56.8195
G01 X25.6924 Y56.8260
G01 X25.6907 Y56.8325
G01 X25.6885 Y56.8387
G01 X25.6857 Y56.8447
G01 X25.6823 Y56.8503
G01 X25.6773 Y56.8569
G01 X25.6727 Y56.8617
G01 X25.6677 Y56.8660
G01 X25.6623 Y56.8698
G01 X25.6566 Y56.8731
G01 X25.6505 Y56.8758
G01 X25.6442 Y56.8779
G01 X25.6378 Y56.8793
G01 X25.6312 Y56.8801
G01 X25.6136 Y56.8803
G01 X25.6136 Y58.7082
G01 X25.6198 Y58.7170
G01 X25.6450 Y58.7591
G01 X25.6481 Y58.7650
G01 X25.6704 Y58.8124
G01 X25.6882 Y58.8617
G01 X25.6901 Y58.8680
G01 X25.7027 Y58.9189
G01 X25.7109 Y58.9740
G01 X25.7137 Y59.0296
G01 X25.7111 Y59.0836
G01 X25.7033 Y59.1371
G01 X25.7020 Y59.1436
G01 X25.6892 Y59.1944
G01 X25.6704 Y59.2468
G01 X25.6481 Y59.2942
G01 X25.6450 Y59.3001
G01 X25.6180 Y59.3450
G01 X25.5868 Y59.3871
G01 X25.5826 Y59.3922
G01 X25.5474 Y59.4310
G01 X25.1549 Y59.8235
G01 X25.1549 Y62.3505
G01 X25.7875 Y62.9831
G01 X26.1129 Y62.9832
G01 X26.1668 Y62.9859
G01 X26.2203 Y62.9938
G01 X26.2760 Y63.0076
G01 X26.3253 Y63.0252
G01 X26.3315 Y63.0277
G01 X26.3773 Y63.0494
G01 X26.3943 Y63.0594
G01 X26.4266 Y63.0788
G01 X26.4687 Y63.1100
G01 X26.4738 Y63.1142
G01 X26.5126 Y63.1494
G01 X27.1233 Y63.7602
G01 X27.1596 Y63.8003
G01 X27.1909 Y63.8423
G01 X27.1946 Y63.8478
G01 X27.2222 Y63.8943
G01 X27.2439 Y63.9401
G01 X27.2464 Y63.9463
G01 X27.2640 Y63.9956
G01 X27.2768 Y64.0464
G01 X27.2781 Y64.0529
G01 X27.2857 Y64.1048
G01 X27.2884 Y64.1587
G01 X27.2885 Y66.4464
G01 X27.2860 Y66.4987
G01 X27.2853 Y66.5053
G01 X27.2775 Y66.5571
G01 X27.2640 Y66.6112
G01 X27.2452 Y66.6636
G01 X27.2229 Y66.7110
G01 X27.2198 Y66.7169
G01 X27.1928 Y66.7618
G01 X27.1616 Y66.8039
G01 X27.1574 Y66.8090
G01 X27.1233 Y66.8466
G01 X25.9526 Y68.0173
G01 X25.9125 Y68.0536
G01 X25.8678 Y68.0868
G01 X25.8200 Y68.1154
G01 X25.7727 Y68.1379
G01 X25.7665 Y68.1404
G01 X25.7203 Y68.1570
G01 X25.7140 Y68.1589
G01 X25.6631 Y68.1715
G01 X25.6064 Y68.1799
G01 X25.5524 Y68.1825
G01 X6.6040 Y68.1825
G01 X6.5517 Y68.1800
G01 X6.5451 Y68.1793
G01 X6.4933 Y68.1715
G01 X6.4392 Y68.1580
G01 X6.3868 Y68.1392
G01 X6.3394 Y68.1169
G01 X6.3335 Y68.1138
G01 X6.2914 Y68.0886
G01 X6.2859 Y68.0849
G01 X6.2439 Y68.0536
G01 X6.2026 Y68.0162
G01 X6.1652 Y67.9749
G01 X6.1339 Y67.9329
G01 X6.1302 Y67.9274
G01 X6.1050 Y67.8853
G01 X6.1019 Y67.8794
G01 X6.0796 Y67.8320
G01 X6.0608 Y67.7796
G01 X6.0473 Y67.7255
G01 X6.0395 Y67.6737
G01 X6.0388 Y67.6671
G01 X6.0363 Y67.6148
G01 X6.0363 Y27.3304
G01 X6.0388 Y27.2781
G01 X6.0395 Y27.2715
G01 X6.0473 Y27.2197
G01 X6.0608 Y27.1656
G01 X6.0796 Y27.1132
G01 X6.1034 Y27.0628
G01 X6.1320 Y27.0150
G01 X6.1632 Y26.9729
G01 X6.1674 Y26.9678
G01 X6.2026 Y26.9290
G01 X6.9658 Y26.1659
G01 X7.0059 Y26.1296
G01 X7.0506 Y26.0964
G01 X7.0984 Y26.0678
G01 X7.1457 Y26.0453
G01 X7.1519 Y26.0428
G01 X7.1981 Y26.0262
G01 X7.2044 Y26.0243
G01 X7.2553 Y26.0117
G01 X7.3104 Y26.0035
G01 X7.3660 Y26.0007
G01 X16.7043 Y26.0007
G01 X16.7043 Y18.4404
G01 X16.7068 Y18.3881
G01 X16.7075 Y18.3815
G01 X16.7153 Y18.3297
G01 X16.7288 Y18.2756
G01 X16.7464 Y18.2263
G01 X16.7489 Y18.2201
G01 X16.7714 Y18.1728
G01 X16.8000 Y18.1250
G01 X16.8312 Y18.0829
G01 X16.8354 Y18.0778
G01 X16.8706 Y18.0390
G01 X16.9094 Y18.0038
G01 X16.9145 Y17.9996
G01 X16.9566 Y17.9684
G01 X17.0044 Y17.9398
G01 X17.0548 Y17.9160
G01 X17.1041 Y17.8982
G01 X17.1104 Y17.8963
G01 X17.1613 Y17.8837
G01 X17.2131 Y17.8759
G01 X17.2197 Y17.8752
G01 X17.2687 Y17.8728
G01 X22.2051 Y17.8727
G00 Z1.0000
G00 X29.5059 Y15.7027
G01 F60.00
G01 Z-0.0650
G01 F120.00
G01 X29.5059 Y14.6812
G01 X29.5087 Y14.6256
G01 X29.5163 Y14.5737
G01 X29.5176 Y14.5672
G01 X29.5295 Y14.5196
G01 X29.5314 Y14.5133
G01 X29.5492 Y14.4640
G01 X29.5715 Y14.4166
G01 X29.5746 Y14.4107
G01 X29.6016 Y14.3658
G01 X29.6328 Y14.3237
G01 X29.6370 Y14.3186
G01 X29.6722 Y14.2798
G01 X29.9123 Y14.0397
G01 X29.9123 Y11.5403
G01 X29.8967 Y11.5285
G01 X29.8313 Y11.4691
G01 X29.7730 Y11.4049
G01 X29.7688 Y11.3998
G01 X29.7172 Y11.3301
G01 X29.6726 Y11.2557
G01 X29.6694 Y11.2499
G01 X29.6338 Y11.1745
G01 X29.6312 Y11.1684
G01 X29.6021 Y11.0867
G01 X29.5810 Y11.0026
G01 X29.5797 Y10.9961
G01 X29.5670 Y10.9103
G01 X29.5627 Y10.8237
G01 X29.5627 Y10.8171
G01 X29.5670 Y10.7305
G01 X29.5802 Y10.6414
G01 X29.6021 Y10.5541
G01 X29.6324 Y10.4693
G01 X29.6709 Y10.3879
G01 X29.7172 Y10.3107
G01 X29.7708 Y10.2384
G01 X29.8313 Y10.1717
G01 X29.8980 Y10.1112
G01 X29.9703 Y10.0576
G01 X30.0475 Y10.0113
G01 X30.1289 Y9.9728
G01 X30.2137 Y9.9425
G01 X30.3010 Y9.9206
G01 X30.3901 Y9.9074
G01 X30.4800 Y9.9030
G01 X30.5699 Y9.9074
G01 X30.6590 Y9.9206
G01 X30.7463 Y9.9425
G01 X30.8280 Y9.9716
G01 X30.8341 Y9.9742
G01 X30.9095 Y10.0098
G01 X30.9153 Y10.0130
G01 X30.9897 Y10.0576
G01 X31.0620 Y10.1112
G01 X31.1287 Y10.1717
G01 X31.1892 Y10.2384
G01 X31.2428 Y10.3107
G01 X31.2874 Y10.3851
G01 X31.2906 Y10.3909
G01 X31.3262 Y10.4663
G01 X31.3288 Y10.4724
G01 X31.3579 Y10.5541
G01 X31.3798 Y10.6414
G01 X31.3930 Y10.7305
G01 X31.3974 Y10.8204
G01 X31.3930 Y10.9103
G01 X31.3803 Y10.9961
G01 X31.3790 Y11.0026
G01 X31.3579 Y11.0867
G01 X31.3288 Y11.1684
G01 X31.3262 Y11.1745
G01 X31.2906 Y11.2499
G01 X31.2874 Y11.2557
G01 X31.2428 Y11.3301
G01 X31.1892 Y11.4024
G01 X31.1275 Y11.4703
G01 X31.0633 Y11.5285
G01 X31.0477 Y11.5403
G01 X31.0477 Y14.2748
G01 X31.0449 Y14.3304
G01 X31.0373 Y14.3823
G01 X31.0360 Y14.3888
G01 X31.0232 Y14.4396
G01 X31.0056 Y14.4889
G01 X31.0031 Y14.4951
G01 X30.9806 Y14.5424
G01 X30.9510 Y14.5915
G01 X30.9188 Y14.6349
G01 X30.8825 Y14.6750
G01 X30.6413 Y14.9163
G01 X30.6413 Y15.7027
G01 X30.6814 Y15.7391
G01 X32.7865 Y15.7391
G01 X32.8043 Y15.7309
G01 X32.8536 Y15.7133
G01 X32.9076 Y15.6996
G01 X32.9644 Y15.6911
G01 X33.0217 Y15.6884
G01 X33.0756 Y15.6911
G01 X33.1275 Y15.6987
G01 X33.1340 Y15.7000
G01 X33.1848 Y15.7128
G01 X33.2372 Y15.7316
G01 X33.2846 Y15.7539
G01 X33.2905 Y15.7570
G01 X33.3367 Y15.7850
G01 X33.3801 Y15.8172
G01 X33.4214 Y15.8546
G01 X33.4588 Y15.8959
G01 X33.4920 Y15.9406
G01 X33.5206 Y15.9884
G01 X33.5444 Y16.0388
G01 X33.5632 Y16.0912
G01 X33.5770 Y16.1469
G01 X33.5849 Y16.2004
G01 X33.5877 Y16.2560
G01 X33.5877 Y17.7855
G01 X33.6333 Y17.8271
G01 X33.6749 Y17.8727
G01 X38.7367 Y17.8728
G01 X38.7906 Y17.8755
G01 X38.8457 Y17.8837
G01 X38.8998 Y17.8972
G01 X38.9522 Y17.9160
G01 X39.0026 Y17.9398
G01 X39.0504 Y17.9684
G01 X39.0951 Y18.0016
G01 X39.1364 Y18.0390
G01 X44.2164 Y23.1190
G01 X44.2538 Y23.1603
G01 X44.2851 Y23.2023
G01 X44.2888 Y23.2078
G01 X44.3140 Y23.2499
G01 X44.3171 Y23.2558
G01 X44.3394 Y23.3032
G01 X44.3572 Y23.3525
G01 X44.3591 Y23.3588
G01 X44.3710 Y23.4064
G01 X44.3723 Y23.4129
G01 X44.3799 Y23.4648
G01 X44.3827 Y23.5204
G01 X44.3827 Y27.7504
G01 X44.3799 Y27.8060
G01 X44.3720 Y27.8595
G01 X44.3587 Y27.9136
G01 X44.3519 Y27.9330
G01 X44.4200 Y27.9332
G01 X44.4314 Y27.9350
G01 X44.4377 Y27.9369
G01 X44.4438 Y27.9395
G01 X44.4511 Y27.9435
G01 X44.4578 Y27.9483
G01 X44.4638 Y27.9539
G01 X44.4701 Y27.9616
G01 X44.4752 Y27.9701
G01 X44.4785 Y27.9777
G01 X44.4811 Y27.9873
G01 X44.4822 Y27.9954
G01 X44.4824 Y29.2021
G01 X44.4819 Y29.2087
G01 X44.4808 Y29.2152
G01 X44.4773 Y29.2262
G01 X44.4719 Y29.2365
G01 X44.4649 Y29.2457
G01 X44.4603 Y29.2503
G01 X44.4552 Y29.2545
G01 X44.4497 Y29.2582
G01 X44.4438 Y29.2613
G01 X44.4377 Y29.2639
G01 X44.4298 Y29.2662
G01 X44.4233 Y29.2673
G01 X44.4167 Y29.2678
G01 X43.2117 Y29.2677
G01 X43.2035 Y29.2668
G01 X43.1954 Y29.2649
G01 X43.1892 Y29.2627
G01 X43.1818 Y29.2590
G01 X43.1748 Y29.2545
G01 X43.1685 Y29.2492
G01 X43.1629 Y29.2432
G01 X43.1581 Y29.2365
G01 X43.1541 Y29.2292
G01 X43.1515 Y29.2231
G01 X43.1496 Y29.2168
G01 X43.1483 Y29.2103
G01 X43.1476 Y29.2021
G01 X43.1476 Y29.1681
G01 X36.6133 Y29.1680
G01 X36.5594 Y29.1653
G01 X36.5043 Y29.1571
G01 X36.4502 Y29.1436
G01 X36.4009 Y29.1260
G01 X36.3947 Y29.1235
G01 X36.3474 Y29.1010
G01 X36.3024 Y29.0742
G01 X36.2969 Y29.0705
G01 X36.2575 Y29.0412
G01 X36.2524 Y29.0370
G01 X36.2136 Y29.0018
G01 X32.6186 Y25.4068
G01 X32.5812 Y25.3655
G01 X32.5499 Y25.3235
G01 X32.5462 Y25.3180
G01 X32.5210 Y25.2759
G01 X32.5179 Y25.2700
G01 X32.4956 Y25.2226
G01 X32.4778 Y25.1733
G01 X32.4759 Y25.1670
G01 X32.4633 Y25.1161
G01 X32.4549 Y25.0594
G01 X32.4523 Y25.0054
G01 X32.4523 Y24.1753
G01 X32.4067 Y24.1337
G01 X32.3517 Y24.0732
G01 X32.3475 Y24.0681
G01 X32.3007 Y24.0050
G01 X32.2970 Y23.9995
G01 X32.2550 Y23.9293
G01 X32.2200 Y23.8554
G01 X32.2174 Y23.8493
G01 X32.1900 Y23.7722
G01 X32.1693 Y23.6896
G01 X32.1568 Y23.6054
G01 X32.1526 Y23.5221
G01 X32.1568 Y23.4354
G01 X32.1687 Y23.3544
G01 X32.1700 Y23.3480
G01 X32.1900 Y23.2686
G01 X32.2174 Y23.1915
G01 X32.2200 Y23.1854
G01 X32.2535 Y23.1145
G01 X32.2567 Y23.1086
G01 X32.2988 Y23.0385
G01 X32.3495 Y22.9701
G01 X32.4067 Y22.9071
G01 X32.4672 Y22.8521
G01 X32.4723 Y22.8479
G01 X32.5381 Y22.7992
G01 X32.6111 Y22.7554
G01 X32.6881 Y22.7190
G01 X32.7682 Y22.6904
G01 X32.8508 Y22.6697
G01 X32.9350 Y22.6572
G01 X33.0200 Y22.6530
G01 X33.1050 Y22.6572
G01 X33.1892 Y22.6697
G01 X33.2718 Y22.6904
G01 X33.3519 Y22.7190
G01 X33.4289 Y22.7554
G01 X33.5019 Y22.7992
G01 X33.5703 Y22.8499
G01 X33.6333 Y22.9071
G01 X33.6894 Y22.9689
G01 X33.7412 Y23.0385
G01 X33.7850 Y23.1115
G01 X33.8214 Y23.1885
G01 X33.8500 Y23.2686
G01 X33.8707 Y23.3512
G01 X33.8832 Y23.4354
G01 X33.8874 Y23.5204
G01 X33.8835 Y23.6021
G01 X33.8828 Y23.6087
G01 X33.8707 Y23.6896
G01 X33.8500 Y23.7722
G01 X33.8214 Y23.8523
G01 X33.7857 Y23.9278
G01 X33.7412 Y24.0023
G01 X33.6905 Y24.0707
G01 X33.6333 Y24.1337
G01 X33.5877 Y24.1753
G01 X33.5877 Y24.7703
G01 X36.8501 Y28.0327
G01 X43.1476 Y28.0327
G01 X43.1477 Y27.9971
G01 X43.1486 Y27.9889
G01 X43.1505 Y27.9808
G01 X43.1548 Y27.9701
G01 X43.1599 Y27.9616
G01 X43.1662 Y27.9539
G01 X43.1735 Y27.9473
G01 X43.1818 Y27.9418
G01 X43.1892 Y27.9381
G01 X43.1970 Y27.9354
G01 X43.2051 Y27.9337
G01 X43.2150 Y27.9330
G01 X43.2781 Y27.9330
G01 X43.2713 Y27.9136
G01 X43.2580 Y27.8595
G01 X43.2501 Y27.8060
G01 X43.2473 Y27.7504
G01 X43.2473 Y23.7555
G01 X38.4999 Y19.0081
G01 X33.6749 Y19.0081
G01 X33.6333 Y19.0537
G01 X33.5703 Y19.1109
G01 X33.5019 Y19.1616
G01 X33.4318 Y19.2037
G01 X33.4259 Y19.2069
G01 X33.3550 Y19.2404
G01 X33.3489 Y19.2430
G01 X33.2718 Y19.2704
G01 X33.1924 Y19.2904
G01 X33.1860 Y19.2917
G01 X33.1083 Y19.3032
G01 X33.1017 Y19.3039
G01 X33.0200 Y19.3078
G01 X32.9350 Y19.3036
G01 X32.8540 Y19.2917
G01 X32.8476 Y19.2904
G01 X32.7682 Y19.2704
G01 X32.6911 Y19.2430
G01 X32.6850 Y19.2404
G01 X32.6111 Y19.2054
G01 X32.5409 Y19.1634
G01 X32.5354 Y19.1597
G01 X32.4697 Y19.1109
G01 X32.4091 Y19.0560
G01 X32.4044 Y19.0513
G01 X32.3517 Y18.9932
G01 X32.3475 Y18.9881
G01 X32.2988 Y18.9223
G01 X32.2567 Y18.8522
G01 X32.2535 Y18.8463
G01 X32.2186 Y18.7723
G01 X32.1900 Y18.6922
G01 X32.1700 Y18.6128
G01 X32.1687 Y18.6064
G01 X32.1568 Y18.5254
G01 X32.1526 Y18.4404
G01 X32.1565 Y18.3587
G01 X32.1572 Y18.3521
G01 X32.1693 Y18.2712
G01 X32.1891 Y18.1918
G01 X32.1910 Y18.1855
G01 X32.2180 Y18.1100
G01 X32.2550 Y18.0315
G01 X32.2997 Y17.9571
G01 X32.3475 Y17.8927
G01 X32.3517 Y17.8876
G01 X32.4067 Y17.8271
G01 X32.4523 Y17.7855
G01 X32.4523 Y16.8745
G01 X30.7690 Y16.8745
G01 X30.7430 Y16.9091
G01 X30.6858 Y16.9721
G01 X30.6239 Y17.0281
G01 X30.5569 Y17.0779
G01 X30.4825 Y17.1226
G01 X30.4086 Y17.1576
G01 X30.4025 Y17.1602
G01 X30.3238 Y17.1881
G01 X30.2428 Y17.2083
G01 X30.1586 Y17.2208
G01 X30.0736 Y17.2250
G01 X29.9919 Y17.2211
G01 X29.9853 Y17.2204
G01 X29.9076 Y17.2089
G01 X29.9012 Y17.2076
G01 X29.8218 Y17.1876
G01 X29.7432 Y17.1596
G01 X29.6647 Y17.1226
G01 X29.5945 Y17.0806
G01 X29.5890 Y17.0769
G01 X29.5233 Y17.0281
G01 X29.4627 Y16.9732
G01 X29.4580 Y16.9685
G01 X29.4031 Y16.9079
G01 X29.3543 Y16.8422
G01 X29.3506 Y16.8367
G01 X29.3086 Y16.7665
G01 X29.2736 Y16.6926
G01 X29.2710 Y16.6865
G01 X29.2436 Y16.6094
G01 X29.2226 Y16.5252
G01 X29.2108 Y16.4459
G01 X29.2101 Y16.4393
G01 X29.2062 Y16.3576
G01 X29.2101 Y16.2759
G01 X29.2108 Y16.2693
G01 X29.2229 Y16.1884
G01 X29.2427 Y16.1090
G01 X29.2446 Y16.1027
G01 X29.2722 Y16.0257
G01 X29.3071 Y15.9517
G01 X29.3103 Y15.9458
G01 X29.3524 Y15.8757
G01 X29.4011 Y15.8099
G01 X29.4053 Y15.8048
G01 X29.4603 Y15.7443
G01 X29.5059 Y15.7027
G00 Z1.0000
G00 X20.1018 Y31.9881
G01 F60.00
G01 Z-0.0650
G01 F120.00
G01 X20.0690 Y32.0573
G01 X20.0252 Y32.1303
G01 X19.9745 Y32.1987
G01 X19.9173 Y32.2617
G01 X19.8543 Y32.3189
G01 X19.7859 Y32.3696
G01 X19.7129 Y32.4134
G01 X19.6359 Y32.4498
G01 X19.5558 Y32.4784
G01 X19.4732 Y32.4991
G01 X19.3890 Y32.5116
G01 X19.3040 Y32.5158
G01 X19.2190 Y32.5116
G01 X19.1348 Y32.4991
G01 X19.0522 Y32.4784
G01 X18.9721 Y32.4498
G01 X18.8951 Y32.4134
G01 X18.8221 Y32.3696
G01 X18.7537 Y32.3189
G01 X18.6907 Y32.2617
G01 X18.6335 Y32.1987
G01 X18.5828 Y32.1303
G01 X18.5390 Y32.0573
G01 X18.5026 Y31.9803
G01 X18.4740 Y31.9002
G01 X18.4533 Y31.8176
G01 X18.4408 Y31.7334
G01 X18.4366 Y31.6484
G01 X18.4408 Y31.5634
G01 X18.4533 Y31.4792
G01 X18.4740 Y31.3966
G01 X18.5026 Y31.3165
G01 X18.5375 Y31.2425
G01 X18.5407 Y31.2366
G01 X18.5828 Y31.1665
G01 X18.6315 Y31.1007
G01 X18.6357 Y31.0956
G01 X18.6907 Y31.0351
G01 X18.7537 Y30.9779
G01 X18.8221 Y30.9272
G01 X18.8922 Y30.8851
G01 X18.8981 Y30.8819
G01 X18.9690 Y30.8484
G01 X18.9751 Y30.8458
G01 X19.0522 Y30.8184
G01 X19.1316 Y30.7984
G01 X19.1380 Y30.7971
G01 X19.2157 Y30.7856
G01 X19.2223 Y30.7849
G01 X19.3040 Y30.7810
G01 X19.3890 Y30.7852
G01 X19.4732 Y30.7977
G01 X19.5526 Y30.8175
G01 X19.5589 Y30.8194
G01 X19.6329 Y30.8458
G01 X19.6482 Y30.8527
G01 X20.3873 Y30.8527
G01 X20.3873 Y28.6004
G01 X20.3901 Y28.5448
G01 X20.3983 Y28.4897
G01 X20.4118 Y28.4356
G01 X20.4306 Y28.3832
G01 X20.4529 Y28.3358
G01 X20.4560 Y28.3299
G01 X20.4830 Y28.2850
G01 X20.5142 Y28.2429
G01 X20.5184 Y28.2378
G01 X20.5513 Y28.2014
G01 X20.5560 Y28.1967
G01 X20.5949 Y28.1616
G01 X20.6383 Y28.1294
G01 X20.6845 Y28.1014
G01 X20.6904 Y28.0983
G01 X20.7378 Y28.0760
G01 X20.7902 Y28.0572
G01 X20.8410 Y28.0444
G01 X20.8475 Y28.0431
G01 X20.8994 Y28.0355
G01 X20.9517 Y28.0328
G01 X23.2126 Y28.0327
G01 X23.2127 Y27.7471
G01 X23.2142 Y27.7356
G01 X23.2160 Y27.7293
G01 X23.2184 Y27.7231
G01 X23.2214 Y27.7172
G01 X23.2249 Y27.7116
G01 X23.2323 Y27.7027
G01 X23.2412 Y27.6953
G01 X23.2468 Y27.6918
G01 X23.2527 Y27.6888
G01 X23.2636 Y27.6850
G01 X23.2701 Y27.6837
G01 X23.2767 Y27.6831
G01 X23.5623 Y27.6830
G01 X23.5623 Y25.0255
G01 X22.9217 Y24.3849
G01 X22.8600 Y24.3878
G01 X22.7783 Y24.3839
G01 X22.7717 Y24.3832
G01 X22.6940 Y24.3717
G01 X22.6876 Y24.3704
G01 X22.6082 Y24.3504
G01 X22.5281 Y24.3218
G01 X22.4511 Y24.2854
G01 X22.3809 Y24.2434
G01 X22.3754 Y24.2397
G01 X22.3123 Y24.1929
G01 X22.3072 Y24.1887
G01 X22.2467 Y24.1337
G01 X22.2051 Y24.0881
G01 X20.5524 Y24.0881
G01 X20.5524 Y24.3204
G01 X20.5521 Y24.3270
G01 X20.5511 Y24.3335
G01 X20.5479 Y24.3447
G01 X20.5436 Y24.3536
G01 X20.5371 Y24.3632
G01 X20.5303 Y24.3703
G01 X20.5211 Y24.3773
G01 X20.5123 Y24.3820
G01 X20.5014 Y24.3858
G01 X20.4916 Y24.3875
G01 X20.4850 Y24.3878
G01 X18.8850 Y24.3878
G01 X18.8784 Y24.3875
G01 X18.8702 Y24.3862
G01 X18.8623 Y24.3839
G01 X18.8547 Y24.3806
G01 X18.8476 Y24.3764
G01 X18.8397 Y24.3703
G01 X18.8340 Y24.3644
G01 X18.8281 Y24.3565
G01 X18.8234 Y24.3477
G01 X18.8205 Y24.3400
G01 X18.8183 Y24.3303
G01 X18.8176 Y24.3221
G01 X18.8176 Y22.7204
G01 X18.8181 Y22.7121
G01 X18.8200 Y22.7024
G01 X18.8234 Y22.6931
G01 X18.8290 Y22.6830
G01 X18.8362 Y22.6739
G01 X18.8435 Y22.6673
G01 X18.8518 Y22.6618
G01 X18.8623 Y22.6569
G01 X18.8735 Y22.6540
G01 X18.8833 Y22.6530
G01 X20.4900 Y22.6532
G01 X20.5014 Y22.6550
G01 X20.5123 Y22.6588
G01 X20.5211 Y22.6635
G01 X20.5303 Y22.6705
G01 X20.5381 Y22.6789
G01 X20.5436 Y22.6872
G01 X20.5485 Y22.6977
G01 X20.5511 Y22.7073
G01 X20.5521 Y22.7138
G01 X20.5524 Y22.7204
G01 X20.5524 Y22.9527
G01 X22.2051 Y22.9527
G01 X22.2467 Y22.9071
G01 X22.3072 Y22.8521
G01 X22.3123 Y22.8479
G01 X22.3754 Y22.8011
G01 X22.3809 Y22.7974
G01 X22.4511 Y22.7554
G01 X22.5281 Y22.7190
G01 X22.6082 Y22.6904
G01 X22.6876 Y22.6704
G01 X22.6940 Y22.6691
G01 X22.7717 Y22.6576
G01 X22.7783 Y22.6569
G01 X22.8600 Y22.6530
G01 X22.9417 Y22.6569
G01 X22.9483 Y22.6576
G01 X23.0292 Y22.6697
G01 X23.1118 Y22.6904
G01 X23.1919 Y22.7190
G01 X23.2674 Y22.7547
G01 X23.3419 Y22.7992
G01 X23.4103 Y22.8499
G01 X23.4733 Y22.9071
G01 X23.5149 Y22.9527
G01 X23.7562 Y22.9527
G01 X24.8323 Y21.8766
G01 X24.8323 Y14.0153
G01 X24.7867 Y13.9737
G01 X24.7317 Y13.9132
G01 X24.7275 Y13.9081
G01 X24.6797 Y13.8437
G01 X24.6350 Y13.7693
G01 X24.5980 Y13.6908
G01 X24.5710 Y13.6153
G01 X24.5691 Y13.6090
G01 X24.5493 Y13.5296
G01 X24.5372 Y13.4487
G01 X24.5365 Y13.4421
G01 X24.5326 Y13.3604
G01 X24.5368 Y13.2754
G01 X24.5493 Y13.1912
G01 X24.5691 Y13.1118
G01 X24.5710 Y13.1055
G01 X24.5986 Y13.0285
G01 X24.6335 Y12.9545
G01 X24.6367 Y12.9486
G01 X24.6770 Y12.8813
G01 X24.6807 Y12.8758
G01 X24.7295 Y12.8101
G01 X24.7867 Y12.7471
G01 X24.8497 Y12.6899
G01 X24.9181 Y12.6392
G01 X24.9911 Y12.5954
G01 X25.0681 Y12.5590
G01 X25.1482 Y12.5304
G01 X25.2276 Y12.5104
G01 X25.2340 Y12.5091
G01 X25.3150 Y12.4972
G01 X25.3967 Y12.4931
G01 X25.4033 Y12.4931
G01 X25.4817 Y12.4969
G01 X25.4883 Y12.4976
G01 X25.5692 Y12.5097
G01 X25.6502 Y12.5299
G01 X25.7289 Y12.5578
G01 X25.7350 Y12.5604
G01 X25.8089 Y12.5954
G01 X25.8819 Y12.6392
G01 X25.9503 Y12.6899
G01 X26.0109 Y12.7448
G01 X26.0156 Y12.7495
G01 X26.0683 Y12.8076
G01 X26.0725 Y12.8127
G01 X26.1212 Y12.8785
G01 X26.1650 Y12.9515
G01 X26.2014 Y13.0285
G01 X26.2290 Y13.1055
G01 X26.2309 Y13.1118
G01 X26.2500 Y13.1880
G01 X26.2513 Y13.1944
G01 X26.2632 Y13.2754
G01 X26.2674 Y13.3587
G01 X26.2632 Y13.4454
G01 X26.2507 Y13.5296
G01 X26.2300 Y13.6122
G01 X26.2007 Y13.6939
G01 X26.1650 Y13.7693
G01 X26.1230 Y13.8395
G01 X26.1193 Y13.8450
G01 X26.0725 Y13.9081
G01 X26.0683 Y13.9132
G01 X26.0133 Y13.9737
G01 X25.9677 Y14.0153
G01 X25.9677 Y22.1118
G01 X25.9647 Y22.1691
G01 X25.9567 Y22.2225
G01 X25.9432 Y22.2766
G01 X25.9244 Y22.3290
G01 X25.9021 Y22.3764
G01 X25.8990 Y22.3822
G01 X25.8738 Y22.4243
G01 X25.8701 Y22.4298
G01 X25.8388 Y22.4719
G01 X25.8025 Y22.5120
G01 X24.3916 Y23.9229
G01 X24.3515 Y23.9592
G01 X24.3054 Y23.9933
G01 X24.2575 Y24.0218
G01 X24.2101 Y24.0442
G01 X24.1929 Y24.0505
G01 X24.5314 Y24.3890
G01 X24.5698 Y24.4316
G01 X24.6001 Y24.4723
G01 X24.6038 Y24.4778
G01 X24.6306 Y24.5228
G01 X24.6531 Y24.5701
G01 X24.6556 Y24.5763
G01 X24.6732 Y24.6256
G01 X24.6860 Y24.6764
G01 X24.6873 Y24.6829
G01 X24.6949 Y24.7348
G01 X24.6977 Y24.7904
G01 X24.6977 Y27.6830
G01 X24.9800 Y27.6830
G01 X24.9899 Y27.6837
G01 X24.9996 Y27.6859
G01 X25.0088 Y27.6895
G01 X25.0174 Y27.6944
G01 X25.0265 Y27.7016
G01 X25.0331 Y27.7089
G01 X25.0394 Y27.7186
G01 X25.0435 Y27.7277
G01 X25.0461 Y27.7373
G01 X25.0471 Y27.7438
G01 X25.0474 Y27.7504
G01 X25.0474 Y29.4504
G01 X25.0464 Y29.4619
G01 X25.0435 Y29.4731
G01 X25.0386 Y29.4836
G01 X25.0321 Y29.4932
G01 X25.0240 Y29.5014
G01 X25.0147 Y29.5082
G01 X25.0043 Y29.5133
G01 X24.9931 Y29.5165
G01 X24.9817 Y29.5178
G01 X23.2750 Y29.5176
G01 X23.2636 Y29.5158
G01 X23.2527 Y29.5120
G01 X23.2439 Y29.5073
G01 X23.2347 Y29.5003
G01 X23.2279 Y29.4932
G01 X23.2214 Y29.4836
G01 X23.2165 Y29.4731
G01 X23.2136 Y29.4619
G01 X23.2126 Y29.4504
G01 X23.2126 Y29.1681
G01 X21.5227 Y29.1681
G01 X21.5227 Y30.9112
G01 X21.5900 Y30.9080
G01 X21.6717 Y30.9119
G01 X21.6783 Y30.9126
G01 X21.7560 Y30.9241
G01 X21.7624 Y30.9254
G01 X21.8418 Y30.9454
G01 X21.9189 Y30.9728
G01 X21.9250 Y30.9754
G01 X21.9989 Y31.0104
G01 X22.0719 Y31.0542
G01 X22.1403 Y31.1049
G01 X22.2009 Y31.1598
G01 X22.2056 Y31.1645
G01 X22.2605 Y31.2251
G01 X22.3112 Y31.2935
G01 X22.3550 Y31.3665
G01 X22.3914 Y31.4435
G01 X22.4200 Y31.5236
G01 X22.4407 Y31.6062
G01 X22.4532 Y31.6904
G01 X22.4573 Y31.7721
G01 X22.4573 Y31.7787
G01 X22.4532 Y31.8604
G01 X22.4413 Y31.9414
G01 X22.4400 Y31.9478
G01 X22.4209 Y32.0240
G01 X22.4190 Y32.0303
G01 X22.3914 Y32.1073
G01 X22.3550 Y32.1843
G01 X22.3130 Y32.2545
G01 X22.3093 Y32.2600
G01 X22.2605 Y32.3257
G01 X22.2056 Y32.3863
G01 X22.2009 Y32.3910
G01 X22.1403 Y32.4459
G01 X22.0705 Y32.4975
G01 X22.0018 Y32.5387
G01 X21.9959 Y32.5419
G01 X21.9219 Y32.5768
G01 X21.8449 Y32.6044
G01 X21.8386 Y32.6063
G01 X21.7592 Y32.6261
G01 X21.6734 Y32.6388
G01 X21.5900 Y32.6428
G01 X21.5083 Y32.6389
G01 X21.5017 Y32.6382
G01 X21.4224 Y32.6264
G01 X21.3366 Y32.6050
G01 X21.2596 Y32.5774
G01 X21.2377 Y32.5672
G01 X21.2377 Y35.4286
G01 X21.2596 Y35.4184
G01 X21.3366 Y35.3908
G01 X21.4224 Y35.3694
G01 X21.5017 Y35.3576
G01 X21.5083 Y35.3569
G01 X21.5900 Y35.3530
G01 X21.6734 Y35.3570
G01 X21.7592 Y35.3697
G01 X21.8386 Y35.3895
G01 X21.8449 Y35.3914
G01 X21.9219 Y35.4190
G01 X21.9959 Y35.4539
G01 X22.0018 Y35.4571
G01 X22.0719 Y35.4992
G01 X22.1377 Y35.5479
G01 X22.1428 Y35.5521
G01 X22.2033 Y35.6071
G01 X22.2583 Y35.6676
G01 X22.2625 Y35.6727
G01 X22.3112 Y35.7385
G01 X22.3550 Y35.8115
G01 X22.3900 Y35.8854
G01 X22.3926 Y35.8915
G01 X22.4200 Y35.9686
G01 X22.4400 Y36.0480
G01 X22.4413 Y36.0544
G01 X22.4532 Y36.1354
G01 X22.4573 Y36.2171
G01 X22.4573 Y36.2237
G01 X22.4532 Y36.3054
G01 X22.4413 Y36.3864
G01 X22.4400 Y36.3928
G01 X22.4200 Y36.4722
G01 X22.3926 Y36.5493
G01 X22.3900 Y36.5554
G01 X22.3550 Y36.6293
G01 X22.3130 Y36.6995
G01 X22.3093 Y36.7050
G01 X22.2605 Y36.7707
G01 X22.2056 Y36.8313
G01 X22.2009 Y36.8360
G01 X22.1403 Y36.8909
G01 X22.0746 Y36.9397
G01 X22.0691 Y36.9434
G01 X22.0003 Y36.9846
G01 X21.9250 Y37.0204
G01 X21.9189 Y37.0230
G01 X21.8418 Y37.0504
G01 X21.7624 Y37.0704
G01 X21.7560 Y37.0717
G01 X21.6750 Y37.0836
G01 X21.5883 Y37.0878
G01 X21.5083 Y37.0839
G01 X21.5017 Y37.0832
G01 X21.4208 Y37.0711
G01 X21.3398 Y37.0509
G01 X21.2565 Y37.0211
G01 X21.1811 Y36.9854
G01 X21.1376 Y36.9594
G01 X21.1376 Y38.2396
G01 X21.1353 Y38.2837
G01 X21.1286 Y38.3291
G01 X21.1175 Y38.3736
G01 X21.1032 Y38.4138
G01 X21.1004 Y38.4205
G01 X21.1279 Y38.4205
G01 X21.1378 Y38.4215
G01 X21.1442 Y38.4229
G01 X21.1505 Y38.4250
G01 X21.1580 Y38.4285
G01 X21.1637 Y38.4319
G01 X21.1690 Y38.4358
G01 X21.1751 Y38.4414
G01 X21.1804 Y38.4477
G01 X21.1841 Y38.4532
G01 X21.1879 Y38.4606
G01 X21.1902 Y38.4668
G01 X21.1920 Y38.4731
G01 X21.1933 Y38.4813
G01 X21.1936 Y38.4879
G01 X21.1936 Y39.3379
G01 X21.1933 Y39.3445
G01 X21.1924 Y39.3510
G01 X21.1891 Y39.3622
G01 X21.1841 Y39.3726
G01 X21.1773 Y39.3819
G01 X21.1690 Y39.3900
G01 X21.1595 Y39.3965
G01 X21.1490 Y39.4014
G01 X21.1426 Y39.4033
G01 X21.1361 Y39.4046
G01 X21.1262 Y39.4053
G01 X20.2104 Y39.4052
G01 X20.1990 Y39.4037
G01 X20.1880 Y39.4002
G01 X20.1777 Y39.3948
G01 X20.1685 Y39.3878
G01 X20.1606 Y39.3794
G01 X20.1543 Y39.3697
G01 X20.1498 Y39.3590
G01 X20.1471 Y39.3478
G01 X20.1464 Y39.3379
G01 X20.1464 Y38.4879
G01 X20.1467 Y38.4813
G01 X20.1480 Y38.4731
G01 X20.1498 Y38.4668
G01 X20.1528 Y38.4591
G01 X20.1559 Y38.4532
G01 X20.1596 Y38.4477
G01 X20.1649 Y38.4414
G01 X20.1710 Y38.4358
G01 X20.1763 Y38.4319
G01 X20.1834 Y38.4277
G01 X20.1895 Y38.4250
G01 X20.1958 Y38.4229
G01 X20.2022 Y38.4215
G01 X20.2121 Y38.4205
G01 X20.2396 Y38.4205
G01 X20.2368 Y38.4138
G01 X20.2225 Y38.3736
G01 X20.2114 Y38.3291
G01 X20.2047 Y38.2837
G01 X20.2024 Y38.2396
G01 X20.2024 Y36.2568
G01 X20.1962 Y36.2480
G01 X20.1710 Y36.2059
G01 X20.1679 Y36.2000
G01 X20.1456 Y36.1526
G01 X20.1268 Y36.1002
G01 X20.1140 Y36.0494
G01 X20.1127 Y36.0429
G01 X20.1051 Y35.9910
G01 X20.1024 Y35.9371
G01 X20.1023 Y31.9881
G01 X20.1018 Y31.9881
G00 Z1.0000
G00 X21.7024 Y38.4215
G01 F60.00
G01 Z-0.0650
G01 F120.00
G01 X21.7024 Y37.9264
G01 X21.7047 Y37.8806
G01 X21.7108 Y37.8384
G01 X21.7121 Y37.8319
G01 X21.7225 Y37.7907
G01 X21.7368 Y37.7505
G01 X21.7393 Y37.7444
G01 X21.7576 Y37.7060
G01 X21.7794 Y37.6694
G01 X21.7831 Y37.6639
G01 X21.8085 Y37.6298
G01 X21.8394 Y37.5958
G01 X22.2754 Y37.1598
G01 X22.3106 Y37.1279
G01 X22.3462 Y37.1016
G01 X22.3856 Y37.0780
G01 X22.4271 Y37.0584
G01 X22.4703 Y37.0429
G01 X22.5148 Y37.0318
G01 X22.5602 Y37.0251
G01 X22.6043 Y37.0228
G01 X22.6663 Y37.0228
G01 X22.9004 Y36.7887
G01 X22.9004 Y34.7741
G01 X22.8606 Y34.7640
G01 X22.7836 Y34.7364
G01 X22.7066 Y34.7001
G01 X22.6321 Y34.6556
G01 X22.5650 Y34.6059
G01 X22.5007 Y34.5477
G01 X22.4435 Y34.4847
G01 X22.3928 Y34.4163
G01 X22.3498 Y34.3447
G01 X22.3126 Y34.2663
G01 X22.2840 Y34.1862
G01 X22.2633 Y34.1036
G01 X22.2508 Y34.0194
G01 X22.2466 Y33.9344
G01 X22.2508 Y33.8494
G01 X22.2633 Y33.7652
G01 X22.2840 Y33.6826
G01 X22.3126 Y33.6025
G01 X22.3490 Y33.5255
G01 X22.3928 Y33.4525
G01 X22.4435 Y33.3841
G01 X22.5007 Y33.3211
G01 X22.5637 Y33.2639
G01 X22.6321 Y33.2132
G01 X22.7051 Y33.1694
G01 X22.7821 Y33.1330
G01 X22.8622 Y33.1044
G01 X22.9448 Y33.0837
G01 X23.0290 Y33.0712
G01 X23.1140 Y33.0670
G01 X23.1990 Y33.0712
G01 X23.2832 Y33.0837
G01 X23.3658 Y33.1044
G01 X23.4429 Y33.1318
G01 X23.4490 Y33.1344
G01 X23.5229 Y33.1694
G01 X23.5959 Y33.2132
G01 X23.6643 Y33.2639
G01 X23.7249 Y33.3188
G01 X23.7296 Y33.3235
G01 X23.7845 Y33.3841
G01 X23.8352 Y33.4525
G01 X23.8773 Y33.5226
G01 X23.8805 Y33.5285
G01 X23.9154 Y33.6025
G01 X23.9430 Y33.6795
G01 X23.9449 Y33.6858
G01 X23.9647 Y33.7652
G01 X23.9770 Y33.8477
G01 X23.9814 Y33.9344
G01 X23.9775 Y34.0161
G01 X23.9768 Y34.0227
G01 X23.9653 Y34.1004
G01 X23.9640 Y34.1068
G01 X23.9440 Y34.1862
G01 X23.9154 Y34.2663
G01 X23.8790 Y34.3433
G01 X23.8356 Y34.4157
G01 X23.8356 Y36.9824
G01 X23.8336 Y37.0249
G01 X23.8329 Y37.0315
G01 X23.8266 Y37.0736
G01 X23.8155 Y37.1181
G01 X23.8000 Y37.1613
G01 X23.7804 Y37.2028
G01 X23.7568 Y37.2422
G01 X23.7315 Y37.2764
G01 X23.7273 Y37.2815
G01 X23.6986 Y37.3130
G01 X23.1906 Y37.8210
G01 X23.1579 Y37.8508
G01 X23.1198 Y37.8792
G01 X23.0804 Y37.9028
G01 X23.0389 Y37.9224
G01 X22.9957 Y37.9379
G01 X22.9512 Y37.9490
G01 X22.9058 Y37.9557
G01 X22.8617 Y37.9580
G01 X22.7997 Y37.9580
G01 X22.6376 Y38.1201
G01 X22.6376 Y38.4215
G01 X22.6426 Y38.4225
G01 X22.6490 Y38.4244
G01 X22.6595 Y38.4293
G01 X22.6690 Y38.4358
G01 X22.6773 Y38.4439
G01 X22.6841 Y38.4532
G01 X22.6891 Y38.4636
G01 X22.6924 Y38.4748
G01 X22.6936 Y38.4862
G01 X22.6936 Y39.3396
G01 X22.6929 Y39.3478
G01 X22.6912 Y39.3559
G01 X22.6885 Y39.3637
G01 X22.6849 Y39.3711
G01 X22.6804 Y39.3781
G01 X22.6751 Y39.3844
G01 X22.6690 Y39.3900
G01 X22.6623 Y39.3948
G01 X22.6536 Y39.3995
G01 X22.6442 Y39.4029
G01 X22.6361 Y39.4046
G01 X22.6262 Y39.4053
G01 X21.7138 Y39.4053
G01 X21.7071 Y39.4050
G01 X21.7006 Y39.4040
G01 X21.6942 Y39.4024
G01 X21.6880 Y39.4002
G01 X21.6820 Y39.3973
G01 X21.6763 Y39.3939
G01 X21.6710 Y39.3900
G01 X21.6661 Y39.3856
G01 X21.6616 Y39.3807
G01 X21.6577 Y39.3753
G01 X21.6543 Y39.3697
G01 X21.6515 Y39.3637
G01 X21.6493 Y39.3575
G01 X21.6476 Y39.3510
G01 X21.6464 Y39.3396
G01 X21.6464 Y38.4846
G01 X21.6480 Y38.4731
G01 X21.6515 Y38.4621
G01 X21.6568 Y38.4518
G01 X21.6638 Y38.4426
G01 X21.6723 Y38.4348
G01 X21.6820 Y38.4285
G01 X21.6926 Y38.4239
G01 X21.7024 Y38.4215
G00 Z1.0000
G00 X24.1262 Y38.4205
G01 F60.00
G01 Z-0.0650
G01 F120.00
G01 X24.1329 Y38.4208
G01 X24.1394 Y38.4218
G01 X24.1458 Y38.4234
G01 X24.1520 Y38.4256
G01 X24.1580 Y38.4285
G01 X24.1637 Y38.4319
G01 X24.1727 Y38.4391
G01 X24.1804 Y38.4477
G01 X24.1841 Y38.4532
G01 X24.1872 Y38.4591
G01 X24.1897 Y38.4652
G01 X24.1916 Y38.4715
G01 X24.1929 Y38.4780
G01 X24.1936 Y38.4846
G01 X24.1936 Y39.3396
G01 X24.1931 Y39.3462
G01 X24.1920 Y39.3527
G01 X24.1885 Y39.3637
G01 X24.1857 Y39.3697
G01 X24.1823 Y39.3753
G01 X24.1784 Y39.3807
G01 X24.1739 Y39.3856
G01 X24.1690 Y39.3900
G01 X24.1637 Y39.3939
G01 X24.1580 Y39.3973
G01 X24.1520 Y39.4002
G01 X24.1458 Y39.4024
G01 X24.1394 Y39.4040
G01 X24.1279 Y39.4053
G01 X23.2138 Y39.4053
G01 X23.2071 Y39.4050
G01 X23.2006 Y39.4040
G01 X23.1942 Y39.4024
G01 X23.1880 Y39.4002
G01 X23.1820 Y39.3973
G01 X23.1763 Y39.3939
G01 X23.1710 Y39.3900
G01 X23.1661 Y39.3856
G01 X23.1616 Y39.3807
G01 X23.1577 Y39.3753
G01 X23.1543 Y39.3697
G01 X23.1515 Y39.3637
G01 X23.1493 Y39.3575
G01 X23.1476 Y39.3510
G01 X23.1464 Y39.3396
G01 X23.1464 Y38.4879
G01 X23.1467 Y38.4813
G01 X23.1476 Y38.4748
G01 X23.1493 Y38.4683
G01 X23.1515 Y38.4621
G01 X23.1543 Y38.4561
G01 X23.1577 Y38.4505
G01 X23.1616 Y38.4451
G01 X23.1661 Y38.4402
G01 X23.1710 Y38.4358
G01 X23.1763 Y38.4319
G01 X23.1864 Y38.4263
G01 X23.1926 Y38.4239
G01 X23.1990 Y38.4221
G01 X23.2055 Y38.4210
G01 X23.2121 Y38.4205
G01 X24.1262 Y38.4205
G00 Z1.0000
G00 X24.7024 Y38.4215
G01 F60.00
G01 Z-0.0650
G01 F120.00
G01 X24.7024 Y34.2318
G01 X24.6962 Y34.2230
G01 X24.6694 Y34.1780
G01 X24.6456 Y34.1276
G01 X24.6268 Y34.0752
G01 X24.6133 Y34.0211
G01 X24.6051 Y33.9660
G01 X24.6023 Y33.9104
G01 X24.6051 Y33.8548
G01 X24.6133 Y33.7997
G01 X24.6268 Y33.7456
G01 X24.6444 Y33.6963
G01 X24.6469 Y33.6901
G01 X24.6694 Y33.6428
G01 X24.6962 Y33.5978
G01 X24.6999 Y33.5923
G01 X24.7312 Y33.5503
G01 X24.7663 Y33.5114
G01 X26.1023 Y32.1753
G01 X26.1023 Y29.3203
G01 X26.0867 Y29.3085
G01 X26.0213 Y29.2491
G01 X25.9630 Y29.1849
G01 X25.9588 Y29.1798
G01 X25.9072 Y29.1101
G01 X25.8626 Y29.0357
G01 X25.8594 Y29.0299
G01 X25.8238 Y28.9545
G01 X25.8212 Y28.9484
G01 X25.7921 Y28.8667
G01 X25.7710 Y28.7826
G01 X25.7697 Y28.7761
G01 X25.7570 Y28.6903
G01 X25.7527 Y28.6037
G01 X25.7527 Y28.5971
G01 X25.7570 Y28.5105
G01 X25.7699 Y28.4231
G01 X25.7921 Y28.3341
G01 X25.8224 Y28.2493
G01 X25.8609 Y28.1679
G01 X25.9072 Y28.0907
G01 X25.9608 Y28.0184
G01 X26.0213 Y27.9517
G01 X26.0880 Y27.8912
G01 X26.1603 Y27.8376
G01 X26.2375 Y27.7913
G01 X26.3189 Y27.7528
G01 X26.4037 Y27.7225
G01 X26.4910 Y27.7006
G01 X26.5801 Y27.6874
G01 X26.6700 Y27.6830
G01 X26.7599 Y27.6874
G01 X26.8490 Y27.7006
G01 X26.9363 Y27.7225
G01 X27.0180 Y27.7516
G01 X27.0241 Y27.7542
G01 X27.0995 Y27.7898
G01 X27.1053 Y27.7930
G01 X27.1797 Y27.8376
G01 X27.2520 Y27.8912
G01 X27.3187 Y27.9517
G01 X27.3770 Y28.0159
G01 X27.3812 Y28.0210
G01 X27.4309 Y28.0880
G01 X27.4346 Y28.0935
G01 X27.4791 Y28.1679
G01 X27.5176 Y28.2493
G01 X27.5479 Y28.3341
G01 X27.5690 Y28.4182
G01 X27.5703 Y28.4247
G01 X27.5831 Y28.5121
G01 X27.5873 Y28.5971
G01 X27.5873 Y28.6037
G01 X27.5830 Y28.6903
G01 X27.5703 Y28.7761
G01 X27.5690 Y28.7826
G01 X27.5479 Y28.8667
G01 X27.5176 Y28.9515
G01 X27.4806 Y29.0299
G01 X27.4774 Y29.0357
G01 X27.4328 Y29.1101
G01 X27.3812 Y29.1798
G01 X27.3770 Y29.1849
G01 X27.3187 Y29.2491
G01 X27.2533 Y29.3085
G01 X27.2377 Y29.3203
G01 X27.2377 Y32.4104
G01 X27.2349 Y32.4660
G01 X27.2267 Y32.5211
G01 X27.2141 Y32.5720
G01 X27.2122 Y32.5783
G01 X27.1944 Y32.6276
G01 X27.1706 Y32.6780
G01 X27.1438 Y32.7230
G01 X27.1401 Y32.7285
G01 X27.1108 Y32.7679
G01 X27.1066 Y32.7730
G01 X27.0714 Y32.8118
G01 X25.6376 Y34.2456
G01 X25.6376 Y38.4215
G01 X25.6474 Y38.4239
G01 X25.6580 Y38.4285
G01 X25.6677 Y38.4348
G01 X25.6762 Y38.4426
G01 X25.6832 Y38.4518
G01 X25.6885 Y38.4621
G01 X25.6920 Y38.4731
G01 X25.6936 Y38.4846
G01 X25.6936 Y39.3396
G01 X25.6931 Y39.3462
G01 X25.6920 Y39.3527
G01 X25.6902 Y39.3590
G01 X25.6879 Y39.3652
G01 X25.6823 Y39.3753
G01 X25.6784 Y39.3807
G01 X25.6739 Y39.3856
G01 X25.6690 Y39.3900
G01 X25.6637 Y39.3939
G01 X25.6580 Y39.3973
G01 X25.6520 Y39.4002
G01 X25.6458 Y39.4024
G01 X25.6394 Y39.4040
G01 X25.6329 Y39.4050
G01 X25.6262 Y39.4053
G01 X24.7121 Y39.4053
G01 X24.7055 Y39.4048
G01 X24.6990 Y39.4037
G01 X24.6880 Y39.4002
G01 X24.6820 Y39.3973
G01 X24.6763 Y39.3939
G01 X24.6710 Y39.3900
G01 X24.6661 Y39.3856
G01 X24.6616 Y39.3807
G01 X24.6577 Y39.3753
G01 X24.6543 Y39.3697
G01 X24.6515 Y39.3637
G01 X24.6493 Y39.3575
G01 X24.6476 Y39.3510
G01 X24.6464 Y39.3396
G01 X24.6464 Y38.4846
G01 X24.6480 Y38.4731
G01 X24.6515 Y38.4621
G01 X24.6568 Y38.4518
G01 X24.6638 Y38.4426
G01 X24.6723 Y38.4348
G01 X24.6820 Y38.4285
G01 X24.6926 Y38.4239
G01 X24.7024 Y38.4215
G00 Z1.0000
G00 X26.2024 Y38.4215
G01 F60.00
G01 Z-0.0650
G01 F120.00
G01 X26.2024 Y35.9068
G01 X26.1962 Y35.8980
G01 X26.1694 Y35.8530
G01 X26.1456 Y35.8026
G01 X26.1268 Y35.7502
G01 X26.1140 Y35.6994
G01 X26.1127 Y35.6929
G01 X26.1055 Y35.6443
G01 X26.1048 Y35.6377
G01 X26.1023 Y35.5854
G01 X26.1048 Y35.5331
G01 X26.1055 Y35.5265
G01 X26.1133 Y35.4747
G01 X26.1268 Y35.4206
G01 X26.1456 Y35.3682
G01 X26.1679 Y35.3208
G01 X26.1710 Y35.3149
G01 X26.1980 Y35.2700
G01 X26.2292 Y35.2279
G01 X26.2334 Y35.2228
G01 X26.2675 Y35.1852
G01 X28.6423 Y32.8103
G01 X28.6423 Y29.3203
G01 X28.6267 Y29.3085
G01 X28.5613 Y29.2491
G01 X28.5030 Y29.1849
G01 X28.4988 Y29.1798
G01 X28.4472 Y29.1101
G01 X28.4026 Y29.0357
G01 X28.3994 Y29.0299
G01 X28.3638 Y28.9545
G01 X28.3612 Y28.9484
G01 X28.3321 Y28.8667
G01 X28.3110 Y28.7826
G01 X28.3097 Y28.7761
G01 X28.2970 Y28.6903
G01 X28.2927 Y28.6037
G01 X28.2927 Y28.5971
G01 X28.2970 Y28.5105
G01 X28.3099 Y28.4231
G01 X28.3321 Y28.3341
G01 X28.3624 Y28.2493
G01 X28.4009 Y28.1679
G01 X28.4472 Y28.0907
G01 X28.5008 Y28.0184
G01 X28.5613 Y27.9517
G01 X28.6280 Y27.8912
G01 X28.6976 Y27.8395
G01 X28.7031 Y27.8358
G01 X28.7775 Y27.7913
G01 X28.8559 Y27.7542
G01 X28.8620 Y27.7516
G01 X28.9406 Y27.7235
G01 X28.9469 Y27.7216
G01 X29.0310 Y27.7006
G01 X29.1168 Y27.6878
G01 X29.1234 Y27.6872
G01 X29.2100 Y27.6830
G01 X29.2999 Y27.6874
G01 X29.3890 Y27.7006
G01 X29.4763 Y27.7225
G01 X29.5580 Y27.7516
G01 X29.5641 Y27.7542
G01 X29.6425 Y27.7913
G01 X29.7197 Y27.8376
G01 X29.7894 Y27.8892
G01 X29.7945 Y27.8934
G01 X29.8587 Y27.9517
G01 X29.9192 Y28.0184
G01 X29.9728 Y28.0907
G01 X30.0174 Y28.1651
G01 X30.0206 Y28.1709
G01 X30.0576 Y28.2493
G01 X30.0879 Y28.3341
G01 X30.1090 Y28.4182
G01 X30.1103 Y28.4247
G01 X30.1226 Y28.5072
G01 X30.1232 Y28.5138
G01 X30.1274 Y28.6004
G01 X30.1232 Y28.6870
G01 X30.1226 Y28.6936
G01 X30.1103 Y28.7761
G01 X30.1090 Y28.7826
G01 X30.0879 Y28.8667
G01 X30.0576 Y28.9515
G01 X30.0206 Y29.0299
G01 X30.0174 Y29.0357
G01 X29.9728 Y29.1101
G01 X29.9212 Y29.1798
G01 X29.9170 Y29.1849
G01 X29.8587 Y29.2491
G01 X29.7933 Y29.3085
G01 X29.7777 Y29.3203
G01 X29.7777 Y33.0454
G01 X29.7752 Y33.0977
G01 X29.7745 Y33.1043
G01 X29.7667 Y33.1561
G01 X29.7532 Y33.2102
G01 X29.7344 Y33.2626
G01 X29.7121 Y33.3100
G01 X29.7090 Y33.3159
G01 X29.6820 Y33.3608
G01 X29.6508 Y33.4029
G01 X29.6466 Y33.4080
G01 X29.6125 Y33.4456
G01 X27.1376 Y35.9206
G01 X27.1376 Y38.4215
G01 X27.1426 Y38.4225
G01 X27.1490 Y38.4244
G01 X27.1595 Y38.4293
G01 X27.1690 Y38.4358
G01 X27.1773 Y38.4439
G01 X27.1814 Y38.4491
G01 X27.1849 Y38.4547
G01 X27.1897 Y38.4652
G01 X27.1927 Y38.4764
G01 X27.1936 Y38.4879
G01 X27.1936 Y39.3396
G01 X27.1931 Y39.3462
G01 X27.1920 Y39.3527
G01 X27.1902 Y39.3590
G01 X27.1879 Y39.3652
G01 X27.1823 Y39.3753
G01 X27.1784 Y39.3807
G01 X27.1739 Y39.3856
G01 X27.1690 Y39.3900
G01 X27.1637 Y39.3939
G01 X27.1580 Y39.3973
G01 X27.1520 Y39.4002
G01 X27.1458 Y39.4024
G01 X27.1394 Y39.4040
G01 X27.1329 Y39.4050
G01 X27.1262 Y39.4053
G01 X26.2121 Y39.4053
G01 X26.2055 Y39.4048
G01 X26.1990 Y39.4037
G01 X26.1880 Y39.4002
G01 X26.1820 Y39.3973
G01 X26.1763 Y39.3939
G01 X26.1710 Y39.3900
G01 X26.1661 Y39.3856
G01 X26.1616 Y39.3807
G01 X26.1577 Y39.3753
G01 X26.1543 Y39.3697
G01 X26.1515 Y39.3637
G01 X26.1493 Y39.3575
G01 X26.1476 Y39.3510
G01 X26.1464 Y39.3396
G01 X26.1464 Y38.4846
G01 X26.1480 Y38.4731
G01 X26.1515 Y38.4621
G01 X26.1568 Y38.4518
G01 X26.1638 Y38.4426
G01 X26.1723 Y38.4348
G01 X26.1820 Y38.4285
G01 X26.1926 Y38.4239
G01 X26.2024 Y38.4215
G00 Z1.0000
G00 X28.6262 Y38.4205
G01 F60.00
G01 Z-0.0650
G01 F120.00
G01 X28.6329 Y38.4208
G01 X28.6394 Y38.4218
G01 X28.6458 Y38.4234
G01 X28.6520 Y38.4256
G01 X28.6580 Y38.4285
G01 X28.6637 Y38.4319
G01 X28.6727 Y38.4391
G01 X28.6804 Y38.4477
G01 X28.6841 Y38.4532
G01 X28.6872 Y38.4591
G01 X28.6897 Y38.4652
G01 X28.6916 Y38.4715
G01 X28.6929 Y38.4780
G01 X28.6936 Y38.4846
G01 X28.6936 Y39.3396
G01 X28.6931 Y39.3462
G01 X28.6920 Y39.3527
G01 X28.6885 Y39.3637
G01 X28.6857 Y39.3697
G01 X28.6823 Y39.3753
G01 X28.6784 Y39.3807
G01 X28.6739 Y39.3856
G01 X28.6690 Y39.3900
G01 X28.6637 Y39.3939
G01 X28.6580 Y39.3973
G01 X28.6520 Y39.4002
G01 X28.6458 Y39.4024
G01 X28.6394 Y39.4040
G01 X28.6279 Y39.4053
G01 X27.7138 Y39.4053
G01 X27.7071 Y39.4050
G01 X27.7006 Y39.4040
G01 X27.6942 Y39.4024
G01 X27.6880 Y39.4002
G01 X27.6820 Y39.3973
G01 X27.6763 Y39.3939
G01 X27.6710 Y39.3900
G01 X27.6661 Y39.3856
G01 X27.6616 Y39.3807
G01 X27.6577 Y39.3753
G01 X27.6543 Y39.3697
G01 X27.6515 Y39.3637
G01 X27.6493 Y39.3575
G01 X27.6476 Y39.3510
G01 X27.6464 Y39.3396
G01 X27.6464 Y38.4879
G01 X27.6467 Y38.4813
G01 X27.6476 Y38.4748
G01 X27.6493 Y38.4683
G01 X27.6515 Y38.4621
G01 X27.6543 Y38.4561
G01 X27.6577 Y38.4505
G01 X27.6616 Y38.4451
G01 X27.6661 Y38.4402
G01 X27.6710 Y38.4358
G01 X27.6763 Y38.4319
G01 X27.6864 Y38.4263
G01 X27.6926 Y38.4239
G01 X27.6990 Y38.4221
G01 X27.7055 Y38.4210
G01 X27.7121 Y38.4205
G01 X28.6262 Y38.4205
G00 Z1.0000
G00 X29.2024 Y38.4215
G01 F60.00
G01 Z-0.0650
G01 F120.00
G01 X29.2024 Y35.8278
G01 X29.1962 Y35.8190
G01 X29.1694 Y35.7740
G01 X29.1469 Y35.7267
G01 X29.1444 Y35.7205
G01 X29.1268 Y35.6712
G01 X29.1140 Y35.6204
G01 X29.1127 Y35.6139
G01 X29.1051 Y35.5620
G01 X29.1023 Y35.5064
G01 X29.1048 Y35.4541
G01 X29.1055 Y35.4475
G01 X29.1133 Y35.3957
G01 X29.1259 Y35.3448
G01 X29.1278 Y35.3385
G01 X29.1449 Y35.2907
G01 X29.1694 Y35.2388
G01 X29.1980 Y35.1910
G01 X29.2312 Y35.1463
G01 X29.2686 Y35.1050
G01 X29.3099 Y35.0676
G01 X29.3546 Y35.0344
G01 X29.4024 Y35.0058
G01 X29.4512 Y34.9826
G01 X29.5021 Y34.9642
G01 X29.5084 Y34.9623
G01 X29.5593 Y34.9497
G01 X29.6144 Y34.9415
G01 X29.6700 Y34.9387
G01 X29.9429 Y34.9387
G01 X31.1823 Y33.6993
G01 X31.1823 Y32.4303
G01 X31.1367 Y32.3887
G01 X31.0817 Y32.3282
G01 X31.0775 Y32.3231
G01 X31.0279 Y32.2559
G01 X30.9850 Y32.1843
G01 X30.9500 Y32.1104
G01 X30.9474 Y32.1043
G01 X30.9195 Y32.0256
G01 X30.8993 Y31.9446
G01 X30.8872 Y31.8637
G01 X30.8865 Y31.8571
G01 X30.8826 Y31.7754
G01 X30.8868 Y31.6904
G01 X30.8987 Y31.6094
G01 X30.9000 Y31.6030
G01 X30.9204 Y31.5220
G01 X30.9486 Y31.4435
G01 X30.9850 Y31.3665
G01 X31.0288 Y31.2935
G01 X31.0775 Y31.2277
G01 X31.0817 Y31.2226
G01 X31.1367 Y31.1621
G01 X31.1972 Y31.1071
G01 X31.2023 Y31.1029
G01 X31.2654 Y31.0561
G01 X31.2709 Y31.0524
G01 X31.3411 Y31.0104
G01 X31.4150 Y30.9754
G01 X31.4211 Y30.9728
G01 X31.4982 Y30.9454
G01 X31.5808 Y30.9247
G01 X31.6650 Y30.9122
G01 X31.7500 Y30.9080
G01 X31.8350 Y30.9122
G01 X31.9192 Y30.9247
G01 X32.0018 Y30.9454
G01 X32.0804 Y30.9734
G01 X32.1559 Y31.0089
G01 X32.1618 Y31.0121
G01 X32.2319 Y31.0542
G01 X32.3003 Y31.1049
G01 X32.3609 Y31.1598
G01 X32.3656 Y31.1645
G01 X32.4205 Y31.2251
G01 X32.4693 Y31.2908
G01 X32.4730 Y31.2963
G01 X32.5150 Y31.3665
G01 X32.5500 Y31.4404
G01 X32.5526 Y31.4465
G01 X32.5800 Y31.5236
G01 X32.6000 Y31.6030
G01 X32.6013 Y31.6094
G01 X32.6134 Y31.6920
G01 X32.6173 Y31.7721
G01 X32.6173 Y31.7787
G01 X32.6132 Y31.8604
G01 X32.6013 Y31.9414
G01 X32.6000 Y31.9478
G01 X32.5800 Y32.0272
G01 X32.5514 Y32.1073
G01 X32.5150 Y32.1843
G01 X32.4730 Y32.2545
G01 X32.4693 Y32.2600
G01 X32.4225 Y32.3231
G01 X32.4183 Y32.3282
G01 X32.3633 Y32.3887
G01 X32.3177 Y32.4303
G01 X32.3177 Y33.9344
G01 X32.3149 Y33.9900
G01 X32.3064 Y34.0468
G01 X32.2932 Y34.0992
G01 X32.2756 Y34.1485
G01 X32.2731 Y34.1547
G01 X32.2506 Y34.2020
G01 X32.2238 Y34.2470
G01 X32.2201 Y34.2525
G01 X32.1888 Y34.2945
G01 X32.1537 Y34.3334
G01 X30.5782 Y35.9089
G01 X30.5381 Y35.9452
G01 X30.4934 Y35.9784
G01 X30.4456 Y36.0070
G01 X30.3937 Y36.0315
G01 X30.3428 Y36.0496
G01 X30.2871 Y36.0634
G01 X30.2320 Y36.0715
G01 X30.1797 Y36.0740
G01 X30.1376 Y36.0741
G01 X30.1376 Y38.4215
G01 X30.1426 Y38.4225
G01 X30.1490 Y38.4244
G01 X30.1595 Y38.4293
G01 X30.1690 Y38.4358
G01 X30.1773 Y38.4439
G01 X30.1814 Y38.4491
G01 X30.1849 Y38.4547
G01 X30.1897 Y38.4652
G01 X30.1927 Y38.4764
G01 X30.1936 Y38.4879
G01 X30.1936 Y39.3396
G01 X30.1931 Y39.3462
G01 X30.1920 Y39.3527
G01 X30.1902 Y39.3590
G01 X30.1879 Y39.3652
G01 X30.1823 Y39.3753
G01 X30.1784 Y39.3807
G01 X30.1739 Y39.3856
G01 X30.1690 Y39.3900
G01 X30.1637 Y39.3939
G01 X30.1580 Y39.3973
G01 X30.1520 Y39.4002
G01 X30.1458 Y39.4024
G01 X30.1394 Y39.4040
G01 X30.1329 Y39.4050
G01 X30.1262 Y39.4053
G01 X29.2121 Y39.4053
G01 X29.2055 Y39.4048
G01 X29.1990 Y39.4037
G01 X29.1880 Y39.4002
G01 X29.1820 Y39.3973
G01 X29.1763 Y39.3939
G01 X29.1710 Y39.3900
G01 X29.1661 Y39.3856
G01 X29.1616 Y39.3807
G01 X29.1577 Y39.3753
G01 X29.1543 Y39.3697
G01 X29.1515 Y39.3637
G01 X29.1493 Y39.3575
G01 X29.1476 Y39.3510
G01 X29.1464 Y39.3396
G01 X29.1464 Y38.4846
G01 X29.1480 Y38.4731
G01 X29.1515 Y38.4621
G01 X29.1568 Y38.4518
G01 X29.1638 Y38.4426
G01 X29.1723 Y38.4348
G01 X29.1820 Y38.4285
G01 X29.1926 Y38.4239
G01 X29.2024 Y38.4215
G00 Z1.0000
G00 X30.7024 Y38.4215
G01 F60.00
G01 Z-0.0650
G01 F120.00
G01 X30.7024 Y37.3084
G01 X30.7045 Y37.2642
G01 X30.7108 Y37.2204
G01 X30.7121 Y37.2139
G01 X30.7225 Y37.1727
G01 X30.7380 Y37.1295
G01 X30.7561 Y37.0909
G01 X30.7592 Y37.0851
G01 X30.7812 Y37.0486
G01 X30.8065 Y37.0144
G01 X30.8107 Y37.0093
G01 X30.8394 Y36.9778
G01 X34.4674 Y33.3498
G01 X34.5001 Y33.3200
G01 X34.5355 Y33.2935
G01 X34.5410 Y33.2898
G01 X34.5776 Y33.2680
G01 X34.6191 Y33.2484
G01 X34.6591 Y33.2340
G01 X34.6655 Y33.2321
G01 X34.7068 Y33.2218
G01 X34.7505 Y33.2152
G01 X34.7980 Y33.2128
G01 X35.4651 Y33.2128
G01 X35.4747 Y33.1971
G01 X35.5235 Y33.1314
G01 X35.5817 Y33.0671
G01 X35.6447 Y33.0099
G01 X35.7104 Y32.9611
G01 X35.7159 Y32.9574
G01 X35.7832 Y32.9171
G01 X35.7891 Y32.9139
G01 X35.8631 Y32.8790
G01 X35.9401 Y32.8514
G01 X35.9464 Y32.8495
G01 X36.0258 Y32.8297
G01 X36.1116 Y32.8170
G01 X36.1917 Y32.8131
G01 X36.1983 Y32.8131
G01 X36.2800 Y32.8172
G01 X36.3610 Y32.8291
G01 X36.3674 Y32.8304
G01 X36.4468 Y32.8504
G01 X36.5269 Y32.8790
G01 X36.6039 Y32.9154
G01 X36.6741 Y32.9574
G01 X36.6796 Y32.9611
G01 X36.7453 Y33.0099
G01 X36.8059 Y33.0648
G01 X36.8106 Y33.0695
G01 X36.8644 Y33.1289
G01 X36.9162 Y33.1985
G01 X36.9600 Y33.2715
G01 X36.9964 Y33.3485
G01 X37.0250 Y33.4286
G01 X37.0457 Y33.5112
G01 X37.0582 Y33.5954
G01 X37.0624 Y33.6804
G01 X37.0582 Y33.7654
G01 X37.0457 Y33.8496
G01 X37.0250 Y33.9322
G01 X36.9964 Y34.0123
G01 X36.9600 Y34.0893
G01 X36.9162 Y34.1623
G01 X36.8655 Y34.2307
G01 X36.8083 Y34.2937
G01 X36.7453 Y34.3509
G01 X36.6769 Y34.4016
G01 X36.6039 Y34.4454
G01 X36.5269 Y34.4818
G01 X36.4468 Y34.5104
G01 X36.3642 Y34.5311
G01 X36.2800 Y34.5436
G01 X36.1950 Y34.5478
G01 X36.1083 Y34.5434
G01 X36.0258 Y34.5311
G01 X35.9464 Y34.5113
G01 X35.9401 Y34.5094
G01 X35.8661 Y34.4830
G01 X35.8600 Y34.4804
G01 X35.7861 Y34.4454
G01 X35.7159 Y34.4034
G01 X35.7104 Y34.3997
G01 X35.6447 Y34.3509
G01 X35.5817 Y34.2937
G01 X35.5235 Y34.2294
G01 X35.4747 Y34.1637
G01 X35.4651 Y34.1480
G01 X34.9917 Y34.1480
G01 X31.6376 Y37.5021
G01 X31.6376 Y38.4215
G01 X31.6426 Y38.4225
G01 X31.6490 Y38.4244
G01 X31.6595 Y38.4293
G01 X31.6690 Y38.4358
G01 X31.6773 Y38.4439
G01 X31.6841 Y38.4532
G01 X31.6891 Y38.4636
G01 X31.6924 Y38.4748
G01 X31.6936 Y38.4862
G01 X31.6936 Y39.3396
G01 X31.6931 Y39.3462
G01 X31.6920 Y39.3527
G01 X31.6897 Y39.3606
G01 X31.6872 Y39.3667
G01 X31.6841 Y39.3726
G01 X31.6794 Y39.3794
G01 X31.6751 Y39.3844
G01 X31.6703 Y39.3889
G01 X31.6609 Y39.3957
G01 X31.6505 Y39.4008
G01 X31.6394 Y39.4040
G01 X31.6279 Y39.4053
G01 X30.7138 Y39.4053
G01 X30.7071 Y39.4050
G01 X30.7006 Y39.4040
G01 X30.6942 Y39.4024
G01 X30.6880 Y39.4002
G01 X30.6820 Y39.3973
G01 X30.6763 Y39.3939
G01 X30.6710 Y39.3900
G01 X30.6661 Y39.3856
G01 X30.6616 Y39.3807
G01 X30.6577 Y39.3753
G01 X30.6543 Y39.3697
G01 X30.6515 Y39.3637
G01 X30.6493 Y39.3575
G01 X30.6476 Y39.3510
G01 X30.6464 Y39.3396
G01 X30.6464 Y38.4846
G01 X30.6480 Y38.4731
G01 X30.6515 Y38.4621
G01 X30.6568 Y38.4518
G01 X30.6638 Y38.4426
G01 X30.6723 Y38.4348
G01 X30.6820 Y38.4285
G01 X30.6926 Y38.4239
G01 X30.7024 Y38.4215
G00 Z1.0000
G00 X33.1785 Y55.9203
G01 F60.00
G01 Z-0.0650
G01 F120.00
G01 X36.2623 Y55.9203
G01 X36.2624 Y51.3201
G01 X36.2651 Y51.2661
G01 X36.2727 Y51.2143
G01 X36.2740 Y51.2078
G01 X36.2868 Y51.1570
G01 X36.3044 Y51.1076
G01 X36.3069 Y51.1015
G01 X36.3294 Y51.0542
G01 X36.3580 Y51.0064
G01 X36.3912 Y50.9617
G01 X36.4286 Y50.9204
G01 X46.4223 Y40.9266
G01 X46.4223 Y40.6853
G01 X46.3767 Y40.6437
G01 X46.3217 Y40.5832
G01 X46.3175 Y40.5781
G01 X46.2707 Y40.5150
G01 X46.2670 Y40.5095
G01 X46.2250 Y40.4393
G01 X46.1893 Y40.3639
G01 X46.1600 Y40.2822
G01 X46.1393 Y40.1996
G01 X46.1268 Y40.1154
G01 X46.1226 Y40.0304
G01 X46.1268 Y39.9454
G01 X46.1393 Y39.8612
G01 X46.1600 Y39.7786
G01 X46.1893 Y39.6969
G01 X46.2250 Y39.6215
G01 X46.2670 Y39.5513
G01 X46.2707 Y39.5458
G01 X46.3175 Y39.4827
G01 X46.3217 Y39.4776
G01 X46.3767 Y39.4171
G01 X46.4223 Y39.3755
G01 X46.4223 Y12.5654
G01 X46.4251 Y12.5098
G01 X46.4333 Y12.4547
G01 X46.4459 Y12.4038
G01 X46.4478 Y12.3975
G01 X46.4656 Y12.3482
G01 X46.4894 Y12.2978
G01 X46.5162 Y12.2528
G01 X46.5199 Y12.2473
G01 X46.5492 Y12.2079
G01 X46.5534 Y12.2028
G01 X46.5886 Y12.1640
G01 X48.0901 Y10.6625
G01 X48.0615 Y10.5823
G01 X48.0292 Y10.4538
G01 X48.0090 Y10.3178
G01 X48.0026 Y10.1854
G01 X48.0089 Y10.0547
G01 X48.0096 Y10.0481
G01 X48.0292 Y9.9170
G01 X48.0615 Y9.7885
G01 X48.1055 Y9.6652
G01 X48.1080 Y9.6591
G01 X48.1641 Y9.5408
G01 X48.2313 Y9.4285
G01 X48.2350 Y9.4230
G01 X48.3130 Y9.3179
G01 X48.4008 Y9.2209
G01 X48.4055 Y9.2162
G01 X48.5000 Y9.1305
G01 X48.5051 Y9.1264
G01 X48.6103 Y9.0484
G01 X48.7254 Y8.9795
G01 X48.8437 Y8.9234
G01 X48.8498 Y8.9209
G01 X48.9731 Y8.8769
G01 X49.1000 Y8.8450
G01 X49.1065 Y8.8437
G01 X49.2327 Y8.8250
G01 X49.2393 Y8.8243
G01 X49.3700 Y8.8180
G01 X49.5007 Y8.8243
G01 X49.5073 Y8.8250
G01 X49.6368 Y8.8443
G01 X49.7637 Y8.8760
G01 X49.7701 Y8.8779
G01 X49.8933 Y8.9221
G01 X50.0116 Y8.9780
G01 X50.0175 Y8.9811
G01 X50.1269 Y9.0467
G01 X50.1324 Y9.0504
G01 X50.2375 Y9.1284
G01 X50.3345 Y9.2162
G01 X50.3392 Y9.2209
G01 X50.4270 Y9.3179
G01 X50.5070 Y9.4257
G01 X50.5759 Y9.5408
G01 X50.6333 Y9.6621
G01 X50.6785 Y9.7885
G01 X50.7104 Y9.9154
G01 X50.7117 Y9.9219
G01 X50.7304 Y10.0481
G01 X50.7311 Y10.0547
G01 X50.7374 Y10.1854
G01 X50.7311 Y10.3161
G01 X50.7304 Y10.3227
G01 X50.7111 Y10.4522
G01 X50.6785 Y10.5823
G01 X50.6333 Y10.7087
G01 X50.5751 Y10.8314
G01 X50.5070 Y10.9451
G01 X50.4270 Y11.0529
G01 X50.3369 Y11.1523
G01 X50.2400 Y11.2403
G01 X50.2349 Y11.2444
G01 X50.1324 Y11.3204
G01 X50.1269 Y11.3241
G01 X50.0146 Y11.3913
G01 X49.8917 Y11.4493
G01 X49.7669 Y11.4939
G01 X49.6368 Y11.5265
G01 X49.5040 Y11.5462
G01 X49.3717 Y11.5528
G01 X49.2360 Y11.5462
G01 X49.1049 Y11.5268
G01 X48.9731 Y11.4939
G01 X48.8929 Y11.4653
G01 X47.5577 Y12.8005
G01 X47.5577 Y39.3755
G01 X47.6033 Y39.4171
G01 X47.6583 Y39.4776
G01 X47.6625 Y39.4827
G01 X47.7093 Y39.5458
G01 X47.7130 Y39.5513
G01 X47.7550 Y39.6215
G01 X47.7907 Y39.6969
G01 X47.8200 Y39.7786
G01 X47.8407 Y39.8612
G01 X47.8532 Y39.9454
G01 X47.8574 Y40.0304
G01 X47.8532 Y40.1154
G01 X47.8407 Y40.1996
G01 X47.8200 Y40.2822
G01 X47.7907 Y40.3639
G01 X47.7550 Y40.4393
G01 X47.7130 Y40.5095
G01 X47.7093 Y40.5150
G01 X47.6625 Y40.5781
G01 X47.6583 Y40.5832
G01 X47.6033 Y40.6437
G01 X47.5577 Y40.6853
G01 X47.5576 Y41.1651
G01 X47.5549 Y41.2174
G01 X47.5473 Y41.2693
G01 X47.5460 Y41.2757
G01 X47.5341 Y41.3234
G01 X47.5322 Y41.3297
G01 X47.5156 Y41.3759
G01 X47.5131 Y41.3820
G01 X47.4906 Y41.4294
G01 X47.4638 Y41.4743
G01 X47.4601 Y41.4798
G01 X47.4288 Y41.5219
G01 X47.3914 Y41.5632
G01 X37.3977 Y51.5569
G01 X37.3976 Y56.5421
G01 X37.3949 Y56.5960
G01 X37.3867 Y56.6511
G01 X37.3732 Y56.7052
G01 X37.3544 Y56.7576
G01 X37.3306 Y56.8080
G01 X37.3020 Y56.8558
G01 X37.2688 Y56.9005
G01 X37.2314 Y56.9418
G01 X37.1901 Y56.9792
G01 X37.1454 Y57.0124
G01 X37.0976 Y57.0410
G01 X37.0472 Y57.0648
G01 X36.9948 Y57.0836
G01 X36.9407 Y57.0971
G01 X36.8856 Y57.1053
G01 X36.8283 Y57.1080
G01 X36.7777 Y57.1056
G01 X36.7711 Y57.1049
G01 X36.7193 Y57.0971
G01 X36.6684 Y57.0845
G01 X36.6621 Y57.0826
G01 X36.6128 Y57.0648
G01 X36.5624 Y57.0410
G01 X36.5174 Y57.0142
G01 X36.5119 Y57.0105
G01 X36.4699 Y56.9792
G01 X36.4310 Y56.9441
G01 X36.4263 Y56.9394
G01 X36.3912 Y56.9005
G01 X36.3578 Y56.8555
G01 X33.1785 Y56.8555
G01 X33.1739 Y56.8606
G01 X33.1677 Y56.8660
G01 X33.1609 Y56.8707
G01 X33.1551 Y56.8738
G01 X33.1490 Y56.8764
G01 X33.1410 Y56.8787
G01 X33.1345 Y56.8798
G01 X33.1262 Y56.8803
G01 X32.2121 Y56.8803
G01 X32.2055 Y56.8798
G01 X32.1990 Y56.8787
G01 X32.1910 Y56.8764
G01 X32.1849 Y56.8738
G01 X32.1791 Y56.8707
G01 X32.1736 Y56.8670
G01 X32.1685 Y56.8628
G01 X32.1638 Y56.8582
G01 X32.1568 Y56.8490
G01 X32.1515 Y56.8387
G01 X32.1480 Y56.8277
G01 X32.1469 Y56.8212
G01 X32.1464 Y56.8146
G01 X32.1464 Y55.9629
G01 X32.1467 Y55.9563
G01 X32.1476 Y55.9498
G01 X32.1498 Y55.9418
G01 X32.1521 Y55.9356
G01 X32.1551 Y55.9297
G01 X32.1596 Y55.9227
G01 X32.1638 Y55.9176
G01 X32.1685 Y55.9130
G01 X32.1777 Y55.9060
G01 X32.1880 Y55.9006
G01 X32.1942 Y55.8984
G01 X32.2006 Y55.8968
G01 X32.2121 Y55.8955
G01 X33.1262 Y55.8955
G01 X33.1329 Y55.8958
G01 X33.1410 Y55.8971
G01 X33.1474 Y55.8989
G01 X33.1551 Y55.9020
G01 X33.1623 Y55.9060
G01 X33.1677 Y55.9098
G01 X33.1739 Y55.9152
G01 X33.1785 Y55.9203
G00 Z1.0000
G00 X30.7024 Y56.8793
G01 F60.00
G01 Z-0.0650
G01 F120.00
G01 X30.6926 Y56.8769
G01 X30.6820 Y56.8723
G01 X30.6723 Y56.8660
G01 X30.6638 Y56.8582
G01 X30.6568 Y56.8490
G01 X30.6515 Y56.8387
G01 X30.6480 Y56.8277
G01 X30.6464 Y56.8162
G01 X30.6464 Y55.9612
G01 X30.6469 Y55.9546
G01 X30.6480 Y55.9481
G01 X30.6498 Y55.9418
G01 X30.6521 Y55.9356
G01 X30.6577 Y55.9255
G01 X30.6616 Y55.9201
G01 X30.6661 Y55.9152
G01 X30.6710 Y55.9108
G01 X30.6763 Y55.9069
G01 X30.6820 Y55.9035
G01 X30.6880 Y55.9006
G01 X30.6942 Y55.8984
G01 X30.7006 Y55.8968
G01 X30.7071 Y55.8958
G01 X30.7138 Y55.8955
G01 X31.6279 Y55.8955
G01 X31.6345 Y55.8960
G01 X31.6410 Y55.8971
G01 X31.6520 Y55.9006
G01 X31.6580 Y55.9035
G01 X31.6637 Y55.9069
G01 X31.6690 Y55.9108
G01 X31.6739 Y55.9152
G01 X31.6784 Y55.9201
G01 X31.6823 Y55.9255
G01 X31.6857 Y55.9311
G01 X31.6885 Y55.9371
G01 X31.6907 Y55.9433
G01 X31.6924 Y55.9498
G01 X31.6936 Y55.9612
G01 X31.6936 Y56.8162
G01 X31.6920 Y56.8277
G01 X31.6885 Y56.8387
G01 X31.6832 Y56.8490
G01 X31.6762 Y56.8582
G01 X31.6677 Y56.8660
G01 X31.6580 Y56.8723
G01 X31.6474 Y56.8769
G01 X31.6376 Y56.8793
G01 X31.6376 Y68.3252
G01 X32.1514 Y68.8390
G01 X32.1877 Y68.8790
G01 X32.2220 Y68.9250
G01 X32.2506 Y68.9728
G01 X32.2744 Y69.0232
G01 X32.2932 Y69.0756
G01 X32.3060 Y69.1264
G01 X32.3073 Y69.1329
G01 X32.3149 Y69.1848
G01 X32.3176 Y69.2387
G01 X32.3177 Y71.0605
G01 X32.3333 Y71.0723
G01 X32.3975 Y71.1305
G01 X32.4592 Y71.1984
G01 X32.5128 Y71.2707
G01 X32.5574 Y71.3451
G01 X32.5606 Y71.3509
G01 X32.5976 Y71.4293
G01 X32.6269 Y71.5110
G01 X32.6288 Y71.5173
G01 X32.6490 Y71.5982
G01 X32.6503 Y71.6047
G01 X32.6630 Y71.6905
G01 X32.6674 Y71.7804
G01 X32.6630 Y71.8703
G01 X32.6498 Y71.9594
G01 X32.6279 Y72.0467
G01 X32.5976 Y72.1315
G01 X32.5591 Y72.2129
G01 X32.5128 Y72.2901
G01 X32.4592 Y72.3624
G01 X32.4010 Y72.4267
G01 X32.3963 Y72.4314
G01 X32.3320 Y72.4896
G01 X32.2624 Y72.5413
G01 X32.2569 Y72.5450
G01 X32.1853 Y72.5878
G01 X32.1795 Y72.5910
G01 X32.1011 Y72.6280
G01 X32.0163 Y72.6583
G01 X31.9290 Y72.6802
G01 X31.8383 Y72.6935
G01 X31.7500 Y72.6978
G01 X31.6601 Y72.6934
G01 X31.5710 Y72.6802
G01 X31.4869 Y72.6592
G01 X31.4806 Y72.6573
G01 X31.4020 Y72.6292
G01 X31.3959 Y72.6266
G01 X31.3175 Y72.5895
G01 X31.2403 Y72.5432
G01 X31.1680 Y72.4896
G01 X31.1037 Y72.4314
G01 X31.0990 Y72.4267
G01 X31.0430 Y72.3649
G01 X31.0388 Y72.3598
G01 X30.9872 Y72.2901
G01 X30.9409 Y72.2129
G01 X30.9024 Y72.1315
G01 X30.8721 Y72.0467
G01 X30.8502 Y71.9594
G01 X30.8374 Y71.8736
G01 X30.8368 Y71.8670
G01 X30.8326 Y71.7804
G01 X30.8370 Y71.6905
G01 X30.8497 Y71.6047
G01 X30.8510 Y71.5982
G01 X30.8721 Y71.5141
G01 X30.9012 Y71.4324
G01 X30.9038 Y71.4263
G01 X30.9409 Y71.3479
G01 X30.9872 Y71.2707
G01 X31.0408 Y71.1984
G01 X31.0990 Y71.1341
G01 X31.1037 Y71.1294
G01 X31.1667 Y71.0723
G01 X31.1823 Y71.0605
G01 X31.1823 Y69.4755
G01 X30.7686 Y69.0618
G01 X30.7334 Y69.0230
G01 X30.7292 Y69.0179
G01 X30.6980 Y68.9758
G01 X30.6710 Y68.9309
G01 X30.6679 Y68.9250
G01 X30.6456 Y68.8776
G01 X30.6268 Y68.8252
G01 X30.6140 Y68.7744
G01 X30.6127 Y68.7679
G01 X30.6049 Y68.7144
G01 X30.6023 Y68.6604
G01 X30.6051 Y68.6048
G01 X30.6133 Y68.5497
G01 X30.6259 Y68.4988
G01 X30.6278 Y68.4925
G01 X30.6456 Y68.4432
G01 X30.6679 Y68.3958
G01 X30.6710 Y68.3899
G01 X30.6962 Y68.3478
G01 X30.7024 Y68.3390
G01 X30.7024 Y56.8793
G00 Z1.0000
G00 X29.2024 Y56.8793
G01 F60.00
G01 Z-0.0650
G01 F120.00
G01 X29.1926 Y56.8769
G01 X29.1820 Y56.8723
G01 X29.1723 Y56.8660
G01 X29.1638 Y56.8582
G01 X29.1568 Y56.8490
G01 X29.1515 Y56.8387
G01 X29.1480 Y56.8277
G01 X29.1464 Y56.8162
G01 X29.1464 Y55.9612
G01 X29.1469 Y55.9546
G01 X29.1480 Y55.9481
G01 X29.1498 Y55.9418
G01 X29.1521 Y55.9356
G01 X29.1577 Y55.9255
G01 X29.1616 Y55.9201
G01 X29.1661 Y55.9152
G01 X29.1710 Y55.9108
G01 X29.1763 Y55.9069
G01 X29.1864 Y55.9013
G01 X29.1926 Y55.8989
G01 X29.1990 Y55.8971
G01 X29.2055 Y55.8960
G01 X29.2121 Y55.8955
G01 X30.1262 Y55.8955
G01 X30.1329 Y55.8958
G01 X30.1394 Y55.8968
G01 X30.1458 Y55.8984
G01 X30.1520 Y55.9006
G01 X30.1580 Y55.9035
G01 X30.1637 Y55.9069
G01 X30.1690 Y55.9108
G01 X30.1739 Y55.9152
G01 X30.1784 Y55.9201
G01 X30.1823 Y55.9255
G01 X30.1879 Y55.9356
G01 X30.1902 Y55.9418
G01 X30.1920 Y55.9481
G01 X30.1931 Y55.9546
G01 X30.1936 Y55.9612
G01 X30.1936 Y56.8162
G01 X30.1920 Y56.8277
G01 X30.1885 Y56.8387
G01 X30.1832 Y56.8490
G01 X30.1762 Y56.8582
G01 X30.1677 Y56.8660
G01 X30.1580 Y56.8723
G01 X30.1474 Y56.8769
G01 X30.1376 Y56.8793
G01 X30.1376 Y68.4590
G01 X30.1438 Y68.4678
G01 X30.1690 Y68.5099
G01 X30.1721 Y68.5158
G01 X30.1944 Y68.5632
G01 X30.2132 Y68.6156
G01 X30.2267 Y68.6697
G01 X30.2345 Y68.7215
G01 X30.2352 Y68.7281
G01 X30.2376 Y68.7821
G01 X30.2349 Y68.8360
G01 X30.2273 Y68.8879
G01 X30.2260 Y68.8944
G01 X30.2132 Y68.9452
G01 X30.1956 Y68.9945
G01 X30.1931 Y69.0007
G01 X30.1706 Y69.0480
G01 X30.1420 Y69.0958
G01 X30.1088 Y69.1405
G01 X30.0725 Y69.1806
G01 X29.7777 Y69.4755
G01 X29.7777 Y71.0605
G01 X29.7933 Y71.0723
G01 X29.8587 Y71.1317
G01 X29.9170 Y71.1959
G01 X29.9212 Y71.2010
G01 X29.9728 Y71.2707
G01 X30.0174 Y71.3451
G01 X30.0206 Y71.3509
G01 X30.0576 Y71.4293
G01 X30.0879 Y71.5141
G01 X30.1090 Y71.5982
G01 X30.1103 Y71.6047
G01 X30.1226 Y71.6872
G01 X30.1232 Y71.6938
G01 X30.1274 Y71.7804
G01 X30.1232 Y71.8670
G01 X30.1226 Y71.8736
G01 X30.1098 Y71.9594
G01 X30.0888 Y72.0435
G01 X30.0869 Y72.0498
G01 X30.0588 Y72.1284
G01 X30.0562 Y72.1345
G01 X30.0191 Y72.2129
G01 X29.9728 Y72.2901
G01 X29.9192 Y72.3624
G01 X29.8610 Y72.4267
G01 X29.8563 Y72.4314
G01 X29.7920 Y72.4896
G01 X29.7197 Y72.5432
G01 X29.6425 Y72.5895
G01 X29.5611 Y72.6280
G01 X29.4763 Y72.6583
G01 X29.3890 Y72.6802
G01 X29.2999 Y72.6934
G01 X29.2100 Y72.6978
G01 X29.1201 Y72.6934
G01 X29.0310 Y72.6802
G01 X28.9437 Y72.6583
G01 X28.8589 Y72.6280
G01 X28.7775 Y72.5895
G01 X28.7003 Y72.5432
G01 X28.6280 Y72.4896
G01 X28.5613 Y72.4291
G01 X28.5008 Y72.3624
G01 X28.4472 Y72.2901
G01 X28.4009 Y72.2129
G01 X28.3624 Y72.1315
G01 X28.3321 Y72.0467
G01 X28.3102 Y71.9594
G01 X28.2970 Y71.8703
G01 X28.2926 Y71.7804
G01 X28.2970 Y71.6905
G01 X28.3097 Y71.6047
G01 X28.3110 Y71.5982
G01 X28.3321 Y71.5141
G01 X28.3612 Y71.4324
G01 X28.3638 Y71.4263
G01 X28.3994 Y71.3509
G01 X28.4026 Y71.3451
G01 X28.4472 Y71.2707
G01 X28.5008 Y71.1984
G01 X28.5625 Y71.1305
G01 X28.6267 Y71.0723
G01 X28.6423 Y71.0605
G01 X28.6423 Y69.2404
G01 X28.6448 Y69.1881
G01 X28.6455 Y69.1815
G01 X28.6533 Y69.1297
G01 X28.6663 Y69.0772
G01 X28.6856 Y69.0232
G01 X28.7094 Y68.9728
G01 X28.7380 Y68.9250
G01 X28.7723 Y68.8790
G01 X28.8086 Y68.8390
G01 X29.2024 Y68.4452
G01 X29.2024 Y56.8793
G00 Z1.0000
G00 X26.2024 Y56.8793
G01 F60.00
G01 Z-0.0650
G01 F120.00
G01 X26.1926 Y56.8769
G01 X26.1820 Y56.8723
G01 X26.1723 Y56.8660
G01 X26.1638 Y56.8582
G01 X26.1568 Y56.8490
G01 X26.1515 Y56.8387
G01 X26.1480 Y56.8277
G01 X26.1464 Y56.8162
G01 X26.1464 Y55.9612
G01 X26.1469 Y55.9546
G01 X26.1480 Y55.9481
G01 X26.1498 Y55.9418
G01 X26.1521 Y55.9356
G01 X26.1577 Y55.9255
G01 X26.1616 Y55.9201
G01 X26.1661 Y55.9152
G01 X26.1710 Y55.9108
G01 X26.1763 Y55.9069
G01 X26.1820 Y55.9035
G01 X26.1880 Y55.9006
G01 X26.1942 Y55.8984
G01 X26.2006 Y55.8968
G01 X26.2071 Y55.8958
G01 X26.2138 Y55.8955
G01 X27.1279 Y55.8955
G01 X27.1345 Y55.8960
G01 X27.1410 Y55.8971
G01 X27.1520 Y55.9006
G01 X27.1580 Y55.9035
G01 X27.1637 Y55.9069
G01 X27.1690 Y55.9108
G01 X27.1739 Y55.9152
G01 X27.1784 Y55.9201
G01 X27.1823 Y55.9255
G01 X27.1857 Y55.9311
G01 X27.1885 Y55.9371
G01 X27.1907 Y55.9433
G01 X27.1924 Y55.9498
G01 X27.1936 Y55.9612
G01 X27.1936 Y56.8162
G01 X27.1920 Y56.8277
G01 X27.1885 Y56.8387
G01 X27.1832 Y56.8490
G01 X27.1762 Y56.8582
G01 X27.1677 Y56.8660
G01 X27.1580 Y56.8723
G01 X27.1474 Y56.8769
G01 X27.1376 Y56.8793
G01 X27.1376 Y60.8905
G01 X27.1533 Y60.9001
G01 X27.2190 Y60.9489
G01 X27.2833 Y61.0071
G01 X27.3415 Y61.0714
G01 X27.3903 Y61.1371
G01 X27.3999 Y61.1528
G01 X27.8014 Y61.1528
G01 X27.8488 Y61.1552
G01 X27.8893 Y61.1612
G01 X27.8958 Y61.1625
G01 X27.9371 Y61.1729
G01 X27.9772 Y61.1872
G01 X27.9833 Y61.1897
G01 X28.0218 Y61.2080
G01 X28.0584 Y61.2298
G01 X28.0639 Y61.2335
G01 X28.0980 Y61.2589
G01 X28.1320 Y61.2898
G01 X28.6516 Y61.8094
G01 X28.6825 Y61.8434
G01 X28.7098 Y61.8802
G01 X28.7318 Y61.9167
G01 X28.7349 Y61.9226
G01 X28.7530 Y61.9611
G01 X28.7685 Y62.0043
G01 X28.7789 Y62.0456
G01 X28.7802 Y62.0521
G01 X28.7859 Y62.0909
G01 X28.7866 Y62.0975
G01 X28.7886 Y62.1400
G01 X28.7886 Y66.9544
G01 X28.7863 Y67.0002
G01 X28.7802 Y67.0424
G01 X28.7789 Y67.0489
G01 X28.7685 Y67.0901
G01 X28.7530 Y67.1333
G01 X28.7334 Y67.1748
G01 X28.7089 Y67.2155
G01 X28.6825 Y67.2510
G01 X28.6528 Y67.2839
G01 X28.5077 Y67.4290
G01 X28.5077 Y67.9704
G01 X28.5047 Y68.0277
G01 X28.4973 Y68.0779
G01 X28.4960 Y68.0844
G01 X28.4832 Y68.1352
G01 X28.4656 Y68.1845
G01 X28.4631 Y68.1907
G01 X28.4406 Y68.2380
G01 X28.4120 Y68.2858
G01 X28.3788 Y68.3305
G01 X28.3414 Y68.3718
G01 X27.0714 Y69.6418
G01 X27.0326 Y69.6770
G01 X27.0275 Y69.6812
G01 X26.9854 Y69.7124
G01 X26.9390 Y69.7402
G01 X26.8872 Y69.7648
G01 X26.8379 Y69.7826
G01 X26.8316 Y69.7845
G01 X26.7807 Y69.7971
G01 X26.7289 Y69.8049
G01 X26.7223 Y69.8056
G01 X26.6700 Y69.8081
G01 X26.6177 Y69.8056
G01 X26.6111 Y69.8049
G01 X26.5593 Y69.7971
G01 X26.5052 Y69.7836
G01 X26.4528 Y69.7648
G01 X26.4054 Y69.7425
G01 X26.3995 Y69.7394
G01 X26.3574 Y69.7142
G01 X26.3486 Y69.7080
G01 X4.7664 Y69.7080
G01 X4.7576 Y69.7142
G01 X4.7155 Y69.7394
G01 X4.7096 Y69.7425
G01 X4.6622 Y69.7648
G01 X4.6098 Y69.7836
G01 X4.5557 Y69.7971
G01 X4.5039 Y69.8049
G01 X4.4973 Y69.8056
G01 X4.4433 Y69.8080
G01 X4.3894 Y69.8053
G01 X4.3375 Y69.7977
G01 X4.3310 Y69.7964
G01 X4.2802 Y69.7836
G01 X4.2278 Y69.7648
G01 X4.1804 Y69.7425
G01 X4.1745 Y69.7394
G01 X4.1296 Y69.7124
G01 X4.0849 Y69.6792
G01 X4.0460 Y69.6441
G01 X3.9155 Y69.5136
G01 X3.8814 Y69.4760
G01 X3.8772 Y69.4709
G01 X3.8460 Y69.4288
G01 X3.8182 Y69.3824
G01 X3.7936 Y69.3306
G01 X3.7758 Y69.2813
G01 X3.7739 Y69.2750
G01 X3.7613 Y69.2241
G01 X3.7535 Y69.1723
G01 X3.7528 Y69.1657
G01 X3.7503 Y69.1134
G01 X3.7503 Y4.7244
G01 X3.7531 Y4.6688
G01 X3.7607 Y4.6169
G01 X3.7620 Y4.6104
G01 X3.7739 Y4.5628
G01 X3.7758 Y4.5565
G01 X3.7936 Y4.5072
G01 X3.8174 Y4.4568
G01 X3.8460 Y4.4090
G01 X3.8782 Y4.3656
G01 X3.9166 Y4.3230
G01 X4.1706 Y4.0690
G01 X4.2106 Y4.0327
G01 X4.2539 Y4.0003
G01 X4.2594 Y3.9966
G01 X4.3044 Y3.9698
G01 X4.3548 Y3.9460
G01 X4.4072 Y3.9272
G01 X4.4613 Y3.9137
G01 X4.5164 Y3.9055
G01 X4.5720 Y3.9027
G01 X39.3700 Y3.9027
G01 X39.4223 Y3.9052
G01 X39.4289 Y3.9059
G01 X39.4807 Y3.9137
G01 X39.5348 Y3.9272
G01 X39.5872 Y3.9460
G01 X39.6346 Y3.9683
G01 X39.6405 Y3.9714
G01 X39.6854 Y3.9984
G01 X39.7275 Y4.0296
G01 X39.7326 Y4.0338
G01 X39.7714 Y4.0690
G01 X39.8088 Y4.1103
G01 X39.8401 Y4.1523
G01 X39.8438 Y4.1578
G01 X39.8706 Y4.2028
G01 X39.8944 Y4.2532
G01 X39.9132 Y4.3056
G01 X39.9267 Y4.3597
G01 X39.9349 Y4.4148
G01 X39.9377 Y4.4704
G01 X39.9377 Y8.8180
G01 X40.6750 Y8.8182
G01 X40.6864 Y8.8200
G01 X40.6958 Y8.8231
G01 X40.7047 Y8.8276
G01 X40.7128 Y8.8333
G01 X40.7199 Y8.8401
G01 X40.7260 Y8.8480
G01 X40.7316 Y8.8581
G01 X40.7350 Y8.8674
G01 X40.7367 Y8.8755
G01 X40.7374 Y8.8854
G01 X40.7374 Y11.4871
G01 X40.7361 Y11.4985
G01 X40.7345 Y11.5050
G01 X40.7323 Y11.5112
G01 X40.7269 Y11.5215
G01 X40.7199 Y11.5307
G01 X40.7153 Y11.5353
G01 X40.7102 Y11.5395
G01 X40.7003 Y11.5456
G01 X40.6943 Y11.5483
G01 X40.6880 Y11.5504
G01 X40.6766 Y11.5525
G01 X40.6700 Y11.5528
G01 X38.0683 Y11.5528
G01 X38.0585 Y11.5518
G01 X38.0473 Y11.5489
G01 X38.0382 Y11.5448
G01 X38.0285 Y11.5385
G01 X38.0212 Y11.5319
G01 X38.0140 Y11.5228
G01 X38.0084 Y11.5127
G01 X38.0050 Y11.5034
G01 X38.0033 Y11.4953
G01 X38.0026 Y11.4854
G01 X38.0026 Y8.8854
G01 X38.0033 Y8.8755
G01 X38.0055 Y8.8658
G01 X38.0091 Y8.8566
G01 X38.0149 Y8.8466
G01 X38.0212 Y8.8389
G01 X38.0285 Y8.8323
G01 X38.0368 Y8.8268
G01 X38.0473 Y8.8219
G01 X38.0569 Y8.8193
G01 X38.0667 Y8.8181
G01 X38.8023 Y8.8180
G01 X38.8023 Y5.0381
G01 X4.8857 Y5.0381
G01 X4.8857 Y68.7728
G01 X26.3348 Y68.7728
G01 X27.3723 Y67.7353
G01 X27.3723 Y67.3354
G01 X27.3751 Y67.2798
G01 X27.3833 Y67.2247
G01 X27.3968 Y67.1706
G01 X27.4156 Y67.1182
G01 X27.4386 Y67.0693
G01 X27.4680 Y67.0200
G01 X27.5012 Y66.9753
G01 X27.5386 Y66.9340
G01 X27.5774 Y66.8988
G01 X27.5825 Y66.8946
G01 X27.6246 Y66.8634
G01 X27.6739 Y66.8340
G01 X27.7228 Y66.8110
G01 X27.7721 Y66.7932
G01 X27.7784 Y66.7913
G01 X27.8260 Y66.7794
G01 X27.8366 Y66.7775
G01 X27.8534 Y66.7607
G01 X27.8534 Y62.3337
G01 X27.6077 Y62.0880
G01 X27.3999 Y62.0880
G01 X27.3903 Y62.1037
G01 X27.3425 Y62.1681
G01 X27.3383 Y62.1732
G01 X27.2833 Y62.2337
G01 X27.2203 Y62.2909
G01 X27.1519 Y62.3416
G01 X27.0818 Y62.3837
G01 X27.0759 Y62.3869
G01 X27.0019 Y62.4218
G01 X26.9218 Y62.4504
G01 X26.8424 Y62.4704
G01 X26.8360 Y62.4717
G01 X26.7550 Y62.4836
G01 X26.6700 Y62.4878
G01 X26.5883 Y62.4839
G01 X26.5817 Y62.4832
G01 X26.4992 Y62.4708
G01 X26.4182 Y62.4504
G01 X26.3411 Y62.4230
G01 X26.3350 Y62.4204
G01 X26.2611 Y62.3854
G01 X26.1909 Y62.3434
G01 X26.1854 Y62.3397
G01 X26.1197 Y62.2909
G01 X26.0591 Y62.2360
G01 X26.0544 Y62.2313
G01 X25.9995 Y62.1707
G01 X25.9507 Y62.1050
G01 X25.9470 Y62.0995
G01 X25.9050 Y62.0293
G01 X25.8700 Y61.9554
G01 X25.8674 Y61.9493
G01 X25.8400 Y61.8722
G01 X25.8193 Y61.7896
G01 X25.8072 Y61.7087
G01 X25.8065 Y61.7021
G01 X25.8027 Y61.6237
G01 X25.8027 Y61.6171
G01 X25.8068 Y61.5354
G01 X25.8193 Y61.4512
G01 X25.8400 Y61.3686
G01 X25.8674 Y61.2915
G01 X25.8700 Y61.2854
G01 X25.9035 Y61.2145
G01 X25.9067 Y61.2086
G01 X25.9488 Y61.1385
G01 X25.9995 Y61.0701
G01 X26.0567 Y61.0071
G01 X26.1172 Y60.9521
G01 X26.1223 Y60.9479
G01 X26.1867 Y60.9001
G01 X26.2024 Y60.8905
G01 X26.2024 Y56.8793
G00 Z1.0000
G00 X24.1262 Y55.8955
G01 F60.00
G01 Z-0.0650
G01 F120.00
G01 X24.1329 Y55.8958
G01 X24.1394 Y55.8968
G01 X24.1458 Y55.8984
G01 X24.1520 Y55.9006
G01 X24.1580 Y55.9035
G01 X24.1637 Y55.9069
G01 X24.1727 Y55.9141
G01 X24.1804 Y55.9227
G01 X24.1841 Y55.9282
G01 X24.1872 Y55.9341
G01 X24.1897 Y55.9402
G01 X24.1916 Y55.9465
G01 X24.1929 Y55.9530
G01 X24.1936 Y55.9596
G01 X24.1936 Y56.8146
G01 X24.1931 Y56.8212
G01 X24.1920 Y56.8277
G01 X24.1885 Y56.8387
G01 X24.1857 Y56.8447
G01 X24.1823 Y56.8503
G01 X24.1784 Y56.8557
G01 X24.1739 Y56.8606
G01 X24.1690 Y56.8650
G01 X24.1637 Y56.8689
G01 X24.1580 Y56.8723
G01 X24.1520 Y56.8752
G01 X24.1458 Y56.8774
G01 X24.1394 Y56.8790
G01 X24.1279 Y56.8803
G01 X23.2138 Y56.8803
G01 X23.2071 Y56.8800
G01 X23.2006 Y56.8790
G01 X23.1942 Y56.8774
G01 X23.1880 Y56.8752
G01 X23.1820 Y56.8723
G01 X23.1763 Y56.8689
G01 X23.1710 Y56.8650
G01 X23.1661 Y56.8606
G01 X23.1616 Y56.8557
G01 X23.1577 Y56.8503
G01 X23.1543 Y56.8447
G01 X23.1515 Y56.8387
G01 X23.1493 Y56.8325
G01 X23.1476 Y56.8260
G01 X23.1464 Y56.8146
G01 X23.1464 Y55.9629
G01 X23.1467 Y55.9563
G01 X23.1476 Y55.9498
G01 X23.1493 Y55.9433
G01 X23.1515 Y55.9371
G01 X23.1543 Y55.9311
G01 X23.1577 Y55.9255
G01 X23.1616 Y55.9201
G01 X23.1661 Y55.9152
G01 X23.1710 Y55.9108
G01 X23.1763 Y55.9069
G01 X23.1864 Y55.9013
G01 X23.1926 Y55.8989
G01 X23.1990 Y55.8971
G01 X23.2055 Y55.8960
G01 X23.2121 Y55.8955
G01 X24.1262 Y55.8955
G00 Z1.0000
G00 X22.6262 Y55.8955
G01 F60.00
G01 Z-0.0650
G01 F120.00
G01 X22.6329 Y55.8958
G01 X22.6394 Y55.8968
G01 X22.6458 Y55.8984
G01 X22.6520 Y55.9006
G01 X22.6580 Y55.9035
G01 X22.6637 Y55.9069
G01 X22.6727 Y55.9141
G01 X22.6804 Y55.9227
G01 X22.6841 Y55.9282
G01 X22.6872 Y55.9341
G01 X22.6897 Y55.9402
G01 X22.6916 Y55.9465
G01 X22.6929 Y55.9530
G01 X22.6936 Y55.9596
G01 X22.6936 Y56.8146
G01 X22.6931 Y56.8212
G01 X22.6920 Y56.8277
G01 X22.6885 Y56.8387
G01 X22.6857 Y56.8447
G01 X22.6823 Y56.8503
G01 X22.6784 Y56.8557
G01 X22.6739 Y56.8606
G01 X22.6690 Y56.8650
G01 X22.6637 Y56.8689
G01 X22.6580 Y56.8723
G01 X22.6520 Y56.8752
G01 X22.6458 Y56.8774
G01 X22.6394 Y56.8790
G01 X22.6279 Y56.8803
G01 X21.7138 Y56.8803
G01 X21.7071 Y56.8800
G01 X21.7006 Y56.8790
G01 X21.6942 Y56.8774
G01 X21.6880 Y56.8752
G01 X21.6820 Y56.8723
G01 X21.6763 Y56.8689
G01 X21.6710 Y56.8650
G01 X21.6661 Y56.8606
G01 X21.6616 Y56.8557
G01 X21.6577 Y56.8503
G01 X21.6543 Y56.8447
G01 X21.6515 Y56.8387
G01 X21.6493 Y56.8325
G01 X21.6476 Y56.8260
G01 X21.6464 Y56.8146
G01 X21.6464 Y55.9629
G01 X21.6467 Y55.9563
G01 X21.6476 Y55.9498
G01 X21.6493 Y55.9433
G01 X21.6515 Y55.9371
G01 X21.6543 Y55.9311
G01 X21.6577 Y55.9255
G01 X21.6616 Y55.9201
G01 X21.6661 Y55.9152
G01 X21.6710 Y55.9108
G01 X21.6763 Y55.9069
G01 X21.6864 Y55.9013
G01 X21.6926 Y55.8989
G01 X21.6990 Y55.8971
G01 X21.7055 Y55.8960
G01 X21.7121 Y55.8955
G01 X22.6262 Y55.8955
G00 Z1.0000
G00 X14.6249 Y63.5927
G01 F60.00
G01 Z-0.0650
G01 F120.00
G01 X20.2024 Y63.5927
G01 X20.2024 Y56.8793
G01 X20.1926 Y56.8769
G01 X20.1820 Y56.8723
G01 X20.1723 Y56.8660
G01 X20.1638 Y56.8582
G01 X20.1568 Y56.8490
G01 X20.1515 Y56.8387
G01 X20.1480 Y56.8277
G01 X20.1464 Y56.8162
G01 X20.1464 Y55.9629
G01 X20.1473 Y55.9514
G01 X20.1503 Y55.9402
G01 X20.1528 Y55.9341
G01 X20.1559 Y55.9282
G01 X20.1627 Y55.9189
G01 X20.1710 Y55.9108
G01 X20.1805 Y55.9043
G01 X20.1910 Y55.8994
G01 X20.1974 Y55.8975
G01 X20.2024 Y55.8965
G01 X20.2025 Y54.2821
G01 X20.2044 Y54.2429
G01 X20.2051 Y54.2363
G01 X20.2114 Y54.1942
G01 X20.2217 Y54.1529
G01 X20.2236 Y54.1465
G01 X20.2380 Y54.1065
G01 X20.2576 Y54.0650
G01 X20.2812 Y54.0256
G01 X20.3096 Y53.9875
G01 X20.3405 Y53.9536
G01 X20.3734 Y53.9239
G01 X20.3955 Y53.9074
G01 X20.3986 Y53.8880
G01 X20.4123 Y53.8340
G01 X20.4306 Y53.7832
G01 X20.4552 Y53.7314
G01 X20.4830 Y53.6850
G01 X20.5162 Y53.6403
G01 X20.5536 Y53.5990
G01 X20.5949 Y53.5616
G01 X20.6396 Y53.5284
G01 X20.6845 Y53.5014
G01 X20.6904 Y53.4983
G01 X20.7347 Y53.4773
G01 X20.7409 Y53.4748
G01 X20.7902 Y53.4572
G01 X20.8443 Y53.4437
G01 X20.8994 Y53.4355
G01 X20.9533 Y53.4328
G01 X26.7373 Y53.4327
G01 X26.7374 Y51.2237
G01 X26.7401 Y51.1698
G01 X26.7486 Y51.1130
G01 X26.7623 Y51.0590
G01 X26.7799 Y51.0097
G01 X26.7901 Y50.9878
G01 X25.0983 Y50.9878
G01 X25.0885 Y50.9868
G01 X25.0773 Y50.9839
G01 X25.0668 Y50.9790
G01 X25.0572 Y50.9725
G01 X25.0501 Y50.9657
G01 X25.0431 Y50.9565
G01 X25.0384 Y50.9477
G01 X25.0346 Y50.9368
G01 X25.0331 Y50.9287
G01 X25.0326 Y50.9204
G01 X25.0326 Y46.6204
G01 X25.0329 Y46.6138
G01 X25.0342 Y46.6056
G01 X25.0365 Y46.5977
G01 X25.0398 Y46.5901
G01 X25.0440 Y46.5830
G01 X25.0490 Y46.5764
G01 X25.0547 Y46.5705
G01 X25.0612 Y46.5653
G01 X25.0697 Y46.5602
G01 X25.0804 Y46.5559
G01 X25.0901 Y46.5537
G01 X25.1000 Y46.5530
G01 X29.4000 Y46.5530
G01 X29.4099 Y46.5537
G01 X29.4196 Y46.5559
G01 X29.4288 Y46.5595
G01 X29.4374 Y46.5644
G01 X29.4453 Y46.5705
G01 X29.4521 Y46.5776
G01 X29.4578 Y46.5857
G01 X29.4623 Y46.5946
G01 X29.4645 Y46.6008
G01 X29.4661 Y46.6073
G01 X29.4671 Y46.6138
G01 X29.4674 Y46.6204
G01 X29.4674 Y50.9204
G01 X29.4669 Y50.9287
G01 X29.4658 Y50.9352
G01 X29.4623 Y50.9462
G01 X29.4578 Y50.9551
G01 X29.4510 Y50.9644
G01 X29.4428 Y50.9725
G01 X29.4332 Y50.9790
G01 X29.4227 Y50.9839
G01 X29.4131 Y50.9865
G01 X29.4017 Y50.9878
G01 X27.8199 Y50.9878
G01 X27.8301 Y51.0097
G01 X27.8477 Y51.0590
G01 X27.8614 Y51.1130
G01 X27.8699 Y51.1698
G01 X27.8726 Y51.2237
G01 X27.8727 Y53.4327
G01 X30.2449 Y53.4327
G01 X32.2024 Y51.4752
G01 X32.2024 Y39.4043
G01 X32.1926 Y39.4019
G01 X32.1820 Y39.3973
G01 X32.1723 Y39.3910
G01 X32.1638 Y39.3832
G01 X32.1568 Y39.3740
G01 X32.1515 Y39.3637
G01 X32.1480 Y39.3527
G01 X32.1464 Y39.3412
G01 X32.1464 Y38.4879
G01 X32.1473 Y38.4764
G01 X32.1488 Y38.4699
G01 X32.1509 Y38.4636
G01 X32.1559 Y38.4532
G01 X32.1627 Y38.4439
G01 X32.1710 Y38.4358
G01 X32.1805 Y38.4293
G01 X32.1910 Y38.4244
G01 X32.1974 Y38.4225
G01 X32.2024 Y38.4215
G01 X32.2024 Y38.2379
G01 X32.2045 Y38.1937
G01 X32.2114 Y38.1467
G01 X32.2225 Y38.1022
G01 X32.2380 Y38.0590
G01 X32.2561 Y38.0204
G01 X32.2592 Y38.0146
G01 X32.2812 Y37.9781
G01 X32.3065 Y37.9439
G01 X32.3107 Y37.9388
G01 X32.3382 Y37.9084
G01 X34.1296 Y36.1170
G01 X34.1315 Y36.1064
G01 X34.1443 Y36.0556
G01 X34.1631 Y36.0032
G01 X34.1869 Y35.9528
G01 X34.2137 Y35.9078
G01 X34.2174 Y35.9023
G01 X34.2467 Y35.8629
G01 X34.2509 Y35.8578
G01 X34.2861 Y35.8190
G01 X34.3249 Y35.7838
G01 X34.3300 Y35.7796
G01 X34.3721 Y35.7484
G01 X34.4185 Y35.7206
G01 X34.4703 Y35.6960
G01 X34.5196 Y35.6782
G01 X34.5259 Y35.6763
G01 X34.5768 Y35.6637
G01 X34.6286 Y35.6559
G01 X34.6352 Y35.6552
G01 X34.6858 Y35.6528
G01 X37.2299 Y35.6527
G01 X38.1673 Y34.7153
G01 X38.1673 Y31.1681
G01 X33.7500 Y31.1681
G01 X33.6944 Y31.1653
G01 X33.6393 Y31.1571
G01 X33.5852 Y31.1436
G01 X33.5312 Y31.1242
G01 X33.4824 Y31.1010
G01 X33.4346 Y31.0724
G01 X33.3899 Y31.0392
G01 X33.3498 Y31.0029
G01 X31.8577 Y29.5108
G01 X31.8383 Y29.5135
G01 X31.7500 Y29.5178
G01 X31.6634 Y29.5136
G01 X31.6568 Y29.5130
G01 X31.5710 Y29.5002
G01 X31.4869 Y29.4792
G01 X31.4806 Y29.4773
G01 X31.3989 Y29.4480
G01 X31.3205 Y29.4110
G01 X31.3147 Y29.4078
G01 X31.2403 Y29.3632
G01 X31.1706 Y29.3116
G01 X31.1655 Y29.3074
G01 X31.1013 Y29.2491
G01 X31.0408 Y29.1824
G01 X30.9872 Y29.1101
G01 X30.9409 Y29.0329
G01 X30.9024 Y28.9515
G01 X30.8731 Y28.8698
G01 X30.8712 Y28.8635
G01 X30.8510 Y28.7826
G01 X30.8497 Y28.7761
G01 X30.8370 Y28.6903
G01 X30.8326 Y28.6004
G01 X30.8370 Y28.5105
G01 X30.8502 Y28.4214
G01 X30.8721 Y28.3341
G01 X30.9012 Y28.2524
G01 X30.9038 Y28.2463
G01 X30.9394 Y28.1709
G01 X30.9426 Y28.1651
G01 X30.9872 Y28.0907
G01 X31.0419 Y28.0171
G01 X31.1013 Y27.9517
G01 X31.1680 Y27.8912
G01 X31.2403 Y27.8376
G01 X31.3175 Y27.7913
G01 X31.3989 Y27.7528
G01 X31.4837 Y27.7225
G01 X31.5710 Y27.7006
G01 X31.6568 Y27.6878
G01 X31.6634 Y27.6872
G01 X31.7500 Y27.6830
G01 X31.8366 Y27.6872
G01 X31.8432 Y27.6878
G01 X31.9257 Y27.7001
G01 X31.9322 Y27.7014
G01 X32.0163 Y27.7225
G01 X32.1011 Y27.7528
G01 X32.1825 Y27.7913
G01 X32.2597 Y27.8376
G01 X32.3294 Y27.8892
G01 X32.3345 Y27.8934
G01 X32.3987 Y27.9517
G01 X32.4592 Y28.0184
G01 X32.5109 Y28.0880
G01 X32.5146 Y28.0935
G01 X32.5591 Y28.1679
G01 X32.5962 Y28.2463
G01 X32.5988 Y28.2524
G01 X32.6269 Y28.3310
G01 X32.6288 Y28.3373
G01 X32.6498 Y28.4214
G01 X32.6626 Y28.5072
G01 X32.6632 Y28.5138
G01 X32.6674 Y28.6004
G01 X32.6631 Y28.6887
G01 X32.6604 Y28.7081
G01 X33.9851 Y30.0327
G01 X43.4653 Y30.0327
G01 X43.5004 Y30.0118
G01 X43.5581 Y29.9845
G01 X43.6229 Y29.9613
G01 X43.6848 Y29.9458
G01 X43.7463 Y29.9366
G01 X43.7529 Y29.9360
G01 X43.8150 Y29.9330
G01 X43.8804 Y29.9362
G01 X43.9452 Y29.9458
G01 X44.0087 Y29.9617
G01 X44.0673 Y29.9826
G01 X44.0734 Y29.9851
G01 X44.1267 Y30.0103
G01 X44.1325 Y30.0134
G01 X44.1858 Y30.0455
G01 X44.2397 Y30.0856
G01 X44.2869 Y30.1285
G01 X44.3287 Y30.1745
G01 X44.3329 Y30.1796
G01 X44.3699 Y30.2296
G01 X44.4020 Y30.2829
G01 X44.4051 Y30.2887
G01 X44.4316 Y30.3450
G01 X44.4526 Y30.4035
G01 X44.4545 Y30.4099
G01 X44.4696 Y30.4702
G01 X44.4788 Y30.5317
G01 X44.4794 Y30.5383
G01 X44.4824 Y30.6004
G01 X44.4794 Y30.6625
G01 X44.4788 Y30.6691
G01 X44.4701 Y30.7273
G01 X44.4689 Y30.7338
G01 X44.4537 Y30.7941
G01 X44.4328 Y30.8527
G01 X44.4303 Y30.8588
G01 X44.4036 Y30.9150
G01 X44.3717 Y30.9684
G01 X44.3680 Y30.9739
G01 X44.3309 Y31.0238
G01 X44.2869 Y31.0723
G01 X44.2409 Y31.1141
G01 X44.2358 Y31.1183
G01 X44.1858 Y31.1553
G01 X44.1296 Y31.1890
G01 X44.0734 Y31.2157
G01 X44.0673 Y31.2182
G01 X44.0087 Y31.2391
G01 X43.9468 Y31.2546
G01 X43.8804 Y31.2646
G01 X43.8150 Y31.2678
G01 X43.7496 Y31.2646
G01 X43.6864 Y31.2553
G01 X43.6213 Y31.2391
G01 X43.5611 Y31.2176
G01 X43.5019 Y31.1898
G01 X43.4653 Y31.1681
G01 X39.3027 Y31.1681
G01 X39.3026 Y34.9521
G01 X39.2999 Y35.0060
G01 X39.2917 Y35.0611
G01 X39.2782 Y35.1152
G01 X39.2606 Y35.1645
G01 X39.2581 Y35.1707
G01 X39.2371 Y35.2150
G01 X39.2340 Y35.2209
G01 X39.2070 Y35.2658
G01 X39.1727 Y35.3118
G01 X39.1364 Y35.3518
G01 X37.8652 Y36.6229
G01 X37.8251 Y36.6592
G01 X37.7831 Y36.6905
G01 X37.7776 Y36.6942
G01 X37.7326 Y36.7210
G01 X37.6853 Y36.7435
G01 X37.6791 Y36.7460
G01 X37.6314 Y36.7631
G01 X37.5790 Y36.7764
G01 X37.5725 Y36.7777
G01 X37.5206 Y36.7853
G01 X37.4650 Y36.7881
G01 X34.7811 Y36.7881
G01 X33.1458 Y38.4234
G01 X33.1551 Y38.4270
G01 X33.1637 Y38.4319
G01 X33.1715 Y38.4380
G01 X33.1794 Y38.4464
G01 X33.1849 Y38.4547
G01 X33.1891 Y38.4636
G01 X33.1920 Y38.4731
G01 X33.1936 Y38.4846
G01 X33.1936 Y39.3379
G01 X33.1927 Y39.3494
G01 X33.1912 Y39.3559
G01 X33.1891 Y39.3622
G01 X33.1841 Y39.3726
G01 X33.1773 Y39.3819
G01 X33.1690 Y39.3900
G01 X33.1595 Y39.3965
G01 X33.1490 Y39.4014
G01 X33.1426 Y39.4033
G01 X33.1376 Y39.4043
G01 X33.1376 Y51.4890
G01 X33.1438 Y51.4978
G01 X33.1690 Y51.5399
G01 X33.1721 Y51.5458
G01 X33.1944 Y51.5932
G01 X33.2132 Y51.6456
G01 X33.2260 Y51.6964
G01 X33.2273 Y51.7029
G01 X33.2349 Y51.7548
G01 X33.2377 Y51.8104
G01 X33.2349 Y51.8660
G01 X33.2267 Y51.9211
G01 X33.2132 Y51.9752
G01 X33.1956 Y52.0245
G01 X33.1931 Y52.0307
G01 X33.1721 Y52.0750
G01 X33.1690 Y52.0809
G01 X33.1420 Y52.1258
G01 X33.1077 Y52.1718
G01 X33.0714 Y52.2118
G01 X30.8814 Y54.4018
G01 X30.8426 Y54.4370
G01 X30.8375 Y54.4412
G01 X30.7954 Y54.4724
G01 X30.7476 Y54.5010
G01 X30.6972 Y54.5248
G01 X30.6479 Y54.5426
G01 X30.6416 Y54.5445
G01 X30.5907 Y54.5571
G01 X30.5389 Y54.5649
G01 X30.5323 Y54.5656
G01 X30.4817 Y54.5680
G01 X28.6529 Y54.5681
G01 X28.6706 Y54.5978
G01 X28.6938 Y54.6466
G01 X28.7137 Y54.7022
G01 X28.7267 Y54.7547
G01 X28.7345 Y54.8065
G01 X28.7352 Y54.8131
G01 X28.7377 Y54.8654
G01 X28.7352 Y54.9177
G01 X28.7345 Y54.9243
G01 X28.7267 Y54.9761
G01 X28.7132 Y55.0302
G01 X28.6944 Y55.0826
G01 X28.6721 Y55.1300
G01 X28.6690 Y55.1359
G01 X28.6438 Y55.1780
G01 X28.6376 Y55.1868
G01 X28.6376 Y55.8965
G01 X28.6426 Y55.8975
G01 X28.6490 Y55.8994
G01 X28.6595 Y55.9043
G01 X28.6690 Y55.9108
G01 X28.6773 Y55.9189
G01 X28.6814 Y55.9241
G01 X28.6849 Y55.9297
G01 X28.6897 Y55.9402
G01 X28.6927 Y55.9514
G01 X28.6936 Y55.9629
G01 X28.6936 Y56.8162
G01 X28.6924 Y56.8260
G01 X28.6891 Y56.8372
G01 X28.6841 Y56.8476
G01 X28.6773 Y56.8569
G01 X28.6690 Y56.8650
G01 X28.6595 Y56.8715
G01 X28.6490 Y56.8764
G01 X28.6394 Y56.8790
G01 X28.6329 Y56.8800
G01 X28.6262 Y56.8803
G01 X27.7121 Y56.8803
G01 X27.7039 Y56.8796
G01 X27.6958 Y56.8779
G01 X27.6895 Y56.8758
G01 X27.6820 Y56.8723
G01 X27.6749 Y56.8680
G01 X27.6685 Y56.8628
G01 X27.6627 Y56.8569
G01 X27.6577 Y56.8503
G01 X27.6528 Y56.8417
G01 X27.6493 Y56.8325
G01 X27.6473 Y56.8244
G01 X27.6464 Y56.8146
G01 X27.6464 Y55.9612
G01 X27.6476 Y55.9498
G01 X27.6509 Y55.9386
G01 X27.6559 Y55.9282
G01 X27.6627 Y55.9189
G01 X27.6710 Y55.9108
G01 X27.6805 Y55.9043
G01 X27.6910 Y55.8994
G01 X27.6974 Y55.8975
G01 X27.7024 Y55.8965
G01 X27.7024 Y55.2006
G01 X27.0699 Y54.5681
G01 X21.1376 Y54.5681
G01 X21.1376 Y55.8965
G01 X21.1474 Y55.8989
G01 X21.1580 Y55.9035
G01 X21.1677 Y55.9098
G01 X21.1762 Y55.9176
G01 X21.1832 Y55.9268
G01 X21.1885 Y55.9371
G01 X21.1920 Y55.9481
G01 X21.1936 Y55.9596
G01 X21.1936 Y56.8129
G01 X21.1927 Y56.8244
G01 X21.1897 Y56.8356
G01 X21.1872 Y56.8417
G01 X21.1841 Y56.8476
G01 X21.1773 Y56.8569
G01 X21.1690 Y56.8650
G01 X21.1595 Y56.8715
G01 X21.1490 Y56.8764
G01 X21.1426 Y56.8783
G01 X21.1376 Y56.8793
G01 X21.1376 Y63.5542
G01 X21.1746 Y63.5718
G01 X21.2294 Y63.6046
G01 X21.2847 Y63.6456
G01 X21.3319 Y63.6885
G01 X21.3737 Y63.7345
G01 X21.3779 Y63.7396
G01 X21.4158 Y63.7910
G01 X21.4486 Y63.8458
G01 X21.4753 Y63.9020
G01 X21.4778 Y63.9081
G01 X21.4987 Y63.9667
G01 X21.5146 Y64.0302
G01 X21.5238 Y64.0917
G01 X21.5244 Y64.0983
G01 X21.5274 Y64.1604
G01 X21.5244 Y64.2225
G01 X21.5238 Y64.2291
G01 X21.5146 Y64.2906
G01 X21.4995 Y64.3509
G01 X21.4976 Y64.3573
G01 X21.4766 Y64.4158
G01 X21.4486 Y64.4750
G01 X21.4167 Y64.5284
G01 X21.4130 Y64.5339
G01 X21.3759 Y64.5838
G01 X21.3342 Y64.6299
G01 X21.3295 Y64.6346
G01 X21.2834 Y64.6763
G01 X21.2294 Y64.7162
G01 X21.1746 Y64.7490
G01 X21.1184 Y64.7757
G01 X21.1123 Y64.7782
G01 X21.0537 Y64.7991
G01 X20.9902 Y64.8150
G01 X20.9287 Y64.8242
G01 X20.9221 Y64.8248
G01 X20.8600 Y64.8278
G01 X20.7979 Y64.8248
G01 X20.7913 Y64.8242
G01 X20.7298 Y64.8150
G01 X20.6679 Y64.7995
G01 X20.6031 Y64.7763
G01 X20.5454 Y64.7490
G01 X20.5103 Y64.7281
G01 X14.6249 Y64.7281
G01 X14.5833 Y64.7737
G01 X14.5228 Y64.8287
G01 X14.5177 Y64.8329
G01 X14.4546 Y64.8797
G01 X14.4491 Y64.8834
G01 X14.3789 Y64.9254
G01 X14.3035 Y64.9611
G01 X14.2218 Y64.9904
G01 X14.1392 Y65.0111
G01 X14.0550 Y65.0236
G01 X13.9700 Y65.0278
G01 X13.8850 Y65.0236
G01 X13.8008 Y65.0111
G01 X13.7182 Y64.9904
G01 X13.6411 Y64.9630
G01 X13.6350 Y64.9604
G01 X13.5611 Y64.9254
G01 X13.4909 Y64.8834
G01 X13.4854 Y64.8797
G01 X13.4223 Y64.8329
G01 X13.4172 Y64.8287
G01 X13.3567 Y64.7737
G01 X13.3006 Y64.7119
G01 X13.2488 Y64.6423
G01 X13.2050 Y64.5693
G01 X13.1686 Y64.4923
G01 X13.1400 Y64.4122
G01 X13.1193 Y64.3296
G01 X13.1068 Y64.2454
G01 X13.1026 Y64.1604
G01 X13.1068 Y64.0754
G01 X13.1193 Y63.9912
G01 X13.1400 Y63.9086
G01 X13.1686 Y63.8285
G01 X13.2050 Y63.7515
G01 X13.2488 Y63.6785
G01 X13.2995 Y63.6101
G01 X13.3567 Y63.5471
G01 X13.4185 Y63.4910
G01 X13.4881 Y63.4392
G01 X13.5611 Y63.3954
G01 X13.6381 Y63.3590
G01 X13.7182 Y63.3304
G01 X13.8008 Y63.3097
G01 X13.8850 Y63.2972
G01 X13.9700 Y63.2930
G01 X14.0534 Y63.2970
G01 X14.1392 Y63.3097
G01 X14.2218 Y63.3304
G01 X14.3019 Y63.3590
G01 X14.3774 Y63.3947
G01 X14.4519 Y63.4392
G01 X14.5203 Y63.4899
G01 X14.5833 Y63.5471
G01 X14.6249 Y63.5927
G00 Z1.0000
G00 X24.1267 Y70.8631
G01 F60.00
G01 Z-0.0650
G01 F120.00
G01 X24.1333 Y70.8631
G01 X24.2199 Y70.8674
G01 X24.3090 Y70.8806
G01 X24.3963 Y70.9025
G01 X24.4811 Y70.9328
G01 X24.5625 Y70.9713
G01 X24.6397 Y71.0176
G01 X24.7120 Y71.0712
G01 X24.7787 Y71.1317
G01 X24.8392 Y71.1984
G01 X24.8928 Y71.2707
G01 X24.9391 Y71.3479
G01 X24.9776 Y71.4293
G01 X25.0079 Y71.5141
G01 X25.0298 Y71.6014
G01 X25.0430 Y71.6905
G01 X25.0474 Y71.7804
G01 X25.0430 Y71.8703
G01 X25.0298 Y71.9594
G01 X25.0079 Y72.0467
G01 X24.9776 Y72.1315
G01 X24.9391 Y72.2129
G01 X24.8928 Y72.2901
G01 X24.8392 Y72.3624
G01 X24.7787 Y72.4291
G01 X24.7120 Y72.4896
G01 X24.6397 Y72.5432
G01 X24.5625 Y72.5895
G01 X24.4811 Y72.6280
G01 X24.3963 Y72.6583
G01 X24.3090 Y72.6802
G01 X24.2199 Y72.6934
G01 X24.1300 Y72.6978
G01 X24.0401 Y72.6934
G01 X23.9510 Y72.6802
G01 X23.8637 Y72.6583
G01 X23.7789 Y72.6280
G01 X23.6975 Y72.5895
G01 X23.6203 Y72.5432
G01 X23.5480 Y72.4896
G01 X23.4813 Y72.4291
G01 X23.4208 Y72.3624
G01 X23.3672 Y72.2901
G01 X23.3209 Y72.2129
G01 X23.2824 Y72.1315
G01 X23.2521 Y72.0467
G01 X23.2302 Y71.9594
G01 X23.2170 Y71.8703
G01 X23.2126 Y71.7804
G01 X23.2170 Y71.6905
G01 X23.2302 Y71.6014
G01 X23.2521 Y71.5141
G01 X23.2824 Y71.4293
G01 X23.3209 Y71.3479
G01 X23.3672 Y71.2707
G01 X23.4208 Y71.1984
G01 X23.4813 Y71.1317
G01 X23.5480 Y71.0712
G01 X23.6203 Y71.0176
G01 X23.6975 Y70.9713
G01 X23.7789 Y70.9328
G01 X23.8637 Y70.9025
G01 X23.9510 Y70.8806
G01 X24.0401 Y70.8674
G01 X24.1267 Y70.8631
G00 Z1.0000
G00 X35.2074 Y71.1602
G01 F60.00
G01 Z-0.0650
G01 F120.00
G01 X36.2623 Y70.1053
G01 X36.2623 Y65.9981
G01 X35.5545 Y65.9981
G01 X35.5129 Y66.0437
G01 X35.4524 Y66.0987
G01 X35.4473 Y66.1029
G01 X35.3801 Y66.1525
G01 X35.3085 Y66.1954
G01 X35.2346 Y66.2304
G01 X35.2285 Y66.2330
G01 X35.1498 Y66.2609
G01 X35.0688 Y66.2811
G01 X34.9879 Y66.2932
G01 X34.9813 Y66.2939
G01 X34.8996 Y66.2978
G01 X34.8146 Y66.2936
G01 X34.7336 Y66.2817
G01 X34.7272 Y66.2804
G01 X34.6478 Y66.2604
G01 X34.5677 Y66.2318
G01 X34.4937 Y66.1969
G01 X34.4878 Y66.1937
G01 X34.4205 Y66.1534
G01 X34.4150 Y66.1497
G01 X34.3493 Y66.1009
G01 X34.2863 Y66.0437
G01 X34.2291 Y65.9807
G01 X34.1784 Y65.9123
G01 X34.1346 Y65.8393
G01 X34.0982 Y65.7623
G01 X34.0696 Y65.6822
G01 X34.0496 Y65.6028
G01 X34.0483 Y65.5964
G01 X34.0368 Y65.5187
G01 X34.0361 Y65.5121
G01 X34.0322 Y65.4304
G01 X34.0364 Y65.3454
G01 X34.0489 Y65.2612
G01 X34.0687 Y65.1818
G01 X34.0706 Y65.1755
G01 X34.0982 Y65.0985
G01 X34.1346 Y65.0215
G01 X34.1766 Y64.9513
G01 X34.1803 Y64.9458
G01 X34.2271 Y64.8827
G01 X34.2313 Y64.8776
G01 X34.2863 Y64.8171
G01 X34.3493 Y64.7599
G01 X34.4177 Y64.7092
G01 X34.4878 Y64.6671
G01 X34.4937 Y64.6639
G01 X34.5646 Y64.6304
G01 X34.5707 Y64.6278
G01 X34.6478 Y64.6004
G01 X34.7288 Y64.5800
G01 X34.8146 Y64.5672
G01 X34.8963 Y64.5631
G01 X34.9029 Y64.5631
G01 X34.9846 Y64.5672
G01 X35.0656 Y64.5791
G01 X35.0720 Y64.5804
G01 X35.1530 Y64.6008
G01 X35.2315 Y64.6290
G01 X35.3055 Y64.6639
G01 X35.3114 Y64.6671
G01 X35.3815 Y64.7092
G01 X35.4473 Y64.7579
G01 X35.4524 Y64.7621
G01 X35.5129 Y64.8171
G01 X35.5545 Y64.8627
G01 X36.2623 Y64.8627
G01 X36.2623 Y62.2753
G01 X36.2167 Y62.2337
G01 X36.1595 Y62.1707
G01 X36.1088 Y62.1023
G01 X36.0658 Y62.0307
G01 X36.0286 Y61.9523
G01 X36.0010 Y61.8753
G01 X35.9991 Y61.8690
G01 X35.9790 Y61.7880
G01 X35.9668 Y61.7054
G01 X35.9626 Y61.6204
G01 X35.9668 Y61.5354
G01 X35.9787 Y61.4544
G01 X35.9800 Y61.4480
G01 X35.9991 Y61.3718
G01 X36.0010 Y61.3655
G01 X36.0286 Y61.2885
G01 X36.0658 Y61.2101
G01 X36.1088 Y61.1385
G01 X36.1575 Y61.0727
G01 X36.1617 Y61.0676
G01 X36.2167 Y61.0071
G01 X36.2797 Y60.9499
G01 X36.3454 Y60.9011
G01 X36.3509 Y60.8974
G01 X36.4211 Y60.8554
G01 X36.4981 Y60.8190
G01 X36.5751 Y60.7914
G01 X36.5814 Y60.7895
G01 X36.6608 Y60.7697
G01 X36.7417 Y60.7576
G01 X36.7483 Y60.7569
G01 X36.8300 Y60.7530
G01 X36.8917 Y60.7559
G01 X46.4223 Y51.2253
G01 X46.4223 Y50.8453
G01 X46.3767 Y50.8037
G01 X46.3351 Y50.7581
G01 X41.7902 Y50.7581
G01 X41.7605 Y50.7846
G01 X41.7027 Y50.8275
G01 X41.6353 Y50.8679
G01 X41.5687 Y50.8994
G01 X41.5009 Y50.9237
G01 X41.4946 Y50.9256
G01 X41.4263 Y50.9427
G01 X41.3502 Y50.9541
G01 X41.2783 Y50.9577
G01 X41.2717 Y50.9577
G01 X41.1998 Y50.9541
G01 X41.1285 Y50.9436
G01 X41.1221 Y50.9423
G01 X41.0538 Y50.9252
G01 X40.9813 Y50.8994
G01 X40.9162 Y50.8687
G01 X40.9104 Y50.8656
G01 X40.8487 Y50.8285
G01 X40.7908 Y50.7856
G01 X40.7857 Y50.7814
G01 X40.7324 Y50.7330
G01 X40.6840 Y50.6797
G01 X40.6798 Y50.6746
G01 X40.6369 Y50.6167
G01 X40.5998 Y50.5550
G01 X40.5967 Y50.5492
G01 X40.5660 Y50.4841
G01 X40.5417 Y50.4163
G01 X40.5398 Y50.4100
G01 X40.5223 Y50.3401
G01 X40.5117 Y50.2689
G01 X40.5111 Y50.2623
G01 X40.5076 Y50.1904
G01 X40.5111 Y50.1185
G01 X40.5117 Y50.1119
G01 X40.5223 Y50.0407
G01 X40.5398 Y49.9708
G01 X40.5417 Y49.9645
G01 X40.5660 Y49.8967
G01 X40.5967 Y49.8316
G01 X40.5998 Y49.8258
G01 X40.6369 Y49.7641
G01 X40.6798 Y49.7062
G01 X40.6840 Y49.7011
G01 X40.7312 Y49.6490
G01 X40.7882 Y49.5972
G01 X40.8487 Y49.5523
G01 X40.9133 Y49.5136
G01 X40.9813 Y49.4814
G01 X41.0522 Y49.4560
G01 X41.1253 Y49.4377
G01 X41.1998 Y49.4267
G01 X41.2750 Y49.4230
G01 X41.3502 Y49.4267
G01 X41.4247 Y49.4377
G01 X41.4978 Y49.4560
G01 X41.5671 Y49.4808
G01 X41.6367 Y49.5136
G01 X41.7000 Y49.5514
G01 X41.7605 Y49.5962
G01 X41.7902 Y49.6227
G01 X46.3351 Y49.6227
G01 X46.3767 Y49.5771
G01 X46.4372 Y49.5221
G01 X46.4423 Y49.5179
G01 X46.5081 Y49.4692
G01 X46.5782 Y49.4271
G01 X46.5841 Y49.4239
G01 X46.6581 Y49.3890
G01 X46.7366 Y49.3608
G01 X46.8208 Y49.3397
G01 X46.9017 Y49.3276
G01 X46.9083 Y49.3269
G01 X46.9900 Y49.3230
G01 X47.0717 Y49.3269
G01 X47.0783 Y49.3276
G01 X47.1592 Y49.3397
G01 X47.2418 Y49.3604
G01 X47.3189 Y49.3878
G01 X47.3250 Y49.3904
G01 X47.3989 Y49.4254
G01 X47.4691 Y49.4674
G01 X47.4746 Y49.4711
G01 X47.5403 Y49.5199
G01 X47.6009 Y49.5748
G01 X47.6056 Y49.5795
G01 X47.6605 Y49.6401
G01 X47.7093 Y49.7058
G01 X47.7130 Y49.7113
G01 X47.7550 Y49.7815
G01 X47.7900 Y49.8554
G01 X47.7926 Y49.8615
G01 X47.8190 Y49.9355
G01 X47.8209 Y49.9418
G01 X47.8407 Y50.0212
G01 X47.8528 Y50.1021
G01 X47.8535 Y50.1087
G01 X47.8574 Y50.1904
G01 X47.8535 Y50.2721
G01 X47.8528 Y50.2787
G01 X47.8407 Y50.3596
G01 X47.8205 Y50.4406
G01 X47.7926 Y50.5193
G01 X47.7900 Y50.5254
G01 X47.7550 Y50.5993
G01 X47.7121 Y50.6709
G01 X47.6625 Y50.7381
G01 X47.6583 Y50.7432
G01 X47.6033 Y50.8037
G01 X47.5577 Y50.8453
G01 X47.5577 Y50.8927
G01 X51.2050 Y50.8927
G01 X51.2606 Y50.8955
G01 X51.3157 Y50.9037
G01 X51.3666 Y50.9163
G01 X51.3729 Y50.9182
G01 X51.4222 Y50.9360
G01 X51.4696 Y50.9583
G01 X51.4755 Y50.9614
G01 X51.5204 Y50.9884
G01 X51.5664 Y51.0227
G01 X51.6064 Y51.0590
G01 X52.3051 Y51.7577
G01 X52.3148 Y51.7545
G01 X52.4275 Y51.7264
G01 X52.5424 Y51.7093
G01 X52.5490 Y51.7086
G01 X52.6650 Y51.7030
G01 X52.7810 Y51.7086
G01 X52.7876 Y51.7093
G01 X52.8992 Y51.7258
G01 X52.9057 Y51.7271
G01 X53.0184 Y51.7554
G01 X53.1278 Y51.7945
G01 X53.1339 Y51.7970
G01 X53.2389 Y51.8467
G01 X53.3386 Y51.9064
G01 X53.3441 Y51.9101
G01 X53.4373 Y51.9793
G01 X53.5246 Y52.0584
G01 X53.6039 Y52.1456
G01 X53.6081 Y52.1507
G01 X53.6772 Y52.2440
G01 X53.7387 Y52.3465
G01 X53.7897 Y52.4545
G01 X53.8289 Y52.5639
G01 X53.8309 Y52.5702
G01 X53.8590 Y52.6829
G01 X53.8761 Y52.7978
G01 X53.8768 Y52.8044
G01 X53.8824 Y52.9204
G01 X53.8765 Y53.0397
G01 X53.8596 Y53.1546
G01 X53.8583 Y53.1611
G01 X53.8300 Y53.2738
G01 X53.7897 Y53.3863
G01 X53.7401 Y53.4913
G01 X53.7370 Y53.4972
G01 X53.6772 Y53.5968
G01 X53.6061 Y53.6927
G01 X53.5281 Y53.7788
G01 X53.5234 Y53.7835
G01 X53.4373 Y53.8615
G01 X53.3414 Y53.9326
G01 X53.2418 Y53.9924
G01 X53.2359 Y53.9955
G01 X53.1309 Y54.0451
G01 X53.0184 Y54.0854
G01 X52.9057 Y54.1137
G01 X52.8992 Y54.1150
G01 X52.7843 Y54.1319
G01 X52.6650 Y54.1378
G01 X52.5457 Y54.1319
G01 X52.4275 Y54.1144
G01 X52.3116 Y54.0854
G01 X52.2022 Y54.0463
G01 X52.1961 Y54.0438
G01 X52.0911 Y53.9941
G01 X51.9914 Y53.9344
G01 X51.9859 Y53.9307
G01 X51.8953 Y53.8635
G01 X51.8902 Y53.8593
G01 X51.8042 Y53.7812
G01 X51.7239 Y53.6927
G01 X51.6547 Y53.5995
G01 X51.6510 Y53.5940
G01 X51.5913 Y53.4943
G01 X51.5416 Y53.3893
G01 X51.5391 Y53.3832
G01 X51.5000 Y53.2738
G01 X51.4710 Y53.1579
G01 X51.4539 Y53.0430
G01 X51.4532 Y53.0364
G01 X51.4476 Y52.9204
G01 X51.4532 Y52.8044
G01 X51.4539 Y52.7978
G01 X51.4710 Y52.6829
G01 X51.4991 Y52.5702
G01 X51.5023 Y52.5605
G01 X50.9699 Y52.0281
G01 X47.2251 Y52.0281
G01 X37.6945 Y61.5587
G01 X37.6974 Y61.6204
G01 X37.6935 Y61.7021
G01 X37.6928 Y61.7087
G01 X37.6813 Y61.7864
G01 X37.6800 Y61.7928
G01 X37.6600 Y61.8722
G01 X37.6314 Y61.9523
G01 X37.5950 Y62.0293
G01 X37.5530 Y62.0995
G01 X37.5493 Y62.1050
G01 X37.5025 Y62.1681
G01 X37.4983 Y62.1732
G01 X37.4433 Y62.2337
G01 X37.3977 Y62.2753
G01 X37.3977 Y64.8627
G01 X46.1226 Y64.8627
G01 X46.1226 Y64.6304
G01 X46.1229 Y64.6238
G01 X46.1239 Y64.6173
G01 X46.1265 Y64.6077
G01 X46.1306 Y64.5986
G01 X46.1359 Y64.5902
G01 X46.1423 Y64.5827
G01 X46.1512 Y64.5753
G01 X46.1597 Y64.5702
G01 X46.1689 Y64.5664
G01 X46.1785 Y64.5640
G01 X46.1900 Y64.5630
G01 X47.7900 Y64.5630
G01 X47.7983 Y64.5635
G01 X47.8096 Y64.5659
G01 X47.8203 Y64.5702
G01 X47.8261 Y64.5735
G01 X47.8315 Y64.5773
G01 X47.8399 Y64.5851
G01 X47.8469 Y64.5943
G01 X47.8523 Y64.6046
G01 X47.8558 Y64.6156
G01 X47.8569 Y64.6221
G01 X47.8574 Y64.6287
G01 X47.8574 Y66.2304
G01 X47.8564 Y66.2419
G01 X47.8550 Y66.2484
G01 X47.8529 Y66.2547
G01 X47.8502 Y66.2607
G01 X47.8469 Y66.2665
G01 X47.8431 Y66.2719
G01 X47.8388 Y66.2769
G01 X47.8340 Y66.2814
G01 X47.8288 Y66.2855
G01 X47.8232 Y66.2890
G01 X47.8173 Y66.2920
G01 X47.8096 Y66.2949
G01 X47.8031 Y66.2965
G01 X47.7966 Y66.2975
G01 X47.7900 Y66.2978
G01 X46.1900 Y66.2978
G01 X46.1785 Y66.2968
G01 X46.1689 Y66.2944
G01 X46.1597 Y66.2906
G01 X46.1498 Y66.2845
G01 X46.1423 Y66.2781
G01 X46.1359 Y66.2706
G01 X46.1306 Y66.2622
G01 X46.1265 Y66.2531
G01 X46.1239 Y66.2435
G01 X46.1229 Y66.2370
G01 X46.1226 Y66.2304
G01 X46.1226 Y65.9981
G01 X37.3977 Y65.9981
G01 X37.3976 Y70.3421
G01 X37.3949 Y70.3960
G01 X37.3873 Y70.4479
G01 X37.3860 Y70.4544
G01 X37.3732 Y70.5052
G01 X37.3556 Y70.5545
G01 X37.3531 Y70.5607
G01 X37.3306 Y70.6080
G01 X37.3038 Y70.6530
G01 X37.3001 Y70.6585
G01 X37.2688 Y70.7005
G01 X37.2314 Y70.7418
G01 X35.7914 Y72.1818
G01 X35.7501 Y72.2192
G01 X35.7054 Y72.2524
G01 X35.6605 Y72.2794
G01 X35.6546 Y72.2825
G01 X35.6072 Y72.3048
G01 X35.5579 Y72.3226
G01 X35.5516 Y72.3245
G01 X35.5024 Y72.3368
G01 X35.4456 Y72.3453
G01 X35.3933 Y72.3480
G01 X35.2074 Y72.3481
G01 X35.2074 Y72.6304
G01 X35.2071 Y72.6370
G01 X35.2058 Y72.6452
G01 X35.2035 Y72.6531
G01 X35.2002 Y72.6607
G01 X35.1960 Y72.6678
G01 X35.1899 Y72.6757
G01 X35.1840 Y72.6814
G01 X35.1774 Y72.6864
G01 X35.1703 Y72.6906
G01 X35.1643 Y72.6933
G01 X35.1564 Y72.6958
G01 X35.1483 Y72.6973
G01 X35.1400 Y72.6978
G01 X33.4400 Y72.6978
G01 X33.4334 Y72.6975
G01 X33.4252 Y72.6962
G01 X33.4189 Y72.6944
G01 X33.4112 Y72.6913
G01 X33.4053 Y72.6882
G01 X33.3985 Y72.6835
G01 X33.3923 Y72.6781
G01 X33.3879 Y72.6732
G01 X33.3814 Y72.6636
G01 X33.3765 Y72.6531
G01 X33.3736 Y72.6419
G01 X33.3726 Y72.6304
G01 X33.3726 Y70.9304
G01 X33.3729 Y70.9238
G01 X33.3742 Y70.9156
G01 X33.3765 Y70.9077
G01 X33.3791 Y70.9016
G01 X33.3831 Y70.8943
G01 X33.3869 Y70.8889
G01 X33.3912 Y70.8839
G01 X33.3972 Y70.8783
G01 X33.4068 Y70.8718
G01 X33.4173 Y70.8669
G01 X33.4285 Y70.8640
G01 X33.4400 Y70.8630
G01 X35.1400 Y70.8630
G01 X35.1499 Y70.8637
G01 X35.1596 Y70.8659
G01 X35.1688 Y70.8695
G01 X35.1774 Y70.8744
G01 X35.1865 Y70.8816
G01 X35.1931 Y70.8889
G01 X35.1986 Y70.8972
G01 X35.2035 Y70.9077
G01 X35.2061 Y70.9173
G01 X35.2071 Y70.9238
G01 X35.2074 Y70.9304
G01 X35.2074 Y71.1602
G00 Z1.0000
G00 X7.8651 Y37.4341
G01 F60.00
G01 Z-0.0650
G01 F120.00
G01 X7.8195 Y37.3925
G01 X7.7623 Y37.3295
G01 X7.7116 Y37.2611
G01 X7.6671 Y37.1866
G01 X7.6314 Y37.1111
G01 X7.6028 Y37.0310
G01 X7.5821 Y36.9484
G01 X7.5694 Y36.8626
G01 X7.5654 Y36.7792
G01 X7.5696 Y36.6942
G01 X7.5821 Y36.6100
G01 X7.6028 Y36.5274
G01 X7.6314 Y36.4473
G01 X7.6678 Y36.3703
G01 X7.7116 Y36.2973
G01 X7.7634 Y36.2277
G01 X7.8195 Y36.1659
G01 X7.8825 Y36.1087
G01 X7.9509 Y36.0580
G01 X8.0239 Y36.0142
G01 X8.1009 Y35.9778
G01 X8.1810 Y35.9492
G01 X8.2636 Y35.9285
G01 X8.3478 Y35.9160
G01 X8.4328 Y35.9118
G01 X8.5178 Y35.9160
G01 X8.6020 Y35.9285
G01 X8.6846 Y35.9492
G01 X8.7647 Y35.9778
G01 X8.8417 Y36.0142
G01 X8.9147 Y36.0580
G01 X8.9843 Y36.1098
G01 X9.0461 Y36.1659
G01 X9.1011 Y36.2264
G01 X9.1053 Y36.2315
G01 X9.1521 Y36.2946
G01 X9.1558 Y36.3001
G01 X9.1978 Y36.3703
G01 X9.2328 Y36.4442
G01 X9.2354 Y36.4503
G01 X9.2628 Y36.5274
G01 X9.2835 Y36.6100
G01 X9.2960 Y36.6942
G01 X9.3002 Y36.7792
