(G-CODE GENERATED BY FLATCAM v8.993 - www.flatcam.org - Version Date: 2020/08/01)

(Name: Wasserhahn-B_Cu.gbl_iso_cnc)
(Type: G-code from Geometry)
(Units: MM)

(Created on Sonntag, 17 Mai 2020 at 12:31)

(This preprocessor is the default preprocessor used by FlatCAM.)
(It is made to work with MACH3 compatible motion controllers.)

(TOOL DIAMETER: 0.1348 mm)
(Feedrate_XY: 120.0 mm/min)
(Feedrate_Z: 60.0 mm/min)
(Feedrate rapids 1500.0 mm/min)

(Z_Cut: -0.065 mm)
(Z_Move: 1.2 mm)
(Z Start: None mm)
(Z End: 15.0 mm)
(Steps per circle: 64)
(Preprocessor Geometry: default)

(X range:    0.7893 ...   69.4037  mm)
(Y range:    0.9874 ...   76.5791  mm)

(Spindle Speed: None RPM)
G21
G90
G94



G01 F120.00
G00 Z1.2000

M03
G00 X14.5510 Y12.6518
G01 F60.00
G01 Z-0.0650
G01 F120.00
G01 X14.5510 Y8.2804
G01 X14.5543 Y8.2129
G01 X14.5643 Y8.1460
G01 X14.5782 Y8.0893
G01 X14.5836 Y8.0716
G01 X14.6035 Y8.0167
G01 X14.6282 Y7.9639
G01 X14.6369 Y7.9476
G01 X14.6671 Y7.8976
G01 X14.7074 Y7.8433
G01 X14.7464 Y7.7999
G01 X14.7595 Y7.7868
G01 X14.8029 Y7.7478
G01 X14.8572 Y7.7075
G01 X14.9072 Y7.6773
G01 X14.9235 Y7.6686
G01 X14.9763 Y7.6439
G01 X15.0356 Y7.6225
G01 X15.0489 Y7.6186
G01 X15.0966 Y7.6067
G01 X15.1147 Y7.6031
G01 X15.1725 Y7.5947
G01 X15.2400 Y7.5914
G01 X29.4413 Y7.5914
G01 X29.4413 Y7.4304
G01 X29.4418 Y7.4165
G01 X29.4441 Y7.3981
G01 X29.4469 Y7.3845
G01 X29.4523 Y7.3668
G01 X29.4575 Y7.3539
G01 X29.4636 Y7.3414
G01 X29.4681 Y7.3334
G01 X29.4731 Y7.3256
G01 X29.4812 Y7.3143
G01 X29.4871 Y7.3071
G01 X29.4966 Y7.2970
G01 X29.5033 Y7.2906
G01 X29.5139 Y7.2816
G01 X29.5252 Y7.2735
G01 X29.5330 Y7.2685
G01 X29.5451 Y7.2618
G01 X29.5535 Y7.2579
G01 X29.5664 Y7.2527
G01 X29.5752 Y7.2498
G01 X29.5887 Y7.2463
G01 X29.5977 Y7.2445
G01 X29.6161 Y7.2422
G01 X29.6300 Y7.2417
G01 X31.3300 Y7.2417
G01 X31.3485 Y7.2426
G01 X31.3623 Y7.2445
G01 X31.3713 Y7.2463
G01 X31.3803 Y7.2485
G01 X31.3936 Y7.2527
G01 X31.4065 Y7.2579
G01 X31.4149 Y7.2618
G01 X31.4270 Y7.2685
G01 X31.4387 Y7.2761
G01 X31.4497 Y7.2845
G01 X31.4567 Y7.2906
G01 X31.4667 Y7.3003
G01 X31.4759 Y7.3107
G01 X31.4843 Y7.3217
G01 X31.4919 Y7.3334
G01 X31.4964 Y7.3414
G01 X31.5025 Y7.3539
G01 X31.5077 Y7.3668
G01 X31.5119 Y7.3801
G01 X31.5151 Y7.3936
G01 X31.5173 Y7.4073
G01 X31.5185 Y7.4211
G01 X31.5187 Y7.4304
G01 X31.5185 Y9.1397
G01 X31.5173 Y9.1535
G01 X31.5159 Y9.1627
G01 X31.5131 Y9.1763
G01 X31.5106 Y9.1852
G01 X31.5077 Y9.1940
G01 X31.5025 Y9.2069
G01 X31.4986 Y9.2153
G01 X31.4919 Y9.2274
G01 X31.4843 Y9.2391
G01 X31.4788 Y9.2465
G01 X31.4698 Y9.2571
G01 X31.4634 Y9.2638
G01 X31.4533 Y9.2733
G01 X31.4461 Y9.2792
G01 X31.4387 Y9.2847
G01 X31.4270 Y9.2923
G01 X31.4190 Y9.2968
G01 X31.4065 Y9.3029
G01 X31.3936 Y9.3081
G01 X31.3848 Y9.3110
G01 X31.3713 Y9.3145
G01 X31.3577 Y9.3171
G01 X31.3439 Y9.3186
G01 X31.3346 Y9.3191
G01 X29.6300 Y9.3191
G01 X29.6207 Y9.3189
G01 X29.6069 Y9.3177
G01 X29.5977 Y9.3163
G01 X29.5841 Y9.3135
G01 X29.5708 Y9.3096
G01 X29.5578 Y9.3048
G01 X29.5493 Y9.3010
G01 X29.5370 Y9.2946
G01 X29.5252 Y9.2873
G01 X29.5176 Y9.2820
G01 X29.5067 Y9.2733
G01 X29.4999 Y9.2671
G01 X29.4902 Y9.2571
G01 X29.4841 Y9.2501
G01 X29.4757 Y9.2391
G01 X29.4706 Y9.2314
G01 X29.4658 Y9.2234
G01 X29.4594 Y9.2111
G01 X29.4523 Y9.1940
G01 X29.4481 Y9.1807
G01 X29.4441 Y9.1627
G01 X29.4418 Y9.1443
G01 X29.4413 Y9.1304
G01 X29.4413 Y8.9694
G01 X28.6290 Y8.9694
G01 X28.6290 Y16.8850
G01 X32.0354 Y20.2914
G01 X34.9343 Y20.2917
G01 X34.9925 Y20.2947
G01 X35.0594 Y20.3047
G01 X35.1250 Y20.3211
G01 X35.1800 Y20.3405
G01 X35.1971 Y20.3476
G01 X35.2457 Y20.3706
G01 X35.2578 Y20.3773
G01 X35.3078 Y20.4075
G01 X35.3621 Y20.4478
G01 X35.4122 Y20.4932
G01 X36.6854 Y21.7665
G01 X36.7276 Y21.8133
G01 X36.7625 Y21.8601
G01 X36.7704 Y21.8715
G01 X36.7981 Y21.9176
G01 X36.8068 Y21.9339
G01 X36.8315 Y21.9867
G01 X36.8543 Y22.0504
G01 X36.8707 Y22.1160
G01 X36.8807 Y22.1829
G01 X36.8840 Y22.2504
G01 X36.8840 Y22.8118
G01 X36.8941 Y22.8213
G01 X36.9005 Y22.8280
G01 X36.9532 Y22.8861
G01 X36.9650 Y22.9005
G01 X37.0171 Y22.9711
G01 X37.0624 Y23.0463
G01 X37.0711 Y23.0626
G01 X37.1085 Y23.1420
G01 X37.1411 Y23.2334
G01 X37.1647 Y23.3275
G01 X37.1784 Y23.4189
G01 X37.1796 Y23.4327
G01 X37.1835 Y23.5111
G01 X37.1835 Y23.5297
G01 X37.1790 Y23.6173
G01 X37.1647 Y23.7133
G01 X37.1436 Y23.7985
G01 X37.1382 Y23.8162
G01 X37.1085 Y23.8988
G01 X37.0691 Y23.9824
G01 X37.0624 Y23.9945
G01 X37.0171 Y24.0697
G01 X36.9650 Y24.1403
G01 X36.9532 Y24.1547
G01 X36.9005 Y24.2128
G01 X36.8874 Y24.2259
G01 X36.8222 Y24.2847
G01 X36.7519 Y24.3372
G01 X36.7365 Y24.3474
G01 X36.6611 Y24.3924
G01 X36.5734 Y24.4339
G01 X36.4820 Y24.4665
G01 X36.3969 Y24.4881
G01 X36.3788 Y24.4917
G01 X36.2919 Y24.5044
G01 X36.2043 Y24.5089
G01 X36.1857 Y24.5089
G01 X36.1073 Y24.5050
G01 X36.0889 Y24.5032
G01 X36.0021 Y24.4901
G01 X35.9080 Y24.4665
G01 X35.8166 Y24.4339
G01 X35.7372 Y24.3965
G01 X35.7209 Y24.3878
G01 X35.6457 Y24.3425
G01 X35.5751 Y24.2904
G01 X35.5607 Y24.2786
G01 X35.4992 Y24.2228
G01 X35.4895 Y24.2128
G01 X35.4307 Y24.1476
G01 X35.3729 Y24.0697
G01 X35.3230 Y23.9865
G01 X35.2815 Y23.8988
G01 X35.2489 Y23.8074
G01 X35.2253 Y23.7133
G01 X35.2110 Y23.6173
G01 X35.2063 Y23.5204
G01 X35.2110 Y23.4235
G01 X35.2253 Y23.3275
G01 X35.2489 Y23.2334
G01 X35.2815 Y23.1420
G01 X35.3230 Y23.0543
G01 X35.3729 Y22.9711
G01 X35.4307 Y22.8932
G01 X35.4895 Y22.8280
G01 X35.4959 Y22.8213
G01 X35.5060 Y22.8118
G01 X35.5060 Y22.5358
G01 X34.6396 Y21.6694
G01 X31.7454 Y21.6693
G01 X31.6825 Y21.6661
G01 X31.6247 Y21.6577
G01 X31.6066 Y21.6541
G01 X31.5500 Y21.6397
G01 X31.4950 Y21.6203
G01 X31.4779 Y21.6132
G01 X31.4252 Y21.5880
G01 X31.3672 Y21.5533
G01 X31.3129 Y21.5130
G01 X31.2628 Y21.4676
G01 X27.4528 Y17.6576
G01 X27.4074 Y17.6075
G01 X27.3671 Y17.5532
G01 X27.3324 Y17.4952
G01 X27.3072 Y17.4425
G01 X27.3001 Y17.4254
G01 X27.2807 Y17.3704
G01 X27.2663 Y17.3138
G01 X27.2627 Y17.2957
G01 X27.2543 Y17.2379
G01 X27.2511 Y17.1750
G01 X27.2510 Y8.9694
G01 X15.9290 Y8.9694
G01 X15.9290 Y12.6518
G01 X15.9391 Y12.6613
G01 X15.9455 Y12.6680
G01 X16.0043 Y12.7332
G01 X16.0621 Y12.8111
G01 X16.1120 Y12.8943
G01 X16.1535 Y12.9820
G01 X16.1861 Y13.0734
G01 X16.2097 Y13.1675
G01 X16.2240 Y13.2635
G01 X16.2287 Y13.3604
G01 X16.2240 Y13.4573
G01 X16.2097 Y13.5533
G01 X16.1861 Y13.6474
G01 X16.1535 Y13.7388
G01 X16.1120 Y13.8265
G01 X16.0621 Y13.9097
G01 X16.0043 Y13.9876
G01 X15.9391 Y14.0595
G01 X15.8672 Y14.1247
G01 X15.7893 Y14.1825
G01 X15.7061 Y14.2324
G01 X15.6184 Y14.2739
G01 X15.5270 Y14.3065
G01 X15.4329 Y14.3301
G01 X15.3369 Y14.3444
G01 X15.2400 Y14.3491
G01 X15.1431 Y14.3444
G01 X15.0471 Y14.3301
G01 X14.9530 Y14.3065
G01 X14.8616 Y14.2739
G01 X14.7739 Y14.2324
G01 X14.6907 Y14.1825
G01 X14.6128 Y14.1247
G01 X14.5409 Y14.0595
G01 X14.4757 Y13.9876
G01 X14.4179 Y13.9097
G01 X14.3680 Y13.8265
G01 X14.3265 Y13.7388
G01 X14.2939 Y13.6474
G01 X14.2703 Y13.5533
G01 X14.2560 Y13.4573
G01 X14.2513 Y13.3604
G01 X14.2560 Y13.2635
G01 X14.2703 Y13.1675
G01 X14.2939 Y13.0734
G01 X14.3265 Y12.9820
G01 X14.3680 Y12.8943
G01 X14.4179 Y12.8111
G01 X14.4757 Y12.7332
G01 X14.5345 Y12.6680
G01 X14.5409 Y12.6613
G01 X14.5510 Y12.6518
G00 Z1.2000
G00 X14.6723 Y12.7055
G01 F60.00
G01 Z-0.0650
G01 F120.00
G01 X14.6723 Y8.2804
G01 X14.6749 Y8.2264
G01 X14.6827 Y8.1729
G01 X14.6840 Y8.1664
G01 X14.6968 Y8.1156
G01 X14.7156 Y8.0632
G01 X14.7379 Y8.0158
G01 X14.7410 Y8.0099
G01 X14.7680 Y7.9650
G01 X14.8012 Y7.9203
G01 X14.8363 Y7.8814
G01 X14.8410 Y7.8767
G01 X14.8799 Y7.8416
G01 X14.9246 Y7.8084
G01 X14.9695 Y7.7814
G01 X14.9754 Y7.7783
G01 X15.0228 Y7.7560
G01 X15.0736 Y7.7377
G01 X15.1260 Y7.7244
G01 X15.1325 Y7.7231
G01 X15.1844 Y7.7155
G01 X15.2400 Y7.7127
G01 X29.5626 Y7.7127
G01 X29.5626 Y7.4304
G01 X29.5633 Y7.4205
G01 X29.5655 Y7.4108
G01 X29.5691 Y7.4016
G01 X29.5740 Y7.3930
G01 X29.5812 Y7.3839
G01 X29.5885 Y7.3773
G01 X29.5982 Y7.3710
G01 X29.6073 Y7.3669
G01 X29.6169 Y7.3643
G01 X29.6234 Y7.3633
G01 X29.6300 Y7.3630
G01 X31.3300 Y7.3630
G01 X31.3383 Y7.3635
G01 X31.3448 Y7.3646
G01 X31.3527 Y7.3669
G01 X31.3603 Y7.3702
G01 X31.3688 Y7.3753
G01 X31.3753 Y7.3805
G01 X31.3810 Y7.3864
G01 X31.3869 Y7.3943
G01 X31.3916 Y7.4031
G01 X31.3945 Y7.4108
G01 X31.3964 Y7.4189
G01 X31.3974 Y7.4287
G01 X31.3974 Y9.1304
G01 X31.3967 Y9.1403
G01 X31.3950 Y9.1484
G01 X31.3916 Y9.1577
G01 X31.3869 Y9.1665
G01 X31.3821 Y9.1732
G01 X31.3753 Y9.1803
G01 X31.3674 Y9.1864
G01 X31.3603 Y9.1906
G01 X31.3527 Y9.1939
G01 X31.3448 Y9.1962
G01 X31.3383 Y9.1973
G01 X31.3300 Y9.1978
G01 X29.6300 Y9.1978
G01 X29.6217 Y9.1973
G01 X29.6104 Y9.1949
G01 X29.6012 Y9.1913
G01 X29.5926 Y9.1864
G01 X29.5835 Y9.1792
G01 X29.5759 Y9.1706
G01 X29.5706 Y9.1622
G01 X29.5665 Y9.1531
G01 X29.5636 Y9.1419
G01 X29.5626 Y9.1304
G01 X29.5626 Y8.8481
G01 X28.5077 Y8.8481
G01 X28.5077 Y16.9353
G01 X31.9851 Y20.4127
G01 X34.9283 Y20.4128
G01 X34.9806 Y20.4155
G01 X35.0357 Y20.4237
G01 X35.0898 Y20.4372
G01 X35.1391 Y20.4548
G01 X35.1453 Y20.4573
G01 X35.1896 Y20.4783
G01 X35.1955 Y20.4814
G01 X35.2404 Y20.5084
G01 X35.2851 Y20.5416
G01 X35.3264 Y20.5790
G01 X36.5964 Y21.8490
G01 X36.6338 Y21.8903
G01 X36.6651 Y21.9323
G01 X36.6688 Y21.9378
G01 X36.6964 Y21.9843
G01 X36.7194 Y22.0332
G01 X36.7382 Y22.0856
G01 X36.7517 Y22.1397
G01 X36.7601 Y22.1964
G01 X36.7627 Y22.2504
G01 X36.7627 Y22.8655
G01 X36.8083 Y22.9071
G01 X36.8655 Y22.9701
G01 X36.9162 Y23.0385
G01 X36.9600 Y23.1115
G01 X36.9964 Y23.1885
G01 X37.0250 Y23.2686
G01 X37.0457 Y23.3512
G01 X37.0578 Y23.4321
G01 X37.0585 Y23.4387
G01 X37.0623 Y23.5171
G01 X37.0623 Y23.5237
G01 X37.0582 Y23.6054
G01 X37.0457 Y23.6896
G01 X37.0259 Y23.7690
G01 X37.0240 Y23.7753
G01 X36.9964 Y23.8523
G01 X36.9607 Y23.9278
G01 X36.9162 Y24.0023
G01 X36.8675 Y24.0681
G01 X36.8633 Y24.0732
G01 X36.8083 Y24.1337
G01 X36.7478 Y24.1887
G01 X36.7427 Y24.1929
G01 X36.6769 Y24.2416
G01 X36.6039 Y24.2854
G01 X36.5300 Y24.3204
G01 X36.5239 Y24.3230
G01 X36.4499 Y24.3494
G01 X36.4436 Y24.3513
G01 X36.3642 Y24.3711
G01 X36.2833 Y24.3832
G01 X36.2767 Y24.3839
G01 X36.1950 Y24.3878
G01 X36.1100 Y24.3836
G01 X36.0258 Y24.3711
G01 X35.9464 Y24.3513
G01 X35.9401 Y24.3494
G01 X35.8631 Y24.3218
G01 X35.7891 Y24.2869
G01 X35.7832 Y24.2837
G01 X35.7159 Y24.2434
G01 X35.7104 Y24.2397
G01 X35.6447 Y24.1909
G01 X35.5805 Y24.1326
G01 X35.5245 Y24.0707
G01 X35.4738 Y24.0023
G01 X35.4300 Y23.9293
G01 X35.3936 Y23.8523
G01 X35.3650 Y23.7722
G01 X35.3443 Y23.6896
G01 X35.3318 Y23.6054
G01 X35.3276 Y23.5187
G01 X35.3318 Y23.4354
G01 X35.3443 Y23.3512
G01 X35.3650 Y23.2686
G01 X35.3924 Y23.1915
G01 X35.3950 Y23.1854
G01 X35.4300 Y23.1115
G01 X35.4720 Y23.0413
G01 X35.4757 Y23.0358
G01 X35.5225 Y22.9727
G01 X35.5267 Y22.9676
G01 X35.5817 Y22.9071
G01 X35.6273 Y22.8655
G01 X35.6273 Y22.4855
G01 X34.6899 Y21.5481
G01 X31.7483 Y21.5480
G01 X31.6944 Y21.5453
G01 X31.6425 Y21.5377
G01 X31.6360 Y21.5364
G01 X31.5852 Y21.5236
G01 X31.5359 Y21.5060
G01 X31.5297 Y21.5035
G01 X31.4824 Y21.4810
G01 X31.4346 Y21.4524
G01 X31.3899 Y21.4192
G01 X31.3486 Y21.3818
G01 X27.5386 Y17.5718
G01 X27.5012 Y17.5305
G01 X27.4671 Y17.4844
G01 X27.4394 Y17.4380
G01 X27.4169 Y17.3907
G01 X27.4144 Y17.3845
G01 X27.3968 Y17.3352
G01 X27.3833 Y17.2811
G01 X27.3755 Y17.2293
G01 X27.3748 Y17.2227
G01 X27.3723 Y17.1704
G01 X27.3723 Y8.8481
G01 X15.8077 Y8.8481
G01 X15.8077 Y12.7055
G01 X15.8533 Y12.7471
G01 X15.9083 Y12.8076
G01 X15.9125 Y12.8127
G01 X15.9593 Y12.8758
G01 X15.9630 Y12.8813
G01 X16.0050 Y12.9515
G01 X16.0407 Y13.0269
G01 X16.0700 Y13.1086
G01 X16.0907 Y13.1912
G01 X16.1032 Y13.2754
G01 X16.1074 Y13.3604
G01 X16.1032 Y13.4454
G01 X16.0907 Y13.5296
G01 X16.0700 Y13.6122
G01 X16.0426 Y13.6893
G01 X16.0400 Y13.6954
G01 X16.0050 Y13.7693
G01 X15.9630 Y13.8395
G01 X15.9593 Y13.8450
G01 X15.9125 Y13.9081
G01 X15.9083 Y13.9132
G01 X15.8533 Y13.9737
G01 X15.7915 Y14.0298
G01 X15.7219 Y14.0816
G01 X15.6489 Y14.1254
G01 X15.5719 Y14.1618
G01 X15.4918 Y14.1904
G01 X15.4092 Y14.2111
G01 X15.3250 Y14.2236
G01 X15.2400 Y14.2278
G01 X15.1550 Y14.2236
G01 X15.0708 Y14.2111
G01 X14.9882 Y14.1904
G01 X14.9081 Y14.1618
G01 X14.8311 Y14.1254
G01 X14.7581 Y14.0816
G01 X14.6897 Y14.0309
G01 X14.6267 Y13.9737
G01 X14.5706 Y13.9119
G01 X14.5188 Y13.8423
G01 X14.4750 Y13.7693
G01 X14.4386 Y13.6923
G01 X14.4100 Y13.6122
G01 X14.3893 Y13.5296
G01 X14.3768 Y13.4454
G01 X14.3726 Y13.3604
G01 X14.3766 Y13.2770
G01 X14.3893 Y13.1912
G01 X14.4100 Y13.1086
G01 X14.4386 Y13.0285
G01 X14.4743 Y12.9530
G01 X14.5188 Y12.8785
G01 X14.5695 Y12.8101
G01 X14.6267 Y12.7471
G01 X14.6723 Y12.7055
G00 Z1.2000
G00 X22.1514 Y17.7514
G01 F60.00
G01 Z-0.0650
G01 F120.00
G01 X22.1609 Y17.7413
G01 X22.1676 Y17.7349
G01 X22.2328 Y17.6761
G01 X22.3107 Y17.6183
G01 X22.3939 Y17.5684
G01 X22.4816 Y17.5269
G01 X22.5730 Y17.4943
G01 X22.6671 Y17.4707
G01 X22.7631 Y17.4564
G01 X22.8600 Y17.4517
G01 X22.9569 Y17.4564
G01 X23.0529 Y17.4707
G01 X23.1470 Y17.4943
G01 X23.2384 Y17.5269
G01 X23.3261 Y17.5684
G01 X23.4093 Y17.6183
G01 X23.4872 Y17.6761
G01 X23.5591 Y17.7413
G01 X23.6243 Y17.8132
G01 X23.6821 Y17.8911
G01 X23.7320 Y17.9743
G01 X23.7735 Y18.0620
G01 X23.8061 Y18.1534
G01 X23.8297 Y18.2475
G01 X23.8440 Y18.3435
G01 X23.8487 Y18.4404
G01 X23.8440 Y18.5373
G01 X23.8297 Y18.6333
G01 X23.8061 Y18.7274
G01 X23.7735 Y18.8188
G01 X23.7320 Y18.9065
G01 X23.6821 Y18.9897
G01 X23.6243 Y19.0676
G01 X23.5591 Y19.1395
G01 X23.4872 Y19.2047
G01 X23.4093 Y19.2625
G01 X23.3261 Y19.3124
G01 X23.2384 Y19.3539
G01 X23.1470 Y19.3865
G01 X23.0529 Y19.4101
G01 X22.9569 Y19.4244
G01 X22.8600 Y19.4291
G01 X22.7631 Y19.4244
G01 X22.6671 Y19.4101
G01 X22.5730 Y19.3865
G01 X22.4816 Y19.3539
G01 X22.3939 Y19.3124
G01 X22.3107 Y19.2625
G01 X22.2328 Y19.2047
G01 X22.1676 Y19.1459
G01 X22.1609 Y19.1395
G01 X22.1514 Y19.1294
G01 X17.9610 Y19.1294
G01 X17.9607 Y26.5777
G01 X17.9580 Y26.6313
G01 X17.9565 Y26.6451
G01 X17.9477 Y26.7028
G01 X17.9338 Y26.7595
G01 X17.9284 Y26.7772
G01 X17.9085 Y26.8321
G01 X17.8796 Y26.8932
G01 X17.8449 Y26.9512
G01 X17.8103 Y26.9982
G01 X17.7985 Y27.0125
G01 X17.7592 Y27.0556
G01 X17.7161 Y27.0949
G01 X17.7018 Y27.1067
G01 X17.6548 Y27.1413
G01 X17.5968 Y27.1760
G01 X17.5441 Y27.2012
G01 X17.5270 Y27.2083
G01 X17.4720 Y27.2277
G01 X17.4064 Y27.2441
G01 X17.3487 Y27.2529
G01 X17.3303 Y27.2547
G01 X17.2720 Y27.2574
G01 X7.6514 Y27.2574
G01 X7.2930 Y27.6158
G01 X7.2930 Y66.9258
G01 X25.2670 Y66.9258
G01 X26.0318 Y66.1610
G01 X26.0318 Y64.4458
G01 X25.8258 Y64.2398
G01 X25.5478 Y64.2397
G01 X25.4849 Y64.2365
G01 X25.4271 Y64.2281
G01 X25.4135 Y64.2256
G01 X25.3613 Y64.2126
G01 X25.3436 Y64.2072
G01 X25.2887 Y64.1873
G01 X25.2359 Y64.1626
G01 X25.2196 Y64.1539
G01 X25.1696 Y64.1237
G01 X25.1226 Y64.0891
G01 X25.1118 Y64.0804
G01 X25.0652 Y64.0380
G01 X24.1000 Y63.0728
G01 X24.0576 Y63.0262
G01 X24.0489 Y63.0154
G01 X24.0197 Y62.9759
G01 X24.0094 Y62.9605
G01 X23.9796 Y62.9104
G01 X23.9507 Y62.8493
G01 X23.9279 Y62.7856
G01 X23.9135 Y62.7290
G01 X23.9106 Y62.7155
G01 X23.9027 Y62.6623
G01 X23.9009 Y62.6439
G01 X23.8982 Y62.5856
G01 X23.8982 Y59.5884
G01 X23.9009 Y59.5301
G01 X23.9021 Y59.5163
G01 X23.9115 Y59.4540
G01 X23.9254 Y59.3973
G01 X23.9308 Y59.3796
G01 X23.9507 Y59.3247
G01 X23.9754 Y59.2719
G01 X23.9841 Y59.2556
G01 X24.0143 Y59.2056
G01 X24.0489 Y59.1586
G01 X24.0607 Y59.1443
G01 X24.1000 Y59.1012
G01 X24.5571 Y58.6442
G01 X24.5571 Y56.9181
G01 X24.5519 Y56.9099
G01 X24.5452 Y56.8978
G01 X24.5394 Y56.8851
G01 X24.5346 Y56.8721
G01 X24.5307 Y56.8588
G01 X24.5278 Y56.8452
G01 X24.5259 Y56.8314
G01 X24.5251 Y56.8175
G01 X24.5253 Y55.9536
G01 X24.5271 Y55.9352
G01 X24.5307 Y55.9170
G01 X24.5361 Y55.8993
G01 X24.5431 Y55.8822
G01 X24.5519 Y55.8659
G01 X24.5622 Y55.8505
G01 X24.5708 Y55.8396
G01 X24.5836 Y55.8262
G01 X24.5976 Y55.8141
G01 X24.6089 Y55.8060
G01 X24.6248 Y55.7965
G01 X24.6415 Y55.7885
G01 X24.6590 Y55.7823
G01 X24.6769 Y55.7778
G01 X24.6953 Y55.7751
G01 X24.7091 Y55.7742
G01 X25.6262 Y55.7742
G01 X25.6355 Y55.7744
G01 X25.6494 Y55.7756
G01 X25.6631 Y55.7778
G01 X25.6766 Y55.7810
G01 X25.6942 Y55.7868
G01 X25.7069 Y55.7923
G01 X25.7193 Y55.7987
G01 X25.7311 Y55.8060
G01 X25.7424 Y55.8141
G01 X25.7530 Y55.8231
G01 X25.7629 Y55.8328
G01 X25.7721 Y55.8432
G01 X25.7805 Y55.8542
G01 X25.7881 Y55.8659
G01 X25.7948 Y55.8780
G01 X25.8006 Y55.8907
G01 X25.8054 Y55.9037
G01 X25.8093 Y55.9170
G01 X25.8122 Y55.9306
G01 X25.8136 Y55.9398
G01 X25.8147 Y55.9536
G01 X25.8150 Y55.9629
G01 X25.8150 Y56.8129
G01 X25.8145 Y56.8268
G01 X25.8122 Y56.8452
G01 X25.8104 Y56.8542
G01 X25.8068 Y56.8677
G01 X25.8006 Y56.8851
G01 X25.7948 Y56.8978
G01 X25.7905 Y56.9059
G01 X25.7832 Y56.9177
G01 X25.7778 Y56.9253
G01 X25.7661 Y56.9396
G01 X25.7530 Y56.9527
G01 X25.7460 Y56.9588
G01 X25.7349 Y56.9672
G01 X25.7349 Y58.6732
G01 X25.7514 Y58.7008
G01 X25.7558 Y58.7089
G01 X25.7788 Y58.7575
G01 X25.7842 Y58.7702
G01 X25.8053 Y58.8296
G01 X25.8208 Y58.8907
G01 X25.8233 Y58.9043
G01 X25.8305 Y58.9529
G01 X25.8323 Y58.9713
G01 X25.8350 Y59.0296
G01 X25.8320 Y59.0925
G01 X25.8305 Y59.1063
G01 X25.8217 Y59.1640
G01 X25.8078 Y59.2207
G01 X25.8024 Y59.2384
G01 X25.7825 Y59.2933
G01 X25.7578 Y59.3461
G01 X25.7491 Y59.3624
G01 X25.7238 Y59.4045
G01 X25.7162 Y59.4162
G01 X25.6786 Y59.4667
G01 X25.6364 Y59.5135
G01 X25.2762 Y59.8738
G01 X25.2762 Y62.3002
G01 X25.8378 Y62.8618
G01 X26.1158 Y62.8619
G01 X26.1787 Y62.8651
G01 X26.2365 Y62.8735
G01 X26.2501 Y62.8760
G01 X26.3112 Y62.8915
G01 X26.3662 Y62.9109
G01 X26.3833 Y62.9180
G01 X26.4319 Y62.9410
G01 X26.4400 Y62.9454
G01 X26.4567 Y62.9553
G01 X26.4940 Y62.9779
G01 X26.5410 Y63.0125
G01 X26.5553 Y63.0243
G01 X26.5984 Y63.0636
G01 X27.2112 Y63.6765
G01 X27.2534 Y63.7233
G01 X27.2883 Y63.7701
G01 X27.2962 Y63.7815
G01 X27.3239 Y63.8276
G01 X27.3326 Y63.8439
G01 X27.3555 Y63.8925
G01 X27.3607 Y63.9054
G01 X27.3801 Y63.9604
G01 X27.3945 Y64.0170
G01 X27.3981 Y64.0351
G01 X27.4065 Y64.0929
G01 X27.4097 Y64.1558
G01 X27.4098 Y66.4464
G01 X27.4071 Y66.5047
G01 X27.4053 Y66.5231
G01 X27.3965 Y66.5808
G01 X27.3801 Y66.6464
G01 X27.3573 Y66.7101
G01 X27.3326 Y66.7629
G01 X27.3239 Y66.7792
G01 X27.2937 Y66.8292
G01 X27.2591 Y66.8762
G01 X27.2504 Y66.8870
G01 X27.2144 Y66.9269
G01 X26.0363 Y68.1052
G01 X25.9895 Y68.1474
G01 X25.9352 Y68.1877
G01 X25.8772 Y68.2224
G01 X25.8245 Y68.2476
G01 X25.8118 Y68.2530
G01 X25.7612 Y68.2712
G01 X25.7435 Y68.2766
G01 X25.6868 Y68.2905
G01 X25.6291 Y68.2993
G01 X25.6153 Y68.3008
G01 X25.5524 Y68.3038
G01 X6.6040 Y68.3038
G01 X6.5457 Y68.3011
G01 X6.5273 Y68.2993
G01 X6.4696 Y68.2905
G01 X6.4040 Y68.2741
G01 X6.3403 Y68.2513
G01 X6.2875 Y68.2266
G01 X6.2712 Y68.2179
G01 X6.2251 Y68.1902
G01 X6.2137 Y68.1823
G01 X6.1669 Y68.1474
G01 X6.1168 Y68.1020
G01 X6.0714 Y68.0519
G01 X6.0365 Y68.0051
G01 X6.0286 Y67.9937
G01 X6.0009 Y67.9476
G01 X5.9922 Y67.9313
G01 X5.9675 Y67.8785
G01 X5.9447 Y67.8148
G01 X5.9283 Y67.7492
G01 X5.9195 Y67.6915
G01 X5.9177 Y67.6731
G01 X5.9150 Y67.6148
G01 X5.9150 Y27.3304
G01 X5.9177 Y27.2721
G01 X5.9195 Y27.2537
G01 X5.9283 Y27.1960
G01 X5.9447 Y27.1304
G01 X5.9675 Y27.0667
G01 X5.9964 Y27.0056
G01 X6.0311 Y26.9476
G01 X6.0657 Y26.9006
G01 X6.0775 Y26.8863
G01 X6.1168 Y26.8432
G01 X6.8855 Y26.0748
G01 X6.9289 Y26.0358
G01 X6.9832 Y25.9955
G01 X7.0412 Y25.9608
G01 X7.0939 Y25.9356
G01 X7.1066 Y25.9302
G01 X7.1572 Y25.9120
G01 X7.1749 Y25.9066
G01 X7.2316 Y25.8927
G01 X7.2939 Y25.8833
G01 X7.3077 Y25.8821
G01 X7.3660 Y25.8794
G01 X16.5830 Y25.8794
G01 X16.5831 Y18.4358
G01 X16.5863 Y18.3729
G01 X16.5947 Y18.3151
G01 X16.5983 Y18.2970
G01 X16.6127 Y18.2404
G01 X16.6321 Y18.1854
G01 X16.6392 Y18.1683
G01 X16.6644 Y18.1156
G01 X16.6991 Y18.0576
G01 X16.7394 Y18.0033
G01 X16.7784 Y17.9599
G01 X16.7915 Y17.9468
G01 X16.8314 Y17.9108
G01 X16.8422 Y17.9021
G01 X16.8892 Y17.8675
G01 X16.9392 Y17.8373
G01 X16.9555 Y17.8286
G01 X17.0083 Y17.8039
G01 X17.0720 Y17.7811
G01 X17.1376 Y17.7647
G01 X17.1953 Y17.7559
G01 X17.2137 Y17.7541
G01 X17.2720 Y17.7514
G01 X22.1514 Y17.7514
G00 Z1.2000
G00 X22.2051 Y17.8727
G01 F60.00
G01 Z-0.0650
G01 F120.00
G01 X22.2467 Y17.8271
G01 X22.3097 Y17.7699
G01 X22.3781 Y17.7192
G01 X22.4526 Y17.6747
G01 X22.5281 Y17.6390
G01 X22.6082 Y17.6104
G01 X22.6908 Y17.5897
G01 X22.7766 Y17.5770
G01 X22.8600 Y17.5730
G01 X22.9450 Y17.5772
G01 X23.0292 Y17.5897
G01 X23.1118 Y17.6104
G01 X23.1919 Y17.6390
G01 X23.2689 Y17.6754
G01 X23.3419 Y17.7192
G01 X23.4115 Y17.7710
G01 X23.4733 Y17.8271
G01 X23.5305 Y17.8901
G01 X23.5812 Y17.9585
G01 X23.6250 Y18.0315
G01 X23.6614 Y18.1085
G01 X23.6900 Y18.1886
G01 X23.7107 Y18.2712
G01 X23.7232 Y18.3554
G01 X23.7274 Y18.4404
G01 X23.7232 Y18.5254
G01 X23.7107 Y18.6096
G01 X23.6900 Y18.6922
G01 X23.6614 Y18.7723
G01 X23.6250 Y18.8493
G01 X23.5812 Y18.9223
G01 X23.5294 Y18.9919
G01 X23.4733 Y19.0537
G01 X23.4128 Y19.1087
G01 X23.4077 Y19.1129
G01 X23.3419 Y19.1616
G01 X23.2718 Y19.2037
G01 X23.2659 Y19.2069
G01 X23.1950 Y19.2404
G01 X23.1889 Y19.2430
G01 X23.1118 Y19.2704
G01 X23.0292 Y19.2911
G01 X22.9450 Y19.3036
G01 X22.8600 Y19.3078
G01 X22.7750 Y19.3036
G01 X22.6908 Y19.2911
G01 X22.6082 Y19.2704
G01 X22.5265 Y19.2411
G01 X22.4511 Y19.2054
G01 X22.3809 Y19.1634
G01 X22.3754 Y19.1597
G01 X22.3123 Y19.1129
G01 X22.3072 Y19.1087
G01 X22.2467 Y19.0537
G01 X22.2051 Y19.0081
G01 X17.8397 Y19.0081
G01 X17.8396 Y26.5701
G01 X17.8372 Y26.6207
G01 X17.8365 Y26.6273
G01 X17.8287 Y26.6791
G01 X17.8161 Y26.7300
G01 X17.8142 Y26.7363
G01 X17.7964 Y26.7856
G01 X17.7726 Y26.8360
G01 X17.7458 Y26.8810
G01 X17.7421 Y26.8865
G01 X17.7108 Y26.9285
G01 X17.6757 Y26.9674
G01 X17.6710 Y26.9721
G01 X17.6321 Y27.0072
G01 X17.5860 Y27.0413
G01 X17.5396 Y27.0690
G01 X17.4923 Y27.0915
G01 X17.4861 Y27.0940
G01 X17.4368 Y27.1116
G01 X17.3827 Y27.1251
G01 X17.3309 Y27.1329
G01 X17.3243 Y27.1336
G01 X17.2720 Y27.1361
G01 X7.6011 Y27.1361
G01 X7.1717 Y27.5655
G01 X7.1717 Y67.0471
G01 X25.3173 Y67.0471
G01 X26.1531 Y66.2113
G01 X26.1531 Y64.3955
G01 X25.8761 Y64.1185
G01 X25.5507 Y64.1184
G01 X25.4968 Y64.1157
G01 X25.4417 Y64.1075
G01 X25.3908 Y64.0949
G01 X25.3845 Y64.0930
G01 X25.3352 Y64.0752
G01 X25.2930 Y64.0554
G01 X25.2834 Y64.0506
G01 X25.2370 Y64.0228
G01 X25.1923 Y63.9896
G01 X25.1510 Y63.9522
G01 X24.1858 Y62.9870
G01 X24.1495 Y62.9470
G01 X24.1171 Y62.9037
G01 X24.1134 Y62.8982
G01 X24.0866 Y62.8532
G01 X24.0628 Y62.8028
G01 X24.0440 Y62.7504
G01 X24.0312 Y62.6996
G01 X24.0299 Y62.6931
G01 X24.0227 Y62.6445
G01 X24.0220 Y62.6379
G01 X24.0195 Y62.5856
G01 X24.0195 Y59.5884
G01 X24.0223 Y59.5328
G01 X24.0305 Y59.4777
G01 X24.0431 Y59.4268
G01 X24.0450 Y59.4205
G01 X24.0628 Y59.3712
G01 X24.0851 Y59.3238
G01 X24.0882 Y59.3179
G01 X24.1152 Y59.2730
G01 X24.1474 Y59.2296
G01 X24.1858 Y59.1870
G01 X24.6784 Y58.6944
G01 X24.6784 Y56.8703
G01 X24.6710 Y56.8650
G01 X24.6649 Y56.8594
G01 X24.6596 Y56.8530
G01 X24.6551 Y56.8461
G01 X24.6515 Y56.8387
G01 X24.6488 Y56.8309
G01 X24.6471 Y56.8228
G01 X24.6464 Y56.8146
G01 X24.6464 Y55.9629
G01 X24.6467 Y55.9563
G01 X24.6476 Y55.9498
G01 X24.6493 Y55.9433
G01 X24.6515 Y55.9371
G01 X24.6543 Y55.9311
G01 X24.6577 Y55.9255
G01 X24.6616 Y55.9201
G01 X24.6661 Y55.9152
G01 X24.6710 Y55.9108
G01 X24.6763 Y55.9069
G01 X24.6864 Y55.9013
G01 X24.6926 Y55.8989
G01 X24.6990 Y55.8971
G01 X24.7055 Y55.8960
G01 X24.7121 Y55.8955
G01 X25.6312 Y55.8957
G01 X25.6378 Y55.8965
G01 X25.6442 Y55.8979
G01 X25.6551 Y55.9020
G01 X25.6651 Y55.9078
G01 X25.6739 Y55.9152
G01 X25.6814 Y55.9241
G01 X25.6872 Y55.9341
G01 X25.6897 Y55.9402
G01 X25.6916 Y55.9465
G01 X25.6935 Y55.9579
G01 X25.6936 Y56.8129
G01 X25.6933 Y56.8195
G01 X25.6924 Y56.8260
G01 X25.6907 Y56.8325
G01 X25.6885 Y56.8387
G01 X25.6857 Y56.8447
G01 X25.6823 Y56.8503
G01 X25.6773 Y56.8569
G01 X25.6727 Y56.8617
G01 X25.6677 Y56.8660
G01 X25.6623 Y56.8698
G01 X25.6566 Y56.8731
G01 X25.6505 Y56.8758
G01 X25.6442 Y56.8779
G01 X25.6378 Y56.8793
G01 X25.6312 Y56.8801
G01 X25.6136 Y56.8803
G01 X25.6136 Y58.7082
G01 X25.6198 Y58.7170
G01 X25.6450 Y58.7591
G01 X25.6481 Y58.7650
G01 X25.6704 Y58.8124
G01 X25.6882 Y58.8617
G01 X25.6901 Y58.8680
G01 X25.7027 Y58.9189
G01 X25.7109 Y58.9740
G01 X25.7137 Y59.0296
G01 X25.7111 Y59.0836
G01 X25.7033 Y59.1371
G01 X25.7020 Y59.1436
G01 X25.6892 Y59.1944
G01 X25.6704 Y59.2468
G01 X25.6481 Y59.2942
G01 X25.6450 Y59.3001
G01 X25.6180 Y59.3450
G01 X25.5868 Y59.3871
G01 X25.5826 Y59.3922
G01 X25.5474 Y59.4310
G01 X25.1549 Y59.8235
G01 X25.1549 Y62.3505
G01 X25.7875 Y62.9831
G01 X26.1129 Y62.9832
G01 X26.1668 Y62.9859
G01 X26.2203 Y62.9938
G01 X26.2760 Y63.0076
G01 X26.3253 Y63.0252
G01 X26.3315 Y63.0277
G01 X26.3773 Y63.0494
G01 X26.3943 Y63.0594
G01 X26.4266 Y63.0788
G01 X26.4687 Y63.1100
G01 X26.4738 Y63.1142
G01 X26.5126 Y63.1494
G01 X27.1233 Y63.7602
G01 X27.1596 Y63.8003
G01 X27.1909 Y63.8423
G01 X27.1946 Y63.8478
G01 X27.2222 Y63.8943
G01 X27.2439 Y63.9401
G01 X27.2464 Y63.9463
G01 X27.2640 Y63.9956
G01 X27.2768 Y64.0464
G01 X27.2781 Y64.0529
G01 X27.2857 Y64.1048
G01 X27.2884 Y64.1587
G01 X27.2885 Y66.4464
G01 X27.2860 Y66.4987
G01 X27.2853 Y66.5053
G01 X27.2775 Y66.5571
G01 X27.2640 Y66.6112
G01 X27.2452 Y66.6636
G01 X27.2229 Y66.7110
G01 X27.2198 Y66.7169
G01 X27.1928 Y66.7618
G01 X27.1616 Y66.8039
G01 X27.1574 Y66.8090
G01 X27.1233 Y66.8466
G01 X25.9526 Y68.0173
G01 X25.9125 Y68.0536
G01 X25.8678 Y68.0868
G01 X25.8200 Y68.1154
G01 X25.7727 Y68.1379
G01 X25.7665 Y68.1404
G01 X25.7203 Y68.1570
G01 X25.7140 Y68.1589
G01 X25.6631 Y68.1715
G01 X25.6064 Y68.1799
G01 X25.5524 Y68.1825
G01 X6.6040 Y68.1825
G01 X6.5517 Y68.1800
G01 X6.5451 Y68.1793
G01 X6.4933 Y68.1715
G01 X6.4392 Y68.1580
G01 X6.3868 Y68.1392
G01 X6.3394 Y68.1169
G01 X6.3335 Y68.1138
G01 X6.2914 Y68.0886
G01 X6.2859 Y68.0849
G01 X6.2439 Y68.0536
G01 X6.2026 Y68.0162
G01 X6.1652 Y67.9749
G01 X6.1339 Y67.9329
G01 X6.1302 Y67.9274
G01 X6.1050 Y67.8853
G01 X6.1019 Y67.8794
G01 X6.0796 Y67.8320
G01 X6.0608 Y67.7796
G01 X6.0473 Y67.7255
G01 X6.0395 Y67.6737
G01 X6.0388 Y67.6671
G01 X6.0363 Y67.6148
G01 X6.0363 Y27.3304
G01 X6.0388 Y27.2781
G01 X6.0395 Y27.2715
G01 X6.0473 Y27.2197
G01 X6.0608 Y27.1656
G01 X6.0796 Y27.1132
G01 X6.1034 Y27.0628
G01 X6.1320 Y27.0150
G01 X6.1632 Y26.9729
G01 X6.1674 Y26.9678
G01 X6.2026 Y26.9290
G01 X6.9658 Y26.1659
G01 X7.0059 Y26.1296
G01 X7.0506 Y26.0964
G01 X7.0984 Y26.0678
G01 X7.1457 Y26.0453
G01 X7.1519 Y26.0428
G01 X7.1981 Y26.0262
G01 X7.2044 Y26.0243
G01 X7.2553 Y26.0117
G01 X7.3104 Y26.0035
G01 X7.3660 Y26.0007
G01 X16.7043 Y26.0007
G01 X16.7043 Y18.4404
G01 X16.7068 Y18.3881
G01 X16.7075 Y18.3815
G01 X16.7153 Y18.3297
G01 X16.7288 Y18.2756
G01 X16.7464 Y18.2263
G01 X16.7489 Y18.2201
G01 X16.7714 Y18.1728
G01 X16.8000 Y18.1250
G01 X16.8312 Y18.0829
G01 X16.8354 Y18.0778
G01 X16.8706 Y18.0390
G01 X16.9094 Y18.0038
G01 X16.9145 Y17.9996
G01 X16.9566 Y17.9684
G01 X17.0044 Y17.9398
G01 X17.0548 Y17.9160
G01 X17.1041 Y17.8982
G01 X17.1104 Y17.8963
G01 X17.1613 Y17.8837
G01 X17.2131 Y17.8759
G01 X17.2197 Y17.8752
G01 X17.2687 Y17.8728
G01 X22.2051 Y17.8727
G00 Z1.2000
G00 X29.3846 Y15.6490
G01 F60.00
G01 Z-0.0650
G01 F120.00
G01 X29.3847 Y14.6766
G01 X29.3879 Y14.6137
G01 X29.3963 Y14.5559
G01 X29.3999 Y14.5378
G01 X29.4143 Y14.4812
G01 X29.4371 Y14.4175
G01 X29.4660 Y14.3564
G01 X29.4958 Y14.3063
G01 X29.5034 Y14.2946
G01 X29.5410 Y14.2441
G01 X29.5832 Y14.1973
G01 X29.7910 Y13.9894
G01 X29.7910 Y11.5964
G01 X29.7455 Y11.5549
G01 X29.6800 Y11.4829
G01 X29.6714 Y11.4721
G01 X29.6217 Y11.4051
G01 X29.6138 Y11.3936
G01 X29.5685 Y11.3181
G01 X29.5598 Y11.3018
G01 X29.5203 Y11.2179
G01 X29.4874 Y11.1263
G01 X29.4835 Y11.1130
G01 X29.4633 Y11.0321
G01 X29.4597 Y11.0139
G01 X29.4463 Y10.9222
G01 X29.4415 Y10.8297
G01 X29.4415 Y10.8111
G01 X29.4463 Y10.7186
G01 X29.4597 Y10.6269
G01 X29.4622 Y10.6132
G01 X29.4860 Y10.5189
G01 X29.5203 Y10.4229
G01 X29.5639 Y10.3308
G01 X29.6163 Y10.2433
G01 X29.6771 Y10.1614
G01 X29.7455 Y10.0859
G01 X29.8210 Y10.0175
G01 X29.9029 Y9.9567
G01 X29.9904 Y9.9043
G01 X30.0825 Y9.8607
G01 X30.1785 Y9.8264
G01 X30.2774 Y9.8016
G01 X30.3782 Y9.7867
G01 X30.4800 Y9.7817
G01 X30.5818 Y9.7867
G01 X30.6735 Y9.8001
G01 X30.6872 Y9.8026
G01 X30.7815 Y9.8264
G01 X30.8775 Y9.8607
G01 X30.9696 Y9.9043
G01 X31.0493 Y9.9518
G01 X31.0647 Y9.9621
G01 X31.1317 Y10.0118
G01 X31.1460 Y10.0235
G01 X31.2145 Y10.0859
G01 X31.2829 Y10.1614
G01 X31.3437 Y10.2433
G01 X31.3915 Y10.3227
G01 X31.4002 Y10.3390
G01 X31.4359 Y10.4144
G01 X31.4430 Y10.4315
G01 X31.4740 Y10.5189
G01 X31.4988 Y10.6178
G01 X31.5137 Y10.7186
G01 X31.5187 Y10.8158
G01 X31.5185 Y10.8297
G01 X31.5137 Y10.9222
G01 X31.4988 Y11.0230
G01 X31.4740 Y11.1219
G01 X31.4430 Y11.2093
G01 X31.4378 Y11.2222
G01 X31.3961 Y11.3100
G01 X31.3486 Y11.3897
G01 X31.3410 Y11.4013
G01 X31.2886 Y11.4721
G01 X31.2800 Y11.4829
G01 X31.2145 Y11.5549
G01 X31.1690 Y11.5964
G01 X31.1690 Y14.2748
G01 X31.1657 Y14.3423
G01 X31.1557 Y14.4092
G01 X31.1418 Y14.4659
G01 X31.1364 Y14.4836
G01 X31.1165 Y14.5385
G01 X31.0918 Y14.5913
G01 X31.0831 Y14.6076
G01 X31.0554 Y14.6537
G01 X31.0475 Y14.6651
G01 X31.0126 Y14.7119
G01 X30.9704 Y14.7587
G01 X30.7626 Y14.9666
G01 X30.7626 Y15.6178
G01 X32.7605 Y15.6178
G01 X32.8200 Y15.5967
G01 X32.8856 Y15.5803
G01 X32.9525 Y15.5703
G01 X33.0107 Y15.5673
G01 X33.0246 Y15.5671
G01 X33.0875 Y15.5703
G01 X33.1453 Y15.5787
G01 X33.1634 Y15.5823
G01 X33.2200 Y15.5967
G01 X33.2837 Y15.6195
G01 X33.3365 Y15.6442
G01 X33.3528 Y15.6529
G01 X33.3949 Y15.6782
G01 X33.4066 Y15.6858
G01 X33.4571 Y15.7234
G01 X33.5072 Y15.7688
G01 X33.5526 Y15.8189
G01 X33.5929 Y15.8732
G01 X33.6276 Y15.9312
G01 X33.6565 Y15.9923
G01 X33.6793 Y16.0560
G01 X33.6937 Y16.1126
G01 X33.6973 Y16.1307
G01 X33.7057 Y16.1885
G01 X33.7090 Y16.2560
G01 X33.7090 Y17.7318
G01 X33.7191 Y17.7413
G01 X33.7286 Y17.7514
G01 X38.7396 Y17.7515
G01 X38.7933 Y17.7541
G01 X38.8117 Y17.7559
G01 X38.8694 Y17.7647
G01 X38.9261 Y17.7786
G01 X38.9438 Y17.7840
G01 X38.9987 Y17.8039
G01 X39.0515 Y17.8286
G01 X39.0638 Y17.8350
G01 X39.1178 Y17.8675
G01 X39.1648 Y17.9021
G01 X39.1791 Y17.9139
G01 X39.2222 Y17.9532
G01 X44.3022 Y23.0332
G01 X44.3476 Y23.0833
G01 X44.3852 Y23.1338
G01 X44.3928 Y23.1455
G01 X44.4181 Y23.1876
G01 X44.4268 Y23.2039
G01 X44.4515 Y23.2567
G01 X44.4743 Y23.3204
G01 X44.4887 Y23.3770
G01 X44.4923 Y23.3951
G01 X44.5007 Y23.4529
G01 X44.5039 Y23.5158
G01 X44.5040 Y27.7504
G01 X44.5010 Y27.8133
G01 X44.4989 Y27.8314
G01 X44.5080 Y27.8362
G01 X44.5198 Y27.8435
G01 X44.5311 Y27.8516
G01 X44.5417 Y27.8606
G01 X44.5484 Y27.8670
G01 X44.5579 Y27.8771
G01 X44.5666 Y27.8880
G01 X44.5744 Y27.8994
G01 X44.5814 Y27.9114
G01 X44.5875 Y27.9239
G01 X44.5927 Y27.9368
G01 X44.5969 Y27.9501
G01 X44.5991 Y27.9591
G01 X44.6017 Y27.9727
G01 X44.6032 Y27.9865
G01 X44.6037 Y28.0004
G01 X44.6035 Y29.2097
G01 X44.6017 Y29.2281
G01 X44.5991 Y29.2417
G01 X44.5956 Y29.2552
G01 X44.5894 Y29.2726
G01 X44.5814 Y29.2894
G01 X44.5744 Y29.3014
G01 X44.5638 Y29.3165
G01 X44.5548 Y29.3271
G01 X44.5417 Y29.3402
G01 X44.5274 Y29.3520
G01 X44.5120 Y29.3623
G01 X44.4957 Y29.3710
G01 X44.4786 Y29.3781
G01 X44.4609 Y29.3835
G01 X44.4427 Y29.3871
G01 X44.4243 Y29.3889
G01 X43.2150 Y29.3891
G01 X43.2011 Y29.3886
G01 X43.1873 Y29.3871
G01 X43.1737 Y29.3845
G01 X43.1647 Y29.3823
G01 X43.1514 Y29.3781
G01 X43.1385 Y29.3729
G01 X43.1260 Y29.3668
G01 X43.1180 Y29.3623
G01 X43.1102 Y29.3573
G01 X43.0989 Y29.3492
G01 X43.0883 Y29.3402
G01 X43.0783 Y29.3305
G01 X43.0691 Y29.3201
G01 X43.0634 Y29.3128
G01 X43.0556 Y29.3014
G01 X43.0486 Y29.2894
G01 X36.6104 Y29.2893
G01 X36.5475 Y29.2861
G01 X36.4806 Y29.2761
G01 X36.4150 Y29.2597
G01 X36.3600 Y29.2403
G01 X36.3429 Y29.2332
G01 X36.2943 Y29.2102
G01 X36.2822 Y29.2035
G01 X36.2401 Y29.1782
G01 X36.2284 Y29.1706
G01 X36.1852 Y29.1387
G01 X36.1709 Y29.1269
G01 X36.1278 Y29.0876
G01 X32.5328 Y25.4926
G01 X32.4935 Y25.4495
G01 X32.4817 Y25.4352
G01 X32.4471 Y25.3882
G01 X32.4169 Y25.3382
G01 X32.4082 Y25.3219
G01 X32.3835 Y25.2691
G01 X32.3607 Y25.2054
G01 X32.3443 Y25.1398
G01 X32.3355 Y25.0821
G01 X32.3340 Y25.0683
G01 X32.3310 Y25.0054
G01 X32.3310 Y24.2290
G01 X32.3209 Y24.2195
G01 X32.3145 Y24.2128
G01 X32.2557 Y24.1476
G01 X32.1979 Y24.0697
G01 X32.1480 Y23.9865
G01 X32.1065 Y23.8988
G01 X32.0739 Y23.8074
G01 X32.0503 Y23.7133
G01 X32.0360 Y23.6173
G01 X32.0313 Y23.5204
G01 X32.0360 Y23.4235
G01 X32.0487 Y23.3366
G01 X32.0523 Y23.3185
G01 X32.0739 Y23.2334
G01 X32.1032 Y23.1507
G01 X32.1103 Y23.1336
G01 X32.1439 Y23.0626
G01 X32.1526 Y23.0463
G01 X32.1979 Y22.9711
G01 X32.2557 Y22.8932
G01 X32.3209 Y22.8213
G01 X32.3857 Y22.7622
G01 X32.3964 Y22.7532
G01 X32.4707 Y22.6983
G01 X32.5539 Y22.6484
G01 X32.6416 Y22.6069
G01 X32.7330 Y22.5743
G01 X32.8271 Y22.5507
G01 X32.9231 Y22.5364
G01 X33.0200 Y22.5317
G01 X33.1169 Y22.5364
G01 X33.2129 Y22.5507
G01 X33.3070 Y22.5743
G01 X33.3984 Y22.6069
G01 X33.4861 Y22.6484
G01 X33.5693 Y22.6983
G01 X33.6472 Y22.7561
G01 X33.7191 Y22.8213
G01 X33.7813 Y22.8896
G01 X33.7900 Y22.9005
G01 X33.8421 Y22.9711
G01 X33.8920 Y23.0543
G01 X33.9335 Y23.1420
G01 X33.9632 Y23.2246
G01 X33.9686 Y23.2423
G01 X33.9877 Y23.3185
G01 X33.9913 Y23.3366
G01 X34.0040 Y23.4235
G01 X34.0085 Y23.5111
G01 X34.0085 Y23.5297
G01 X34.0040 Y23.6173
G01 X33.9897 Y23.7133
G01 X33.9661 Y23.8074
G01 X33.9335 Y23.8988
G01 X33.8920 Y23.9865
G01 X33.8421 Y24.0697
G01 X33.7843 Y24.1476
G01 X33.7255 Y24.2128
G01 X33.7191 Y24.2195
G01 X33.7090 Y24.2290
G01 X33.7090 Y24.7200
G01 X36.9004 Y27.9114
G01 X43.0486 Y27.9114
G01 X43.0581 Y27.8956
G01 X43.0662 Y27.8843
G01 X43.0752 Y27.8737
G01 X43.0849 Y27.8637
G01 X43.0953 Y27.8545
G01 X43.1063 Y27.8461
G01 X43.1180 Y27.8385
G01 X43.1311 Y27.8314
G01 X43.1290 Y27.8133
G01 X43.1260 Y27.7504
G01 X43.1260 Y23.8058
G01 X38.4496 Y19.1294
G01 X33.7286 Y19.1294
G01 X33.7191 Y19.1395
G01 X33.7124 Y19.1459
G01 X33.6543 Y19.1986
G01 X33.6399 Y19.2104
G01 X33.5693 Y19.2625
G01 X33.4861 Y19.3124
G01 X33.4068 Y19.3501
G01 X33.3897 Y19.3572
G01 X33.3070 Y19.3865
G01 X33.2129 Y19.4101
G01 X33.1169 Y19.4244
G01 X33.0293 Y19.4289
G01 X33.0107 Y19.4289
G01 X32.9231 Y19.4244
G01 X32.8362 Y19.4117
G01 X32.8181 Y19.4081
G01 X32.7330 Y19.3865
G01 X32.6459 Y19.3556
G01 X32.6332 Y19.3501
G01 X32.5622 Y19.3165
G01 X32.5459 Y19.3078
G01 X32.4707 Y19.2625
G01 X32.4001 Y19.2104
G01 X32.3857 Y19.1986
G01 X32.3209 Y19.1395
G01 X32.2618 Y19.0747
G01 X32.2500 Y19.0603
G01 X32.1979 Y18.9897
G01 X32.1526 Y18.9145
G01 X32.1439 Y18.8982
G01 X32.1065 Y18.8188
G01 X32.0768 Y18.7362
G01 X32.0714 Y18.7185
G01 X32.0503 Y18.6333
G01 X32.0366 Y18.5419
G01 X32.0354 Y18.5281
G01 X32.0313 Y18.4404
G01 X32.0354 Y18.3527
G01 X32.0372 Y18.3343
G01 X32.0487 Y18.2566
G01 X32.0523 Y18.2385
G01 X32.0739 Y18.1534
G01 X32.1032 Y18.0707
G01 X32.1103 Y18.0536
G01 X32.1480 Y17.9743
G01 X32.1979 Y17.8911
G01 X32.2557 Y17.8132
G01 X32.3145 Y17.7480
G01 X32.3209 Y17.7413
G01 X32.3310 Y17.7318
G01 X32.3310 Y16.9958
G01 X30.8283 Y16.9958
G01 X30.7727 Y17.0567
G01 X30.7008 Y17.1219
G01 X30.6229 Y17.1797
G01 X30.5477 Y17.2250
G01 X30.5314 Y17.2337
G01 X30.4604 Y17.2673
G01 X30.4433 Y17.2744
G01 X30.3606 Y17.3037
G01 X30.2755 Y17.3253
G01 X30.2574 Y17.3289
G01 X30.1797 Y17.3404
G01 X30.1613 Y17.3422
G01 X30.0736 Y17.3463
G01 X29.9767 Y17.3416
G01 X29.8807 Y17.3273
G01 X29.7955 Y17.3062
G01 X29.7778 Y17.3008
G01 X29.7039 Y17.2744
G01 X29.6910 Y17.2692
G01 X29.6158 Y17.2337
G01 X29.5995 Y17.2250
G01 X29.5243 Y17.1797
G01 X29.4537 Y17.1276
G01 X29.4393 Y17.1158
G01 X29.3745 Y17.0567
G01 X29.3093 Y16.9848
G01 X29.2515 Y16.9069
G01 X29.2062 Y16.8317
G01 X29.1975 Y16.8154
G01 X29.1601 Y16.7360
G01 X29.1304 Y16.6534
G01 X29.1250 Y16.6357
G01 X29.1039 Y16.5505
G01 X29.0896 Y16.4545
G01 X29.0851 Y16.3669
G01 X29.0851 Y16.3483
G01 X29.0896 Y16.2607
G01 X29.1023 Y16.1738
G01 X29.1059 Y16.1557
G01 X29.1275 Y16.0706
G01 X29.1568 Y15.9879
G01 X29.1639 Y15.9708
G01 X29.2016 Y15.8915
G01 X29.2466 Y15.8161
G01 X29.2568 Y15.8007
G01 X29.3093 Y15.7304
G01 X29.3681 Y15.6652
G01 X29.3745 Y15.6585
G01 X29.3846 Y15.6490
G00 Z1.2000
G00 X29.5059 Y15.7027
G01 F60.00
G01 Z-0.0650
G01 F120.00
G01 X29.5059 Y14.6812
G01 X29.5087 Y14.6256
G01 X29.5163 Y14.5737
G01 X29.5176 Y14.5672
G01 X29.5295 Y14.5196
G01 X29.5314 Y14.5133
G01 X29.5492 Y14.4640
G01 X29.5715 Y14.4166
G01 X29.5746 Y14.4107
G01 X29.6016 Y14.3658
G01 X29.6328 Y14.3237
G01 X29.6370 Y14.3186
G01 X29.6722 Y14.2798
G01 X29.9123 Y14.0397
G01 X29.9123 Y11.5403
G01 X29.8967 Y11.5285
G01 X29.8313 Y11.4691
G01 X29.7730 Y11.4049
G01 X29.7688 Y11.3998
G01 X29.7172 Y11.3301
G01 X29.6726 Y11.2557
G01 X29.6694 Y11.2499
G01 X29.6338 Y11.1745
G01 X29.6312 Y11.1684
G01 X29.6021 Y11.0867
G01 X29.5810 Y11.0026
G01 X29.5797 Y10.9961
G01 X29.5670 Y10.9103
G01 X29.5627 Y10.8237
G01 X29.5627 Y10.8171
G01 X29.5670 Y10.7305
G01 X29.5802 Y10.6414
G01 X29.6021 Y10.5541
G01 X29.6324 Y10.4693
G01 X29.6709 Y10.3879
G01 X29.7172 Y10.3107
G01 X29.7708 Y10.2384
G01 X29.8313 Y10.1717
G01 X29.8980 Y10.1112
G01 X29.9703 Y10.0576
G01 X30.0475 Y10.0113
G01 X30.1289 Y9.9728
G01 X30.2137 Y9.9425
G01 X30.3010 Y9.9206
G01 X30.3901 Y9.9074
G01 X30.4800 Y9.9030
G01 X30.5699 Y9.9074
G01 X30.6590 Y9.9206
G01 X30.7463 Y9.9425
G01 X30.8280 Y9.9716
G01 X30.8341 Y9.9742
G01 X30.9095 Y10.0098
G01 X30.9153 Y10.0130
G01 X30.9897 Y10.0576
G01 X31.0620 Y10.1112
G01 X31.1287 Y10.1717
G01 X31.1892 Y10.2384
G01 X31.2428 Y10.3107
G01 X31.2874 Y10.3851
G01 X31.2906 Y10.3909
G01 X31.3262 Y10.4663
G01 X31.3288 Y10.4724
G01 X31.3579 Y10.5541
G01 X31.3798 Y10.6414
G01 X31.3930 Y10.7305
G01 X31.3974 Y10.8204
G01 X31.3930 Y10.9103
G01 X31.3803 Y10.9961
G01 X31.3790 Y11.0026
G01 X31.3579 Y11.0867
G01 X31.3288 Y11.1684
G01 X31.3262 Y11.1745
G01 X31.2906 Y11.2499
G01 X31.2874 Y11.2557
G01 X31.2428 Y11.3301
G01 X31.1892 Y11.4024
G01 X31.1275 Y11.4703
G01 X31.0633 Y11.5285
G01 X31.0477 Y11.5403
G01 X31.0477 Y14.2748
G01 X31.0449 Y14.3304
G01 X31.0373 Y14.3823
G01 X31.0360 Y14.3888
G01 X31.0232 Y14.4396
G01 X31.0056 Y14.4889
G01 X31.0031 Y14.4951
G01 X30.9806 Y14.5424
G01 X30.9510 Y14.5915
G01 X30.9188 Y14.6349
G01 X30.8825 Y14.6750
G01 X30.6413 Y14.9163
G01 X30.6413 Y15.7027
G01 X30.6814 Y15.7391
G01 X32.7865 Y15.7391
G01 X32.8043 Y15.7309
G01 X32.8536 Y15.7133
G01 X32.9076 Y15.6996
G01 X32.9644 Y15.6911
G01 X33.0217 Y15.6884
G01 X33.0756 Y15.6911
G01 X33.1275 Y15.6987
G01 X33.1340 Y15.7000
G01 X33.1848 Y15.7128
G01 X33.2372 Y15.7316
G01 X33.2846 Y15.7539
G01 X33.2905 Y15.7570
G01 X33.3367 Y15.7850
G01 X33.3801 Y15.8172
G01 X33.4214 Y15.8546
G01 X33.4588 Y15.8959
G01 X33.4920 Y15.9406
G01 X33.5206 Y15.9884
G01 X33.5444 Y16.0388
G01 X33.5632 Y16.0912
G01 X33.5770 Y16.1469
G01 X33.5849 Y16.2004
G01 X33.5877 Y16.2560
G01 X33.5877 Y17.7855
G01 X33.6333 Y17.8271
G01 X33.6749 Y17.8727
G01 X38.7367 Y17.8728
G01 X38.7906 Y17.8755
G01 X38.8457 Y17.8837
G01 X38.8998 Y17.8972
G01 X38.9522 Y17.9160
G01 X39.0026 Y17.9398
G01 X39.0504 Y17.9684
G01 X39.0951 Y18.0016
G01 X39.1364 Y18.0390
G01 X44.2164 Y23.1190
G01 X44.2538 Y23.1603
G01 X44.2851 Y23.2023
G01 X44.2888 Y23.2078
G01 X44.3140 Y23.2499
G01 X44.3171 Y23.2558
G01 X44.3394 Y23.3032
G01 X44.3572 Y23.3525
G01 X44.3591 Y23.3588
G01 X44.3710 Y23.4064
G01 X44.3723 Y23.4129
G01 X44.3799 Y23.4648
G01 X44.3827 Y23.5204
G01 X44.3827 Y27.7504
G01 X44.3799 Y27.8060
G01 X44.3720 Y27.8595
G01 X44.3587 Y27.9136
G01 X44.3519 Y27.9330
G01 X44.4200 Y27.9332
G01 X44.4314 Y27.9350
G01 X44.4377 Y27.9369
G01 X44.4438 Y27.9395
G01 X44.4511 Y27.9435
G01 X44.4578 Y27.9483
G01 X44.4638 Y27.9539
G01 X44.4701 Y27.9616
G01 X44.4752 Y27.9701
G01 X44.4785 Y27.9777
G01 X44.4811 Y27.9873
G01 X44.4822 Y27.9954
G01 X44.4824 Y29.2021
G01 X44.4819 Y29.2087
G01 X44.4808 Y29.2152
G01 X44.4773 Y29.2262
G01 X44.4719 Y29.2365
G01 X44.4649 Y29.2457
G01 X44.4603 Y29.2503
G01 X44.4552 Y29.2545
G01 X44.4497 Y29.2582
G01 X44.4438 Y29.2613
G01 X44.4377 Y29.2639
G01 X44.4298 Y29.2662
G01 X44.4233 Y29.2673
G01 X44.4167 Y29.2678
G01 X43.2117 Y29.2677
G01 X43.2035 Y29.2668
G01 X43.1954 Y29.2649
G01 X43.1892 Y29.2627
G01 X43.1818 Y29.2590
G01 X43.1748 Y29.2545
G01 X43.1685 Y29.2492
G01 X43.1629 Y29.2432
G01 X43.1581 Y29.2365
G01 X43.1541 Y29.2292
G01 X43.1515 Y29.2231
G01 X43.1496 Y29.2168
G01 X43.1483 Y29.2103
G01 X43.1476 Y29.2021
G01 X43.1476 Y29.1681
G01 X36.6133 Y29.1680
G01 X36.5594 Y29.1653
G01 X36.5043 Y29.1571
G01 X36.4502 Y29.1436
G01 X36.4009 Y29.1260
G01 X36.3947 Y29.1235
G01 X36.3474 Y29.1010
G01 X36.3024 Y29.0742
G01 X36.2969 Y29.0705
G01 X36.2575 Y29.0412
G01 X36.2524 Y29.0370
G01 X36.2136 Y29.0018
G01 X32.6186 Y25.4068
G01 X32.5812 Y25.3655
G01 X32.5499 Y25.3235
G01 X32.5462 Y25.3180
G01 X32.5210 Y25.2759
G01 X32.5179 Y25.2700
G01 X32.4956 Y25.2226
G01 X32.4778 Y25.1733
G01 X32.4759 Y25.1670
G01 X32.4633 Y25.1161
G01 X32.4549 Y25.0594
G01 X32.4523 Y25.0054
G01 X32.4523 Y24.1753
G01 X32.4067 Y24.1337
G01 X32.3517 Y24.0732
G01 X32.3475 Y24.0681
G01 X32.3007 Y24.0050
G01 X32.2970 Y23.9995
G01 X32.2550 Y23.9293
G01 X32.2200 Y23.8554
G01 X32.2174 Y23.8493
G01 X32.1900 Y23.7722
G01 X32.1693 Y23.6896
G01 X32.1568 Y23.6054
G01 X32.1526 Y23.5221
G01 X32.1568 Y23.4354
G01 X32.1687 Y23.3544
G01 X32.1700 Y23.3480
G01 X32.1900 Y23.2686
G01 X32.2174 Y23.1915
G01 X32.2200 Y23.1854
G01 X32.2535 Y23.1145
G01 X32.2567 Y23.1086
G01 X32.2988 Y23.0385
G01 X32.3495 Y22.9701
G01 X32.4067 Y22.9071
G01 X32.4672 Y22.8521
G01 X32.4723 Y22.8479
G01 X32.5381 Y22.7992
G01 X32.6111 Y22.7554
G01 X32.6881 Y22.7190
G01 X32.7682 Y22.6904
G01 X32.8508 Y22.6697
G01 X32.9350 Y22.6572
G01 X33.0200 Y22.6530
G01 X33.1050 Y22.6572
G01 X33.1892 Y22.6697
G01 X33.2718 Y22.6904
G01 X33.3519 Y22.7190
G01 X33.4289 Y22.7554
G01 X33.5019 Y22.7992
G01 X33.5703 Y22.8499
G01 X33.6333 Y22.9071
G01 X33.6894 Y22.9689
G01 X33.7412 Y23.0385
G01 X33.7850 Y23.1115
G01 X33.8214 Y23.1885
G01 X33.8500 Y23.2686
G01 X33.8707 Y23.3512
G01 X33.8832 Y23.4354
G01 X33.8874 Y23.5204
G01 X33.8835 Y23.6021
G01 X33.8828 Y23.6087
G01 X33.8707 Y23.6896
G01 X33.8500 Y23.7722
G01 X33.8214 Y23.8523
G01 X33.7857 Y23.9278
G01 X33.7412 Y24.0023
G01 X33.6905 Y24.0707
G01 X33.6333 Y24.1337
G01 X33.5877 Y24.1753
G01 X33.5877 Y24.7703
G01 X36.8501 Y28.0327
G01 X43.1476 Y28.0327
G01 X43.1477 Y27.9971
G01 X43.1486 Y27.9889
G01 X43.1505 Y27.9808
G01 X43.1548 Y27.9701
G01 X43.1599 Y27.9616
G01 X43.1662 Y27.9539
G01 X43.1735 Y27.9473
G01 X43.1818 Y27.9418
G01 X43.1892 Y27.9381
G01 X43.1970 Y27.9354
G01 X43.2051 Y27.9337
G01 X43.2150 Y27.9330
G01 X43.2781 Y27.9330
G01 X43.2713 Y27.9136
G01 X43.2580 Y27.8595
G01 X43.2501 Y27.8060
G01 X43.2473 Y27.7504
G01 X43.2473 Y23.7555
G01 X38.4999 Y19.0081
G01 X33.6749 Y19.0081
G01 X33.6333 Y19.0537
G01 X33.5703 Y19.1109
G01 X33.5019 Y19.1616
G01 X33.4318 Y19.2037
G01 X33.4259 Y19.2069
G01 X33.3550 Y19.2404
G01 X33.3489 Y19.2430
G01 X33.2718 Y19.2704
G01 X33.1924 Y19.2904
G01 X33.1860 Y19.2917
G01 X33.1083 Y19.3032
G01 X33.1017 Y19.3039
G01 X33.0200 Y19.3078
G01 X32.9350 Y19.3036
G01 X32.8540 Y19.2917
G01 X32.8476 Y19.2904
G01 X32.7682 Y19.2704
G01 X32.6911 Y19.2430
G01 X32.6850 Y19.2404
G01 X32.6111 Y19.2054
G01 X32.5409 Y19.1634
G01 X32.5354 Y19.1597
G01 X32.4697 Y19.1109
G01 X32.4091 Y19.0560
G01 X32.4044 Y19.0513
G01 X32.3517 Y18.9932
G01 X32.3475 Y18.9881
G01 X32.2988 Y18.9223
G01 X32.2567 Y18.8522
G01 X32.2535 Y18.8463
G01 X32.2186 Y18.7723
G01 X32.1900 Y18.6922
G01 X32.1700 Y18.6128
G01 X32.1687 Y18.6064
G01 X32.1568 Y18.5254
G01 X32.1526 Y18.4404
G01 X32.1565 Y18.3587
G01 X32.1572 Y18.3521
G01 X32.1693 Y18.2712
G01 X32.1891 Y18.1918
G01 X32.1910 Y18.1855
G01 X32.2180 Y18.1100
G01 X32.2550 Y18.0315
G01 X32.2997 Y17.9571
G01 X32.3475 Y17.8927
G01 X32.3517 Y17.8876
G01 X32.4067 Y17.8271
G01 X32.4523 Y17.7855
G01 X32.4523 Y16.8745
G01 X30.7690 Y16.8745
G01 X30.7430 Y16.9091
G01 X30.6858 Y16.9721
G01 X30.6239 Y17.0281
G01 X30.5569 Y17.0779
G01 X30.4825 Y17.1226
G01 X30.4086 Y17.1576
G01 X30.4025 Y17.1602
G01 X30.3238 Y17.1881
G01 X30.2428 Y17.2083
G01 X30.1586 Y17.2208
G01 X30.0736 Y17.2250
G01 X29.9919 Y17.2211
G01 X29.9853 Y17.2204
G01 X29.9076 Y17.2089
G01 X29.9012 Y17.2076
G01 X29.8218 Y17.1876
G01 X29.7432 Y17.1596
G01 X29.6647 Y17.1226
G01 X29.5945 Y17.0806
G01 X29.5890 Y17.0769
G01 X29.5233 Y17.0281
G01 X29.4627 Y16.9732
G01 X29.4580 Y16.9685
G01 X29.4031 Y16.9079
G01 X29.3543 Y16.8422
G01 X29.3506 Y16.8367
G01 X29.3086 Y16.7665
G01 X29.2736 Y16.6926
G01 X29.2710 Y16.6865
G01 X29.2436 Y16.6094
G01 X29.2226 Y16.5252
G01 X29.2108 Y16.4459
G01 X29.2101 Y16.4393
G01 X29.2062 Y16.3576
G01 X29.2101 Y16.2759
G01 X29.2108 Y16.2693
G01 X29.2229 Y16.1884
G01 X29.2427 Y16.1090
G01 X29.2446 Y16.1027
G01 X29.2722 Y16.0257
G01 X29.3071 Y15.9517
G01 X29.3103 Y15.9458
G01 X29.3524 Y15.8757
G01 X29.4011 Y15.8099
G01 X29.4053 Y15.8048
G01 X29.4603 Y15.7443
G01 X29.5059 Y15.7027
G00 Z1.2000
G00 X19.6732 Y30.7314
G01 F60.00
G01 Z-0.0650
G01 F120.00
G01 X20.2660 Y30.7314
G01 X20.2660 Y28.6004
G01 X20.2693 Y28.5329
G01 X20.2793 Y28.4660
G01 X20.2957 Y28.4004
G01 X20.3185 Y28.3367
G01 X20.3474 Y28.2756
G01 X20.3821 Y28.2176
G01 X20.4224 Y28.1633
G01 X20.4678 Y28.1132
G01 X20.5179 Y28.0678
G01 X20.5647 Y28.0329
G01 X20.5801 Y28.0226
G01 X20.6302 Y27.9928
G01 X20.6913 Y27.9639
G01 X20.7550 Y27.9411
G01 X20.8116 Y27.9267
G01 X20.8297 Y27.9231
G01 X20.8829 Y27.9153
G01 X20.8967 Y27.9141
G01 X20.9550 Y27.9114
G01 X23.0913 Y27.9114
G01 X23.0913 Y27.7458
G01 X23.0927 Y27.7273
G01 X23.0949 Y27.7136
G01 X23.0981 Y27.7001
G01 X23.1023 Y27.6868
G01 X23.1075 Y27.6739
G01 X23.1136 Y27.6614
G01 X23.1206 Y27.6494
G01 X23.1284 Y27.6380
G01 X23.1371 Y27.6271
G01 X23.1466 Y27.6170
G01 X23.1567 Y27.6075
G01 X23.1676 Y27.5988
G01 X23.1790 Y27.5910
G01 X23.1910 Y27.5840
G01 X23.2035 Y27.5779
G01 X23.2164 Y27.5727
G01 X23.2297 Y27.5685
G01 X23.2432 Y27.5653
G01 X23.2615 Y27.5626
G01 X23.2754 Y27.5617
G01 X23.4410 Y27.5617
G01 X23.4410 Y25.0758
G01 X22.8739 Y24.5087
G01 X22.8600 Y24.5091
G01 X22.8507 Y24.5089
G01 X22.7631 Y24.5044
G01 X22.6671 Y24.4901
G01 X22.5730 Y24.4665
G01 X22.4816 Y24.4339
G01 X22.3939 Y24.3924
G01 X22.3107 Y24.3425
G01 X22.2328 Y24.2847
G01 X22.1676 Y24.2259
G01 X22.1609 Y24.2195
G01 X22.1514 Y24.2094
G01 X20.6737 Y24.2094
G01 X20.6737 Y24.3204
G01 X20.6732 Y24.3343
G01 X20.6723 Y24.3435
G01 X20.6691 Y24.3617
G01 X20.6642 Y24.3796
G01 X20.6575 Y24.3969
G01 X20.6514 Y24.4094
G01 X20.6469 Y24.4174
G01 X20.6366 Y24.4328
G01 X20.6309 Y24.4401
G01 X20.6217 Y24.4505
G01 X20.6117 Y24.4602
G01 X20.6047 Y24.4663
G01 X20.5974 Y24.4720
G01 X20.5860 Y24.4798
G01 X20.5780 Y24.4846
G01 X20.5657 Y24.4910
G01 X20.5529 Y24.4965
G01 X20.5442 Y24.4996
G01 X20.5309 Y24.5035
G01 X20.5218 Y24.5055
G01 X20.5081 Y24.5077
G01 X20.4989 Y24.5086
G01 X20.4850 Y24.5091
G01 X18.8850 Y24.5091
G01 X18.8711 Y24.5086
G01 X18.8619 Y24.5077
G01 X18.8527 Y24.5063
G01 X18.8391 Y24.5035
G01 X18.8214 Y24.4981
G01 X18.8128 Y24.4948
G01 X18.8001 Y24.4890
G01 X18.7920 Y24.4846
G01 X18.7802 Y24.4773
G01 X18.7689 Y24.4692
G01 X18.7583 Y24.4602
G01 X18.7516 Y24.4538
G01 X18.7421 Y24.4437
G01 X18.7334 Y24.4328
G01 X18.7256 Y24.4214
G01 X18.7208 Y24.4134
G01 X18.7144 Y24.4011
G01 X18.7106 Y24.3926
G01 X18.7058 Y24.3796
G01 X18.7031 Y24.3707
G01 X18.6999 Y24.3572
G01 X18.6977 Y24.3435
G01 X18.6965 Y24.3297
G01 X18.6963 Y22.7204
G01 X18.6968 Y22.7065
G01 X18.6983 Y22.6927
G01 X18.7019 Y22.6745
G01 X18.7058 Y22.6612
G01 X18.7106 Y22.6482
G01 X18.7164 Y22.6355
G01 X18.7231 Y22.6234
G01 X18.7307 Y22.6117
G01 X18.7391 Y22.6007
G01 X18.7483 Y22.5903
G01 X18.7583 Y22.5806
G01 X18.7689 Y22.5716
G01 X18.7802 Y22.5635
G01 X18.7920 Y22.5562
G01 X18.8043 Y22.5498
G01 X18.8171 Y22.5443
G01 X18.8302 Y22.5398
G01 X18.8437 Y22.5363
G01 X18.8573 Y22.5337
G01 X18.8711 Y22.5322
G01 X18.8850 Y22.5317
G01 X20.4943 Y22.5319
G01 X20.5035 Y22.5326
G01 X20.5173 Y22.5345
G01 X20.5263 Y22.5363
G01 X20.5398 Y22.5398
G01 X20.5529 Y22.5443
G01 X20.5615 Y22.5479
G01 X20.5740 Y22.5540
G01 X20.5820 Y22.5585
G01 X20.5898 Y22.5635
G01 X20.6011 Y22.5716
G01 X20.6083 Y22.5775
G01 X20.6184 Y22.5870
G01 X20.6279 Y22.5971
G01 X20.6338 Y22.6043
G01 X20.6419 Y22.6156
G01 X20.6469 Y22.6234
G01 X20.6556 Y22.6397
G01 X20.6627 Y22.6568
G01 X20.6656 Y22.6656
G01 X20.6691 Y22.6791
G01 X20.6723 Y22.6973
G01 X20.6732 Y22.7065
G01 X20.6737 Y22.7204
G01 X20.6737 Y22.8314
G01 X22.1514 Y22.8314
G01 X22.1609 Y22.8213
G01 X22.1676 Y22.8149
G01 X22.2328 Y22.7561
G01 X22.3107 Y22.6983
G01 X22.3939 Y22.6484
G01 X22.4816 Y22.6069
G01 X22.5730 Y22.5743
G01 X22.6671 Y22.5507
G01 X22.7631 Y22.5364
G01 X22.8507 Y22.5319
G01 X22.8646 Y22.5317
G01 X22.9569 Y22.5364
G01 X23.0438 Y22.5491
G01 X23.0619 Y22.5527
G01 X23.1381 Y22.5718
G01 X23.1558 Y22.5772
G01 X23.2297 Y22.6036
G01 X23.2468 Y22.6107
G01 X23.3261 Y22.6484
G01 X23.4015 Y22.6934
G01 X23.4169 Y22.7036
G01 X23.4872 Y22.7561
G01 X23.5524 Y22.8149
G01 X23.5591 Y22.8213
G01 X23.5686 Y22.8314
G01 X23.7060 Y22.8314
G01 X24.7110 Y21.8264
G01 X24.7110 Y14.0690
G01 X24.7009 Y14.0595
G01 X24.6945 Y14.0528
G01 X24.6357 Y13.9876
G01 X24.5779 Y13.9097
G01 X24.5280 Y13.8265
G01 X24.4903 Y13.7472
G01 X24.4832 Y13.7301
G01 X24.4568 Y13.6562
G01 X24.4514 Y13.6385
G01 X24.4303 Y13.5533
G01 X24.4172 Y13.4665
G01 X24.4154 Y13.4481
G01 X24.4113 Y13.3604
G01 X24.4160 Y13.2635
G01 X24.4303 Y13.1675
G01 X24.4514 Y13.0823
G01 X24.4568 Y13.0646
G01 X24.4865 Y12.9820
G01 X24.5239 Y12.9026
G01 X24.5326 Y12.8863
G01 X24.5730 Y12.8189
G01 X24.5832 Y12.8035
G01 X24.6357 Y12.7332
G01 X24.7009 Y12.6613
G01 X24.7728 Y12.5961
G01 X24.8507 Y12.5383
G01 X24.9339 Y12.4884
G01 X25.0132 Y12.4507
G01 X25.0303 Y12.4436
G01 X25.1130 Y12.4143
G01 X25.1981 Y12.3927
G01 X25.2162 Y12.3891
G01 X25.2939 Y12.3776
G01 X25.3123 Y12.3758
G01 X25.4000 Y12.3717
G01 X25.4969 Y12.3764
G01 X25.5929 Y12.3907
G01 X25.6781 Y12.4118
G01 X25.6914 Y12.4157
G01 X25.7784 Y12.4469
G01 X25.8578 Y12.4843
G01 X25.8741 Y12.4930
G01 X25.9493 Y12.5383
G01 X26.0272 Y12.5961
G01 X26.0924 Y12.6549
G01 X26.1055 Y12.6680
G01 X26.1582 Y12.7261
G01 X26.1700 Y12.7405
G01 X26.2221 Y12.8111
G01 X26.2720 Y12.8943
G01 X26.3135 Y12.9820
G01 X26.3432 Y13.0646
G01 X26.3486 Y13.0823
G01 X26.3677 Y13.1585
G01 X26.3713 Y13.1766
G01 X26.3840 Y13.2635
G01 X26.3885 Y13.3511
G01 X26.3885 Y13.3697
G01 X26.3840 Y13.4573
G01 X26.3697 Y13.5533
G01 X26.3461 Y13.6474
G01 X26.3135 Y13.7388
G01 X26.2720 Y13.8265
G01 X26.2221 Y13.9097
G01 X26.1643 Y13.9876
G01 X26.1055 Y14.0528
G01 X26.0991 Y14.0595
G01 X26.0890 Y14.0690
G01 X26.0890 Y22.1118
G01 X26.0863 Y22.1701
G01 X26.0851 Y22.1839
G01 X26.0757 Y22.2462
G01 X26.0618 Y22.3028
G01 X26.0564 Y22.3206
G01 X26.0365 Y22.3754
G01 X26.0076 Y22.4365
G01 X25.9778 Y22.4867
G01 X25.9702 Y22.4984
G01 X25.9551 Y22.5189
G01 X25.9355 Y22.5452
G01 X25.9265 Y22.5559
G01 X25.8872 Y22.5989
G01 X24.4785 Y24.0076
G01 X24.4320 Y24.0500
G01 X24.4211 Y24.0587
G01 X24.3933 Y24.0793
G01 X24.6204 Y24.3065
G01 X24.6626 Y24.3533
G01 X24.7029 Y24.4076
G01 X24.7376 Y24.4656
G01 X24.7628 Y24.5183
G01 X24.7699 Y24.5354
G01 X24.7893 Y24.5904
G01 X24.8037 Y24.6470
G01 X24.8066 Y24.6605
G01 X24.8145 Y24.7137
G01 X24.8163 Y24.7321
G01 X24.8190 Y24.7904
G01 X24.8190 Y27.5617
G01 X24.9800 Y27.5617
G01 X24.9939 Y27.5622
G01 X25.0123 Y27.5645
G01 X25.0259 Y27.5673
G01 X25.0392 Y27.5712
G01 X25.0565 Y27.5779
G01 X25.0690 Y27.5840
G01 X25.0770 Y27.5885
G01 X25.0848 Y27.5935
G01 X25.0961 Y27.6016
G01 X25.1033 Y27.6075
G01 X25.1134 Y27.6170
G01 X25.1229 Y27.6271
G01 X25.1288 Y27.6343
G01 X25.1369 Y27.6456
G01 X25.1419 Y27.6534
G01 X25.1464 Y27.6614
G01 X25.1525 Y27.6739
G01 X25.1577 Y27.6868
G01 X25.1606 Y27.6956
G01 X25.1631 Y27.7045
G01 X25.1659 Y27.7181
G01 X25.1678 Y27.7319
G01 X25.1687 Y27.7504
G01 X25.1687 Y29.4504
G01 X25.1682 Y29.4643
G01 X25.1659 Y29.4827
G01 X25.1631 Y29.4963
G01 X25.1577 Y29.5140
G01 X25.1525 Y29.5269
G01 X25.1464 Y29.5394
G01 X25.1394 Y29.5514
G01 X25.1288 Y29.5665
G01 X25.1167 Y29.5805
G01 X25.1067 Y29.5902
G01 X25.0961 Y29.5992
G01 X25.0848 Y29.6073
G01 X25.0690 Y29.6168
G01 X25.0565 Y29.6229
G01 X25.0392 Y29.6296
G01 X25.0259 Y29.6335
G01 X25.0123 Y29.6363
G01 X24.9939 Y29.6386
G01 X24.9800 Y29.6391
G01 X23.2707 Y29.6389
G01 X23.2615 Y29.6382
G01 X23.2477 Y29.6363
G01 X23.2387 Y29.6345
G01 X23.2252 Y29.6310
G01 X23.2121 Y29.6265
G01 X23.2035 Y29.6229
G01 X23.1910 Y29.6168
G01 X23.1790 Y29.6098
G01 X23.1676 Y29.6020
G01 X23.1567 Y29.5933
G01 X23.1499 Y29.5871
G01 X23.1402 Y29.5771
G01 X23.1312 Y29.5665
G01 X23.1231 Y29.5552
G01 X23.1158 Y29.5434
G01 X23.1114 Y29.5353
G01 X23.1039 Y29.5183
G01 X23.0981 Y29.5007
G01 X23.0941 Y29.4827
G01 X23.0918 Y29.4643
G01 X23.0913 Y29.4504
G01 X23.0913 Y29.2894
G01 X21.6440 Y29.2894
G01 X21.6440 Y30.7891
G01 X21.6777 Y30.7908
G01 X21.6915 Y30.7920
G01 X21.7738 Y30.8041
G01 X21.7874 Y30.8066
G01 X21.8770 Y30.8293
G01 X21.9597 Y30.8586
G01 X21.9726 Y30.8638
G01 X22.0561 Y30.9034
G01 X22.1393 Y30.9533
G01 X22.2172 Y31.0111
G01 X22.2824 Y31.0699
G01 X22.2924 Y31.0796
G01 X22.3543 Y31.1482
G01 X22.4121 Y31.2261
G01 X22.4620 Y31.3093
G01 X22.5035 Y31.3970
G01 X22.5361 Y31.4884
G01 X22.5597 Y31.5825
G01 X22.5740 Y31.6785
G01 X22.5785 Y31.7661
G01 X22.5785 Y31.7847
G01 X22.5740 Y31.8723
G01 X22.5613 Y31.9592
G01 X22.5577 Y31.9773
G01 X22.5361 Y32.0624
G01 X22.5068 Y32.1451
G01 X22.4997 Y32.1622
G01 X22.4661 Y32.2332
G01 X22.4574 Y32.2495
G01 X22.4121 Y32.3247
G01 X22.3543 Y32.4026
G01 X22.2891 Y32.4745
G01 X22.2243 Y32.5336
G01 X22.2136 Y32.5426
G01 X22.1393 Y32.5975
G01 X22.0641 Y32.6428
G01 X22.0478 Y32.6515
G01 X21.9684 Y32.6889
G01 X21.8858 Y32.7186
G01 X21.8681 Y32.7240
G01 X21.7874 Y32.7442
G01 X21.7738 Y32.7467
G01 X21.6869 Y32.7594
G01 X21.5993 Y32.7639
G01 X21.5854 Y32.7641
G01 X21.5023 Y32.7600
G01 X21.4885 Y32.7588
G01 X21.4017 Y32.7460
G01 X21.3881 Y32.7431
G01 X21.3590 Y32.7358
G01 X21.3590 Y35.2600
G01 X21.3881 Y35.2527
G01 X21.4017 Y35.2498
G01 X21.4885 Y35.2370
G01 X21.5023 Y35.2358
G01 X21.5854 Y35.2317
G01 X21.5993 Y35.2319
G01 X21.6869 Y35.2364
G01 X21.7738 Y35.2491
G01 X21.7874 Y35.2516
G01 X21.8770 Y35.2743
G01 X21.9597 Y35.3036
G01 X21.9768 Y35.3107
G01 X22.0561 Y35.3484
G01 X22.1315 Y35.3934
G01 X22.1469 Y35.4036
G01 X22.2136 Y35.4532
G01 X22.2243 Y35.4622
G01 X22.2891 Y35.5213
G01 X22.3482 Y35.5861
G01 X22.3600 Y35.6005
G01 X22.4121 Y35.6711
G01 X22.4574 Y35.7463
G01 X22.4661 Y35.7626
G01 X22.4997 Y35.8336
G01 X22.5068 Y35.8507
G01 X22.5361 Y35.9334
G01 X22.5597 Y36.0275
G01 X22.5740 Y36.1235
G01 X22.5785 Y36.2111
G01 X22.5785 Y36.2297
G01 X22.5746 Y36.3081
G01 X22.5728 Y36.3265
G01 X22.5597 Y36.4133
G01 X22.5386 Y36.4985
G01 X22.5332 Y36.5162
G01 X22.5035 Y36.5988
G01 X22.4620 Y36.6865
G01 X22.4121 Y36.7697
G01 X22.3600 Y36.8403
G01 X22.3482 Y36.8547
G01 X22.2891 Y36.9195
G01 X22.2243 Y36.9786
G01 X22.2099 Y36.9904
G01 X22.1431 Y37.0399
G01 X22.1315 Y37.0474
G01 X22.0561 Y37.0924
G01 X21.9768 Y37.1301
G01 X21.9597 Y37.1372
G01 X21.8770 Y37.1665
G01 X21.7919 Y37.1881
G01 X21.7738 Y37.1917
G01 X21.6915 Y37.2038
G01 X21.6777 Y37.2050
G01 X21.5900 Y37.2091
G01 X21.5023 Y37.2050
G01 X21.4885 Y37.2038
G01 X21.4062 Y37.1917
G01 X21.3926 Y37.1892
G01 X21.3074 Y37.1678
G01 X21.2942 Y37.1636
G01 X21.2589 Y37.1510
G01 X21.2589 Y38.2379
G01 X21.2561 Y38.2956
G01 X21.2490 Y38.3446
G01 X21.2629 Y38.3578
G01 X21.2750 Y38.3718
G01 X21.2857 Y38.3869
G01 X21.2948 Y38.4030
G01 X21.3023 Y38.4200
G01 X21.3081 Y38.4376
G01 X21.3122 Y38.4556
G01 X21.3145 Y38.4740
G01 X21.3150 Y38.4879
G01 X21.3147 Y39.3472
G01 X21.3136 Y39.3610
G01 X21.3113 Y39.3747
G01 X21.3081 Y39.3882
G01 X21.3023 Y39.4058
G01 X21.2969 Y39.4186
G01 X21.2881 Y39.4349
G01 X21.2778 Y39.4503
G01 X21.2692 Y39.4612
G01 X21.2597 Y39.4713
G01 X21.2460 Y39.4838
G01 X21.2311 Y39.4948
G01 X21.2193 Y39.5021
G01 X21.2027 Y39.5104
G01 X21.1898 Y39.5156
G01 X21.1766 Y39.5198
G01 X21.1585 Y39.5238
G01 X21.1447 Y39.5257
G01 X21.1262 Y39.5266
G01 X20.2138 Y39.5266
G01 X20.1999 Y39.5261
G01 X20.1861 Y39.5246
G01 X20.1724 Y39.5220
G01 X20.1546 Y39.5171
G01 X20.1415 Y39.5123
G01 X20.1289 Y39.5065
G01 X20.1128 Y39.4973
G01 X20.1013 Y39.4895
G01 X20.0905 Y39.4808
G01 X20.0803 Y39.4713
G01 X20.0708 Y39.4612
G01 X20.0622 Y39.4503
G01 X20.0519 Y39.4349
G01 X20.0452 Y39.4228
G01 X20.0394 Y39.4101
G01 X20.0346 Y39.3971
G01 X20.0307 Y39.3838
G01 X20.0278 Y39.3702
G01 X20.0259 Y39.3564
G01 X20.0250 Y39.3379
G01 X20.0250 Y38.4879
G01 X20.0255 Y38.4740
G01 X20.0278 Y38.4556
G01 X20.0319 Y38.4376
G01 X20.0377 Y38.4200
G01 X20.0452 Y38.4030
G01 X20.0543 Y38.3869
G01 X20.0650 Y38.3718
G01 X20.0771 Y38.3578
G01 X20.0910 Y38.3446
G01 X20.0839 Y38.2956
G01 X20.0811 Y38.2379
G01 X20.0811 Y36.2918
G01 X20.0646 Y36.2642
G01 X20.0602 Y36.2561
G01 X20.0353 Y36.2033
G01 X20.0301 Y36.1904
G01 X20.0136 Y36.1442
G01 X20.0094 Y36.1309
G01 X19.9943 Y36.0698
G01 X19.9855 Y36.0121
G01 X19.9837 Y35.9937
G01 X19.9811 Y35.9400
G01 X19.9810 Y32.3679
G01 X19.9312 Y32.4127
G01 X19.8609 Y32.4652
G01 X19.8455 Y32.4754
G01 X19.7701 Y32.5204
G01 X19.6908 Y32.5581
G01 X19.6737 Y32.5652
G01 X19.5910 Y32.5945
G01 X19.5014 Y32.6172
G01 X19.4878 Y32.6197
G01 X19.4009 Y32.6324
G01 X19.3133 Y32.6369
G01 X19.2947 Y32.6369
G01 X19.2071 Y32.6324
G01 X19.1202 Y32.6197
G01 X19.1021 Y32.6161
G01 X19.0259 Y32.5970
G01 X19.0126 Y32.5931
G01 X18.9256 Y32.5619
G01 X18.8462 Y32.5245
G01 X18.8299 Y32.5158
G01 X18.7547 Y32.4705
G01 X18.6841 Y32.4184
G01 X18.6697 Y32.4066
G01 X18.6049 Y32.3475
G01 X18.5458 Y32.2827
G01 X18.5340 Y32.2683
G01 X18.4819 Y32.1977
G01 X18.4366 Y32.1225
G01 X18.4279 Y32.1062
G01 X18.3905 Y32.0268
G01 X18.3608 Y31.9442
G01 X18.3554 Y31.9265
G01 X18.3363 Y31.8503
G01 X18.3334 Y31.8367
G01 X18.3200 Y31.7453
G01 X18.3155 Y31.6577
G01 X18.3155 Y31.6391
G01 X18.3200 Y31.5515
G01 X18.3327 Y31.4646
G01 X18.3363 Y31.4465
G01 X18.3579 Y31.3614
G01 X18.3872 Y31.2787
G01 X18.3943 Y31.2616
G01 X18.4320 Y31.1823
G01 X18.4770 Y31.1069
G01 X18.4872 Y31.0915
G01 X18.5397 Y31.0212
G01 X18.5985 Y30.9560
G01 X18.6116 Y30.9429
G01 X18.6768 Y30.8841
G01 X18.7471 Y30.8316
G01 X18.7625 Y30.8214
G01 X18.8379 Y30.7764
G01 X18.9172 Y30.7387
G01 X18.9343 Y30.7316
G01 X19.0170 Y30.7023
G01 X19.1021 Y30.6807
G01 X19.1202 Y30.6771
G01 X19.2071 Y30.6644
G01 X19.2947 Y30.6599
G01 X19.3133 Y30.6599
G01 X19.4009 Y30.6644
G01 X19.4878 Y30.6771
G01 X19.5059 Y30.6807
G01 X19.5910 Y30.7023
G01 X19.6732 Y30.7314
G00 Z1.2000
G00 X20.1018 Y31.9881
G01 F60.00
G01 Z-0.0650
G01 F120.00
G01 X20.0690 Y32.0573
G01 X20.0252 Y32.1303
G01 X19.9745 Y32.1987
G01 X19.9173 Y32.2617
G01 X19.8543 Y32.3189
G01 X19.7859 Y32.3696
G01 X19.7129 Y32.4134
G01 X19.6359 Y32.4498
G01 X19.5558 Y32.4784
G01 X19.4732 Y32.4991
G01 X19.3890 Y32.5116
G01 X19.3040 Y32.5158
G01 X19.2190 Y32.5116
G01 X19.1348 Y32.4991
G01 X19.0522 Y32.4784
G01 X18.9721 Y32.4498
G01 X18.8951 Y32.4134
G01 X18.8221 Y32.3696
G01 X18.7537 Y32.3189
G01 X18.6907 Y32.2617
G01 X18.6335 Y32.1987
G01 X18.5828 Y32.1303
G01 X18.5390 Y32.0573
G01 X18.5026 Y31.9803
G01 X18.4740 Y31.9002
G01 X18.4533 Y31.8176
G01 X18.4408 Y31.7334
G01 X18.4366 Y31.6484
G01 X18.4408 Y31.5634
G01 X18.4533 Y31.4792
G01 X18.4740 Y31.3966
G01 X18.5026 Y31.3165
G01 X18.5375 Y31.2425
G01 X18.5407 Y31.2366
G01 X18.5828 Y31.1665
G01 X18.6315 Y31.1007
G01 X18.6357 Y31.0956
G01 X18.6907 Y31.0351
G01 X18.7537 Y30.9779
G01 X18.8221 Y30.9272
G01 X18.8922 Y30.8851
G01 X18.8981 Y30.8819
G01 X18.9690 Y30.8484
G01 X18.9751 Y30.8458
G01 X19.0522 Y30.8184
G01 X19.1316 Y30.7984
G01 X19.1380 Y30.7971
G01 X19.2157 Y30.7856
G01 X19.2223 Y30.7849
G01 X19.3040 Y30.7810
G01 X19.3890 Y30.7852
G01 X19.4732 Y30.7977
G01 X19.5526 Y30.8175
G01 X19.5589 Y30.8194
G01 X19.6329 Y30.8458
G01 X19.6482 Y30.8527
G01 X20.3873 Y30.8527
G01 X20.3873 Y28.6004
G01 X20.3901 Y28.5448
G01 X20.3983 Y28.4897
G01 X20.4118 Y28.4356
G01 X20.4306 Y28.3832
G01 X20.4529 Y28.3358
G01 X20.4560 Y28.3299
G01 X20.4830 Y28.2850
G01 X20.5142 Y28.2429
G01 X20.5184 Y28.2378
G01 X20.5513 Y28.2014
G01 X20.5560 Y28.1967
G01 X20.5949 Y28.1616
G01 X20.6383 Y28.1294
G01 X20.6845 Y28.1014
G01 X20.6904 Y28.0983
G01 X20.7378 Y28.0760
G01 X20.7902 Y28.0572
G01 X20.8410 Y28.0444
G01 X20.8475 Y28.0431
G01 X20.8994 Y28.0355
G01 X20.9517 Y28.0328
G01 X23.2126 Y28.0327
G01 X23.2127 Y27.7471
G01 X23.2142 Y27.7356
G01 X23.2160 Y27.7293
G01 X23.2184 Y27.7231
G01 X23.2214 Y27.7172
G01 X23.2249 Y27.7116
G01 X23.2323 Y27.7027
G01 X23.2412 Y27.6953
G01 X23.2468 Y27.6918
G01 X23.2527 Y27.6888
G01 X23.2636 Y27.6850
G01 X23.2701 Y27.6837
G01 X23.2767 Y27.6831
G01 X23.5623 Y27.6830
G01 X23.5623 Y25.0255
G01 X22.9217 Y24.3849
G01 X22.8600 Y24.3878
G01 X22.7783 Y24.3839
G01 X22.7717 Y24.3832
G01 X22.6940 Y24.3717
G01 X22.6876 Y24.3704
G01 X22.6082 Y24.3504
G01 X22.5281 Y24.3218
G01 X22.4511 Y24.2854
G01 X22.3809 Y24.2434
G01 X22.3754 Y24.2397
G01 X22.3123 Y24.1929
G01 X22.3072 Y24.1887
G01 X22.2467 Y24.1337
G01 X22.2051 Y24.0881
G01 X20.5524 Y24.0881
G01 X20.5524 Y24.3204
G01 X20.5521 Y24.3270
G01 X20.5511 Y24.3335
G01 X20.5479 Y24.3447
G01 X20.5436 Y24.3536
G01 X20.5371 Y24.3632
G01 X20.5303 Y24.3703
G01 X20.5211 Y24.3773
G01 X20.5123 Y24.3820
G01 X20.5014 Y24.3858
G01 X20.4916 Y24.3875
G01 X20.4850 Y24.3878
G01 X18.8850 Y24.3878
G01 X18.8784 Y24.3875
G01 X18.8702 Y24.3862
G01 X18.8623 Y24.3839
G01 X18.8547 Y24.3806
G01 X18.8476 Y24.3764
G01 X18.8397 Y24.3703
G01 X18.8340 Y24.3644
G01 X18.8281 Y24.3565
G01 X18.8234 Y24.3477
G01 X18.8205 Y24.3400
G01 X18.8183 Y24.3303
G01 X18.8176 Y24.3221
G01 X18.8176 Y22.7204
G01 X18.8181 Y22.7121
G01 X18.8200 Y22.7024
G01 X18.8234 Y22.6931
G01 X18.8290 Y22.6830
G01 X18.8362 Y22.6739
G01 X18.8435 Y22.6673
G01 X18.8518 Y22.6618
G01 X18.8623 Y22.6569
G01 X18.8735 Y22.6540
G01 X18.8833 Y22.6530
G01 X20.4900 Y22.6532
G01 X20.5014 Y22.6550
G01 X20.5123 Y22.6588
G01 X20.5211 Y22.6635
G01 X20.5303 Y22.6705
G01 X20.5381 Y22.6789
G01 X20.5436 Y22.6872
G01 X20.5485 Y22.6977
G01 X20.5511 Y22.7073
G01 X20.5521 Y22.7138
G01 X20.5524 Y22.7204
G01 X20.5524 Y22.9527
G01 X22.2051 Y22.9527
G01 X22.2467 Y22.9071
G01 X22.3072 Y22.8521
G01 X22.3123 Y22.8479
G01 X22.3754 Y22.8011
G01 X22.3809 Y22.7974
G01 X22.4511 Y22.7554
G01 X22.5281 Y22.7190
G01 X22.6082 Y22.6904
G01 X22.6876 Y22.6704
G01 X22.6940 Y22.6691
G01 X22.7717 Y22.6576
G01 X22.7783 Y22.6569
G01 X22.8600 Y22.6530
G01 X22.9417 Y22.6569
G01 X22.9483 Y22.6576
G01 X23.0292 Y22.6697
G01 X23.1118 Y22.6904
G01 X23.1919 Y22.7190
G01 X23.2674 Y22.7547
G01 X23.3419 Y22.7992
G01 X23.4103 Y22.8499
G01 X23.4733 Y22.9071
G01 X23.5149 Y22.9527
G01 X23.7562 Y22.9527
G01 X24.8323 Y21.8766
G01 X24.8323 Y14.0153
G01 X24.7867 Y13.9737
G01 X24.7317 Y13.9132
G01 X24.7275 Y13.9081
G01 X24.6797 Y13.8437
G01 X24.6350 Y13.7693
G01 X24.5980 Y13.6908
G01 X24.5710 Y13.6153
G01 X24.5691 Y13.6090
G01 X24.5493 Y13.5296
G01 X24.5372 Y13.4487
G01 X24.5365 Y13.4421
G01 X24.5326 Y13.3604
G01 X24.5368 Y13.2754
G01 X24.5493 Y13.1912
G01 X24.5691 Y13.1118
G01 X24.5710 Y13.1055
G01 X24.5986 Y13.0285
G01 X24.6335 Y12.9545
G01 X24.6367 Y12.9486
G01 X24.6770 Y12.8813
G01 X24.6807 Y12.8758
G01 X24.7295 Y12.8101
G01 X24.7867 Y12.7471
G01 X24.8497 Y12.6899
G01 X24.9181 Y12.6392
G01 X24.9911 Y12.5954
G01 X25.0681 Y12.5590
G01 X25.1482 Y12.5304
G01 X25.2276 Y12.5104
G01 X25.2340 Y12.5091
G01 X25.3150 Y12.4972
G01 X25.3967 Y12.4931
G01 X25.4033 Y12.4931
G01 X25.4817 Y12.4969
G01 X25.4883 Y12.4976
G01 X25.5692 Y12.5097
G01 X25.6502 Y12.5299
G01 X25.7289 Y12.5578
G01 X25.7350 Y12.5604
G01 X25.8089 Y12.5954
G01 X25.8819 Y12.6392
G01 X25.9503 Y12.6899
G01 X26.0109 Y12.7448
G01 X26.0156 Y12.7495
G01 X26.0683 Y12.8076
G01 X26.0725 Y12.8127
G01 X26.1212 Y12.8785
G01 X26.1650 Y12.9515
G01 X26.2014 Y13.0285
G01 X26.2290 Y13.1055
G01 X26.2309 Y13.1118
G01 X26.2500 Y13.1880
G01 X26.2513 Y13.1944
G01 X26.2632 Y13.2754
G01 X26.2674 Y13.3587
G01 X26.2632 Y13.4454
G01 X26.2507 Y13.5296
G01 X26.2300 Y13.6122
G01 X26.2007 Y13.6939
G01 X26.1650 Y13.7693
G01 X26.1230 Y13.8395
G01 X26.1193 Y13.8450
G01 X26.0725 Y13.9081
G01 X26.0683 Y13.9132
G01 X26.0133 Y13.9737
G01 X25.9677 Y14.0153
G01 X25.9677 Y22.1118
G01 X25.9647 Y22.1691
G01 X25.9567 Y22.2225
G01 X25.9432 Y22.2766
G01 X25.9244 Y22.3290
G01 X25.9021 Y22.3764
G01 X25.8990 Y22.3822
G01 X25.8738 Y22.4243
G01 X25.8701 Y22.4298
G01 X25.8388 Y22.4719
G01 X25.8025 Y22.5120
G01 X24.3916 Y23.9229
G01 X24.3515 Y23.9592
G01 X24.3054 Y23.9933
G01 X24.2575 Y24.0218
G01 X24.2101 Y24.0442
G01 X24.1929 Y24.0505
G01 X24.5314 Y24.3890
G01 X24.5698 Y24.4316
G01 X24.6001 Y24.4723
G01 X24.6038 Y24.4778
G01 X24.6306 Y24.5228
G01 X24.6531 Y24.5701
G01 X24.6556 Y24.5763
G01 X24.6732 Y24.6256
G01 X24.6860 Y24.6764
G01 X24.6873 Y24.6829
G01 X24.6949 Y24.7348
G01 X24.6977 Y24.7904
G01 X24.6977 Y27.6830
G01 X24.9800 Y27.6830
G01 X24.9899 Y27.6837
G01 X24.9996 Y27.6859
G01 X25.0088 Y27.6895
G01 X25.0174 Y27.6944
G01 X25.0265 Y27.7016
G01 X25.0331 Y27.7089
G01 X25.0394 Y27.7186
G01 X25.0435 Y27.7277
G01 X25.0461 Y27.7373
G01 X25.0471 Y27.7438
G01 X25.0474 Y27.7504
G01 X25.0474 Y29.4504
G01 X25.0464 Y29.4619
G01 X25.0435 Y29.4731
G01 X25.0386 Y29.4836
G01 X25.0321 Y29.4932
G01 X25.0240 Y29.5014
G01 X25.0147 Y29.5082
G01 X25.0043 Y29.5133
G01 X24.9931 Y29.5165
G01 X24.9817 Y29.5178
G01 X23.2750 Y29.5176
G01 X23.2636 Y29.5158
G01 X23.2527 Y29.5120
G01 X23.2439 Y29.5073
G01 X23.2347 Y29.5003
G01 X23.2279 Y29.4932
G01 X23.2214 Y29.4836
G01 X23.2165 Y29.4731
G01 X23.2136 Y29.4619
G01 X23.2126 Y29.4504
G01 X23.2126 Y29.1681
G01 X21.5227 Y29.1681
G01 X21.5227 Y30.9112
G01 X21.5900 Y30.9080
G01 X21.6717 Y30.9119
G01 X21.6783 Y30.9126
G01 X21.7560 Y30.9241
G01 X21.7624 Y30.9254
G01 X21.8418 Y30.9454
G01 X21.9189 Y30.9728
G01 X21.9250 Y30.9754
G01 X21.9989 Y31.0104
G01 X22.0719 Y31.0542
G01 X22.1403 Y31.1049
G01 X22.2009 Y31.1598
G01 X22.2056 Y31.1645
G01 X22.2605 Y31.2251
G01 X22.3112 Y31.2935
G01 X22.3550 Y31.3665
G01 X22.3914 Y31.4435
G01 X22.4200 Y31.5236
G01 X22.4407 Y31.6062
G01 X22.4532 Y31.6904
G01 X22.4573 Y31.7721
G01 X22.4573 Y31.7787
G01 X22.4532 Y31.8604
G01 X22.4413 Y31.9414
G01 X22.4400 Y31.9478
G01 X22.4209 Y32.0240
G01 X22.4190 Y32.0303
G01 X22.3914 Y32.1073
G01 X22.3550 Y32.1843
G01 X22.3130 Y32.2545
G01 X22.3093 Y32.2600
G01 X22.2605 Y32.3257
G01 X22.2056 Y32.3863
G01 X22.2009 Y32.3910
G01 X22.1403 Y32.4459
G01 X22.0705 Y32.4975
G01 X22.0018 Y32.5387
G01 X21.9959 Y32.5419
G01 X21.9219 Y32.5768
G01 X21.8449 Y32.6044
G01 X21.8386 Y32.6063
G01 X21.7592 Y32.6261
G01 X21.6734 Y32.6388
G01 X21.5900 Y32.6428
G01 X21.5083 Y32.6389
G01 X21.5017 Y32.6382
G01 X21.4224 Y32.6264
G01 X21.3366 Y32.6050
G01 X21.2596 Y32.5774
G01 X21.2377 Y32.5672
G01 X21.2377 Y35.4286
G01 X21.2596 Y35.4184
G01 X21.3366 Y35.3908
G01 X21.4224 Y35.3694
G01 X21.5017 Y35.3576
G01 X21.5083 Y35.3569
G01 X21.5900 Y35.3530
G01 X21.6734 Y35.3570
G01 X21.7592 Y35.3697
G01 X21.8386 Y35.3895
G01 X21.8449 Y35.3914
G01 X21.9219 Y35.4190
G01 X21.9959 Y35.4539
G01 X22.0018 Y35.4571
G01 X22.0719 Y35.4992
G01 X22.1377 Y35.5479
G01 X22.1428 Y35.5521
G01 X22.2033 Y35.6071
G01 X22.2583 Y35.6676
G01 X22.2625 Y35.6727
G01 X22.3112 Y35.7385
G01 X22.3550 Y35.8115
G01 X22.3900 Y35.8854
G01 X22.3926 Y35.8915
G01 X22.4200 Y35.9686
G01 X22.4400 Y36.0480
G01 X22.4413 Y36.0544
G01 X22.4532 Y36.1354
G01 X22.4573 Y36.2171
G01 X22.4573 Y36.2237
G01 X22.4532 Y36.3054
G01 X22.4413 Y36.3864
G01 X22.4400 Y36.3928
G01 X22.4200 Y36.4722
G01 X22.3926 Y36.5493
G01 X22.3900 Y36.5554
G01 X22.3550 Y36.6293
G01 X22.3130 Y36.6995
G01 X22.3093 Y36.7050
G01 X22.2605 Y36.7707
G01 X22.2056 Y36.8313
G01 X22.2009 Y36.8360
G01 X22.1403 Y36.8909
G01 X22.0746 Y36.9397
G01 X22.0691 Y36.9434
G01 X22.0003 Y36.9846
G01 X21.9250 Y37.0204
G01 X21.9189 Y37.0230
G01 X21.8418 Y37.0504
G01 X21.7624 Y37.0704
G01 X21.7560 Y37.0717
G01 X21.6750 Y37.0836
G01 X21.5883 Y37.0878
G01 X21.5083 Y37.0839
G01 X21.5017 Y37.0832
G01 X21.4208 Y37.0711
G01 X21.3398 Y37.0509
G01 X21.2565 Y37.0211
G01 X21.1811 Y36.9854
G01 X21.1376 Y36.9594
G01 X21.1376 Y38.2396
G01 X21.1353 Y38.2837
G01 X21.1286 Y38.3291
G01 X21.1175 Y38.3736
G01 X21.1032 Y38.4138
G01 X21.1004 Y38.4205
G01 X21.1279 Y38.4205
G01 X21.1378 Y38.4215
G01 X21.1442 Y38.4229
G01 X21.1505 Y38.4250
G01 X21.1580 Y38.4285
G01 X21.1637 Y38.4319
G01 X21.1690 Y38.4358
G01 X21.1751 Y38.4414
G01 X21.1804 Y38.4477
G01 X21.1841 Y38.4532
G01 X21.1879 Y38.4606
G01 X21.1902 Y38.4668
G01 X21.1920 Y38.4731
G01 X21.1933 Y38.4813
G01 X21.1936 Y38.4879
G01 X21.1936 Y39.3379
G01 X21.1933 Y39.3445
G01 X21.1924 Y39.3510
G01 X21.1891 Y39.3622
G01 X21.1841 Y39.3726
G01 X21.1773 Y39.3819
G01 X21.1690 Y39.3900
G01 X21.1595 Y39.3965
G01 X21.1490 Y39.4014
G01 X21.1426 Y39.4033
G01 X21.1361 Y39.4046
G01 X21.1262 Y39.4053
G01 X20.2104 Y39.4052
G01 X20.1990 Y39.4037
G01 X20.1880 Y39.4002
G01 X20.1777 Y39.3948
G01 X20.1685 Y39.3878
G01 X20.1606 Y39.3794
G01 X20.1543 Y39.3697
G01 X20.1498 Y39.3590
G01 X20.1471 Y39.3478
G01 X20.1464 Y39.3379
G01 X20.1464 Y38.4879
G01 X20.1467 Y38.4813
G01 X20.1480 Y38.4731
G01 X20.1498 Y38.4668
G01 X20.1528 Y38.4591
G01 X20.1559 Y38.4532
G01 X20.1596 Y38.4477
G01 X20.1649 Y38.4414
G01 X20.1710 Y38.4358
G01 X20.1763 Y38.4319
G01 X20.1834 Y38.4277
G01 X20.1895 Y38.4250
G01 X20.1958 Y38.4229
G01 X20.2022 Y38.4215
G01 X20.2121 Y38.4205
G01 X20.2396 Y38.4205
G01 X20.2368 Y38.4138
G01 X20.2225 Y38.3736
G01 X20.2114 Y38.3291
G01 X20.2047 Y38.2837
G01 X20.2024 Y38.2396
G01 X20.2024 Y36.2568
G01 X20.1962 Y36.2480
G01 X20.1710 Y36.2059
G01 X20.1679 Y36.2000
G01 X20.1456 Y36.1526
G01 X20.1268 Y36.1002
G01 X20.1140 Y36.0494
G01 X20.1127 Y36.0429
G01 X20.1051 Y35.9910
G01 X20.1024 Y35.9371
G01 X20.1023 Y31.9881
G01 X20.1018 Y31.9881
G00 Z1.2000
G00 X21.5811 Y38.3537
G01 F60.00
G01 Z-0.0650
G01 F120.00
G01 X21.5811 Y37.9218
G01 X21.5839 Y37.8687
G01 X21.5915 Y37.8161
G01 X21.5944 Y37.8025
G01 X21.6064 Y37.7554
G01 X21.6226 Y37.7097
G01 X21.6297 Y37.6926
G01 X21.6506 Y37.6488
G01 X21.6754 Y37.6070
G01 X21.6830 Y37.5954
G01 X21.7091 Y37.5601
G01 X21.7208 Y37.5458
G01 X21.7536 Y37.5100
G01 X22.1896 Y37.0740
G01 X22.2254 Y37.0412
G01 X22.2360 Y37.0323
G01 X22.2788 Y37.0007
G01 X22.3284 Y36.9710
G01 X22.3806 Y36.9463
G01 X22.4263 Y36.9297
G01 X22.4395 Y36.9255
G01 X22.4821 Y36.9148
G01 X22.5002 Y36.9112
G01 X22.5391 Y36.9054
G01 X22.5529 Y36.9039
G01 X22.5967 Y36.9017
G01 X22.6161 Y36.9015
G01 X22.7791 Y36.7385
G01 X22.7791 Y34.8636
G01 X22.7443 Y34.8512
G01 X22.7314 Y34.8460
G01 X22.6562 Y34.8105
G01 X22.6439 Y34.8041
G01 X22.5647 Y34.7565
G01 X22.4941 Y34.7044
G01 X22.4832 Y34.6957
G01 X22.4149 Y34.6335
G01 X22.3497 Y34.5616
G01 X22.2919 Y34.4837
G01 X22.2466 Y34.4085
G01 X22.2399 Y34.3964
G01 X22.2005 Y34.3128
G01 X22.1679 Y34.2214
G01 X22.1443 Y34.1273
G01 X22.1300 Y34.0313
G01 X22.1253 Y33.9344
G01 X22.1300 Y33.8375
G01 X22.1443 Y33.7415
G01 X22.1654 Y33.6563
G01 X22.1693 Y33.6430
G01 X22.2005 Y33.5560
G01 X22.2420 Y33.4683
G01 X22.2919 Y33.3851
G01 X22.3497 Y33.3072
G01 X22.4149 Y33.2353
G01 X22.4868 Y33.1701
G01 X22.5647 Y33.1123
G01 X22.6479 Y33.0624
G01 X22.7356 Y33.0209
G01 X22.8270 Y32.9883
G01 X22.9211 Y32.9647
G01 X23.0171 Y32.9504
G01 X23.1140 Y32.9457
G01 X23.2109 Y32.9504
G01 X23.3069 Y32.9647
G01 X23.3921 Y32.9858
G01 X23.4054 Y32.9897
G01 X23.4924 Y33.0209
G01 X23.5718 Y33.0583
G01 X23.5881 Y33.0670
G01 X23.6633 Y33.1123
G01 X23.7412 Y33.1701
G01 X23.8064 Y33.2289
G01 X23.8195 Y33.2420
G01 X23.8783 Y33.3072
G01 X23.9361 Y33.3851
G01 X23.9814 Y33.4603
G01 X23.9901 Y33.4766
G01 X24.0275 Y33.5560
G01 X24.0572 Y33.6386
G01 X24.0626 Y33.6563
G01 X24.0837 Y33.7415
G01 X24.0974 Y33.8329
G01 X24.0986 Y33.8467
G01 X24.1027 Y33.9344
G01 X24.0986 Y34.0221
G01 X24.0968 Y34.0405
G01 X24.0853 Y34.1182
G01 X24.0828 Y34.1318
G01 X24.0601 Y34.2214
G01 X24.0292 Y34.3085
G01 X24.0237 Y34.3212
G01 X23.9881 Y34.3964
G01 X23.9814 Y34.4085
G01 X23.9569 Y34.4494
G01 X23.9569 Y36.9824
G01 X23.9541 Y37.0401
G01 X23.9472 Y37.0882
G01 X23.9436 Y37.1063
G01 X23.9340 Y37.1444
G01 X23.9302 Y37.1578
G01 X23.9121 Y37.2078
G01 X23.8874 Y37.2600
G01 X23.8577 Y37.3096
G01 X23.8289 Y37.3487
G01 X23.8203 Y37.3596
G01 X23.7844 Y37.3988
G01 X23.2764 Y37.9068
G01 X23.2372 Y37.9427
G01 X23.2263 Y37.9513
G01 X23.1872 Y37.9801
G01 X23.1376 Y38.0098
G01 X23.0854 Y38.0345
G01 X23.0397 Y38.0511
G01 X23.0265 Y38.0553
G01 X22.9839 Y38.0660
G01 X22.9658 Y38.0696
G01 X22.9269 Y38.0754
G01 X22.9131 Y38.0769
G01 X22.8693 Y38.0791
G01 X22.8499 Y38.0793
G01 X22.7589 Y38.1703
G01 X22.7589 Y38.3537
G01 X22.7692 Y38.3646
G01 X22.7805 Y38.3792
G01 X22.7905 Y38.3949
G01 X22.7988 Y38.4114
G01 X22.8054 Y38.4287
G01 X22.8104 Y38.4466
G01 X22.8136 Y38.4648
G01 X22.8147 Y38.4786
G01 X22.8149 Y39.3425
G01 X22.8145 Y39.3518
G01 X22.8129 Y39.3656
G01 X22.8104 Y39.3792
G01 X22.8068 Y39.3927
G01 X22.8039 Y39.4015
G01 X22.7988 Y39.4144
G01 X22.7927 Y39.4269
G01 X22.7857 Y39.4389
G01 X22.7778 Y39.4503
G01 X22.7692 Y39.4612
G01 X22.7629 Y39.4680
G01 X22.7530 Y39.4777
G01 X22.7424 Y39.4867
G01 X22.7311 Y39.4948
G01 X22.7193 Y39.5021
G01 X22.7111 Y39.5065
G01 X22.6942 Y39.5140
G01 X22.6810 Y39.5185
G01 X22.6721 Y39.5210
G01 X22.6585 Y39.5238
G01 X22.6494 Y39.5252
G01 X22.6309 Y39.5266
G01 X21.7091 Y39.5266
G01 X21.6906 Y39.5252
G01 X21.6769 Y39.5230
G01 X21.6590 Y39.5185
G01 X21.6415 Y39.5123
G01 X21.6248 Y39.5043
G01 X21.6089 Y39.4948
G01 X21.5940 Y39.4838
G01 X21.5803 Y39.4713
G01 X21.5679 Y39.4576
G01 X21.5568 Y39.4427
G01 X21.5495 Y39.4309
G01 X21.5412 Y39.4144
G01 X21.5361 Y39.4015
G01 X21.5307 Y39.3838
G01 X21.5271 Y39.3656
G01 X21.5253 Y39.3472
G01 X21.5250 Y38.4879
G01 X21.5259 Y38.4694
G01 X21.5287 Y38.4511
G01 X21.5332 Y38.4331
G01 X21.5394 Y38.4157
G01 X21.5473 Y38.3989
G01 X21.5568 Y38.3831
G01 X21.5679 Y38.3682
G01 X21.5739 Y38.3612
G01 X21.5811 Y38.3537
G00 Z1.2000
G00 X21.7024 Y38.4215
G01 F60.00
G01 Z-0.0650
G01 F120.00
G01 X21.7024 Y37.9264
G01 X21.7047 Y37.8806
G01 X21.7108 Y37.8384
G01 X21.7121 Y37.8319
G01 X21.7225 Y37.7907
G01 X21.7368 Y37.7505
G01 X21.7393 Y37.7444
G01 X21.7576 Y37.7060
G01 X21.7794 Y37.6694
G01 X21.7831 Y37.6639
G01 X21.8085 Y37.6298
G01 X21.8394 Y37.5958
G01 X22.2754 Y37.1598
G01 X22.3106 Y37.1279
G01 X22.3462 Y37.1016
G01 X22.3856 Y37.0780
G01 X22.4271 Y37.0584
G01 X22.4703 Y37.0429
G01 X22.5148 Y37.0318
G01 X22.5602 Y37.0251
G01 X22.6043 Y37.0228
G01 X22.6663 Y37.0228
G01 X22.9004 Y36.7887
G01 X22.9004 Y34.7741
G01 X22.8606 Y34.7640
G01 X22.7836 Y34.7364
G01 X22.7066 Y34.7001
G01 X22.6321 Y34.6556
G01 X22.5650 Y34.6059
G01 X22.5007 Y34.5477
G01 X22.4435 Y34.4847
G01 X22.3928 Y34.4163
G01 X22.3498 Y34.3447
G01 X22.3126 Y34.2663
G01 X22.2840 Y34.1862
G01 X22.2633 Y34.1036
G01 X22.2508 Y34.0194
G01 X22.2466 Y33.9344
G01 X22.2508 Y33.8494
G01 X22.2633 Y33.7652
G01 X22.2840 Y33.6826
G01 X22.3126 Y33.6025
G01 X22.3490 Y33.5255
G01 X22.3928 Y33.4525
G01 X22.4435 Y33.3841
G01 X22.5007 Y33.3211
G01 X22.5637 Y33.2639
G01 X22.6321 Y33.2132
G01 X22.7051 Y33.1694
G01 X22.7821 Y33.1330
G01 X22.8622 Y33.1044
G01 X22.9448 Y33.0837
G01 X23.0290 Y33.0712
G01 X23.1140 Y33.0670
G01 X23.1990 Y33.0712
G01 X23.2832 Y33.0837
G01 X23.3658 Y33.1044
G01 X23.4429 Y33.1318
G01 X23.4490 Y33.1344
G01 X23.5229 Y33.1694
G01 X23.5959 Y33.2132
G01 X23.6643 Y33.2639
G01 X23.7249 Y33.3188
G01 X23.7296 Y33.3235
G01 X23.7845 Y33.3841
G01 X23.8352 Y33.4525
G01 X23.8773 Y33.5226
G01 X23.8805 Y33.5285
G01 X23.9154 Y33.6025
G01 X23.9430 Y33.6795
G01 X23.9449 Y33.6858
G01 X23.9647 Y33.7652
G01 X23.9770 Y33.8477
G01 X23.9814 Y33.9344
G01 X23.9775 Y34.0161
G01 X23.9768 Y34.0227
G01 X23.9653 Y34.1004
G01 X23.9640 Y34.1068
G01 X23.9440 Y34.1862
G01 X23.9154 Y34.2663
G01 X23.8790 Y34.3433
G01 X23.8356 Y34.4157
G01 X23.8356 Y36.9824
G01 X23.8336 Y37.0249
G01 X23.8329 Y37.0315
G01 X23.8266 Y37.0736
G01 X23.8155 Y37.1181
G01 X23.8000 Y37.1613
G01 X23.7804 Y37.2028
G01 X23.7568 Y37.2422
G01 X23.7315 Y37.2764
G01 X23.7273 Y37.2815
G01 X23.6986 Y37.3130
G01 X23.1906 Y37.8210
G01 X23.1579 Y37.8508
G01 X23.1198 Y37.8792
G01 X23.0804 Y37.9028
G01 X23.0389 Y37.9224
G01 X22.9957 Y37.9379
G01 X22.9512 Y37.9490
G01 X22.9058 Y37.9557
G01 X22.8617 Y37.9580
G01 X22.7997 Y37.9580
G01 X22.6376 Y38.1201
G01 X22.6376 Y38.4215
G01 X22.6426 Y38.4225
G01 X22.6490 Y38.4244
G01 X22.6595 Y38.4293
G01 X22.6690 Y38.4358
G01 X22.6773 Y38.4439
G01 X22.6841 Y38.4532
G01 X22.6891 Y38.4636
G01 X22.6924 Y38.4748
G01 X22.6936 Y38.4862
G01 X22.6936 Y39.3396
G01 X22.6929 Y39.3478
G01 X22.6912 Y39.3559
G01 X22.6885 Y39.3637
G01 X22.6849 Y39.3711
G01 X22.6804 Y39.3781
G01 X22.6751 Y39.3844
G01 X22.6690 Y39.3900
G01 X22.6623 Y39.3948
G01 X22.6536 Y39.3995
G01 X22.6442 Y39.4029
G01 X22.6361 Y39.4046
G01 X22.6262 Y39.4053
G01 X21.7138 Y39.4053
G01 X21.7071 Y39.4050
G01 X21.7006 Y39.4040
G01 X21.6942 Y39.4024
G01 X21.6880 Y39.4002
G01 X21.6820 Y39.3973
G01 X21.6763 Y39.3939
G01 X21.6710 Y39.3900
G01 X21.6661 Y39.3856
G01 X21.6616 Y39.3807
G01 X21.6577 Y39.3753
G01 X21.6543 Y39.3697
G01 X21.6515 Y39.3637
G01 X21.6493 Y39.3575
G01 X21.6476 Y39.3510
G01 X21.6464 Y39.3396
G01 X21.6464 Y38.4846
G01 X21.6480 Y38.4731
G01 X21.6515 Y38.4621
G01 X21.6568 Y38.4518
G01 X21.6638 Y38.4426
G01 X21.6723 Y38.4348
G01 X21.6820 Y38.4285
G01 X21.6926 Y38.4239
G01 X21.7024 Y38.4215
G00 Z1.2000
G00 X24.1262 Y38.4205
G01 F60.00
G01 Z-0.0650
G01 F120.00
G01 X24.1329 Y38.4208
G01 X24.1394 Y38.4218
G01 X24.1458 Y38.4234
G01 X24.1520 Y38.4256
G01 X24.1580 Y38.4285
G01 X24.1637 Y38.4319
G01 X24.1727 Y38.4391
G01 X24.1804 Y38.4477
G01 X24.1841 Y38.4532
G01 X24.1872 Y38.4591
G01 X24.1897 Y38.4652
G01 X24.1916 Y38.4715
G01 X24.1929 Y38.4780
G01 X24.1936 Y38.4846
G01 X24.1936 Y39.3396
G01 X24.1931 Y39.3462
G01 X24.1920 Y39.3527
G01 X24.1885 Y39.3637
G01 X24.1857 Y39.3697
G01 X24.1823 Y39.3753
G01 X24.1784 Y39.3807
G01 X24.1739 Y39.3856
G01 X24.1690 Y39.3900
G01 X24.1637 Y39.3939
G01 X24.1580 Y39.3973
G01 X24.1520 Y39.4002
G01 X24.1458 Y39.4024
G01 X24.1394 Y39.4040
G01 X24.1279 Y39.4053
G01 X23.2138 Y39.4053
G01 X23.2071 Y39.4050
G01 X23.2006 Y39.4040
G01 X23.1942 Y39.4024
G01 X23.1880 Y39.4002
G01 X23.1820 Y39.3973
G01 X23.1763 Y39.3939
G01 X23.1710 Y39.3900
G01 X23.1661 Y39.3856
G01 X23.1616 Y39.3807
G01 X23.1577 Y39.3753
G01 X23.1543 Y39.3697
G01 X23.1515 Y39.3637
G01 X23.1493 Y39.3575
G01 X23.1476 Y39.3510
G01 X23.1464 Y39.3396
G01 X23.1464 Y38.4879
G01 X23.1467 Y38.4813
G01 X23.1476 Y38.4748
G01 X23.1493 Y38.4683
G01 X23.1515 Y38.4621
G01 X23.1543 Y38.4561
G01 X23.1577 Y38.4505
G01 X23.1616 Y38.4451
G01 X23.1661 Y38.4402
G01 X23.1710 Y38.4358
G01 X23.1763 Y38.4319
G01 X23.1864 Y38.4263
G01 X23.1926 Y38.4239
G01 X23.1990 Y38.4221
G01 X23.2055 Y38.4210
G01 X23.2121 Y38.4205
G01 X24.1262 Y38.4205
G00 Z1.2000
G00 X24.1262 Y38.2992
G01 F60.00
G01 Z-0.0650
G01 F120.00
G01 X24.1447 Y38.3001
G01 X24.1585 Y38.3020
G01 X24.1766 Y38.3060
G01 X24.1942 Y38.3118
G01 X24.2111 Y38.3193
G01 X24.2272 Y38.3285
G01 X24.2387 Y38.3363
G01 X24.2530 Y38.3481
G01 X24.2661 Y38.3612
G01 X24.2750 Y38.3718
G01 X24.2857 Y38.3869
G01 X24.2948 Y38.4030
G01 X24.3023 Y38.4200
G01 X24.3068 Y38.4331
G01 X24.3104 Y38.4466
G01 X24.3136 Y38.4648
G01 X24.3147 Y38.4786
G01 X24.3150 Y38.4879
G01 X24.3147 Y39.3472
G01 X24.3129 Y39.3656
G01 X24.3104 Y39.3792
G01 X24.3068 Y39.3927
G01 X24.3023 Y39.4058
G01 X24.2948 Y39.4228
G01 X24.2881 Y39.4349
G01 X24.2805 Y39.4466
G01 X24.2692 Y39.4612
G01 X24.2564 Y39.4746
G01 X24.2424 Y39.4867
G01 X24.2349 Y39.4922
G01 X24.2233 Y39.4998
G01 X24.2069 Y39.5085
G01 X24.1898 Y39.5156
G01 X24.1810 Y39.5185
G01 X24.1676 Y39.5220
G01 X24.1494 Y39.5252
G01 X24.1309 Y39.5266
G01 X23.2045 Y39.5264
G01 X23.1906 Y39.5252
G01 X23.1769 Y39.5230
G01 X23.1634 Y39.5198
G01 X23.1458 Y39.5140
G01 X23.1289 Y39.5065
G01 X23.1167 Y39.4998
G01 X23.1013 Y39.4895
G01 X23.0905 Y39.4808
G01 X23.0771 Y39.4680
G01 X23.0650 Y39.4540
G01 X23.0568 Y39.4427
G01 X23.0519 Y39.4349
G01 X23.0431 Y39.4186
G01 X23.0361 Y39.4015
G01 X23.0307 Y39.3838
G01 X23.0278 Y39.3702
G01 X23.0264 Y39.3610
G01 X23.0251 Y39.3425
G01 X23.0253 Y38.4786
G01 X23.0271 Y38.4602
G01 X23.0296 Y38.4466
G01 X23.0332 Y38.4331
G01 X23.0377 Y38.4200
G01 X23.0431 Y38.4072
G01 X23.0519 Y38.3909
G01 X23.0622 Y38.3755
G01 X23.0708 Y38.3646
G01 X23.0836 Y38.3512
G01 X23.0976 Y38.3391
G01 X23.1128 Y38.3285
G01 X23.1289 Y38.3193
G01 X23.1458 Y38.3118
G01 X23.1634 Y38.3060
G01 X23.1815 Y38.3020
G01 X23.1999 Y38.2997
G01 X23.2138 Y38.2992
G01 X24.1262 Y38.2992
G00 Z1.2000
G00 X24.5811 Y38.3537
G01 F60.00
G01 Z-0.0650
G01 F120.00
G01 X24.5811 Y34.2668
G01 X24.5646 Y34.2392
G01 X24.5602 Y34.2311
G01 X24.5372 Y34.1825
G01 X24.5318 Y34.1698
G01 X24.5107 Y34.1104
G01 X24.4963 Y34.0538
G01 X24.4934 Y34.0403
G01 X24.4843 Y33.9779
G01 X24.4810 Y33.9104
G01 X24.4843 Y33.8429
G01 X24.4927 Y33.7851
G01 X24.4952 Y33.7715
G01 X24.5082 Y33.7193
G01 X24.5136 Y33.7016
G01 X24.5335 Y33.6467
G01 X24.5582 Y33.5939
G01 X24.5669 Y33.5776
G01 X24.5971 Y33.5276
G01 X24.6317 Y33.4806
G01 X24.6435 Y33.4663
G01 X24.6828 Y33.4232
G01 X25.9810 Y32.1250
G01 X25.9810 Y29.3764
G01 X25.9422 Y29.3413
G01 X25.9323 Y29.3316
G01 X25.8731 Y29.2664
G01 X25.8642 Y29.2557
G01 X25.8063 Y29.1775
G01 X25.7562 Y29.0941
G01 X25.7498 Y29.0818
G01 X25.7141 Y29.0064
G01 X25.7070 Y28.9893
G01 X25.6760 Y28.9019
G01 X25.6522 Y28.8076
G01 X25.6497 Y28.7939
G01 X25.6374 Y28.7114
G01 X25.6356 Y28.6930
G01 X25.6313 Y28.6004
G01 X25.6363 Y28.4986
G01 X25.6497 Y28.4069
G01 X25.6533 Y28.3887
G01 X25.6760 Y28.2989
G01 X25.7086 Y28.2072
G01 X25.7141 Y28.1944
G01 X25.7539 Y28.1108
G01 X25.8014 Y28.0311
G01 X25.8117 Y28.0157
G01 X25.8614 Y27.9487
G01 X25.8731 Y27.9344
G01 X25.9355 Y27.8659
G01 X26.0110 Y27.7975
G01 X26.0929 Y27.7367
G01 X26.1804 Y27.6843
G01 X26.2725 Y27.6407
G01 X26.3685 Y27.6064
G01 X26.4674 Y27.5816
G01 X26.5590 Y27.5678
G01 X26.5774 Y27.5660
G01 X26.6607 Y27.5619
G01 X26.6793 Y27.5619
G01 X26.7718 Y27.5667
G01 X26.8635 Y27.5801
G01 X26.8772 Y27.5826
G01 X26.9715 Y27.6064
G01 X27.0589 Y27.6374
G01 X27.0760 Y27.6445
G01 X27.1514 Y27.6802
G01 X27.1677 Y27.6889
G01 X27.2471 Y27.7367
G01 X27.3290 Y27.7975
G01 X27.4045 Y27.8659
G01 X27.4669 Y27.9344
G01 X27.4786 Y27.9487
G01 X27.5283 Y28.0157
G01 X27.5386 Y28.0311
G01 X27.5861 Y28.1108
G01 X27.6297 Y28.2029
G01 X27.6611 Y28.2901
G01 X27.6665 Y28.3078
G01 X27.6888 Y28.3978
G01 X27.7037 Y28.4986
G01 X27.7087 Y28.6004
G01 X27.7044 Y28.6930
G01 X27.7026 Y28.7114
G01 X27.6888 Y28.8030
G01 X27.6665 Y28.8930
G01 X27.6611 Y28.9107
G01 X27.6314 Y28.9936
G01 X27.6259 Y29.0064
G01 X27.5861 Y29.0900
G01 X27.5386 Y29.1697
G01 X27.5310 Y29.1813
G01 X27.4786 Y29.2521
G01 X27.4700 Y29.2629
G01 X27.4045 Y29.3349
G01 X27.3590 Y29.3764
G01 X27.3590 Y32.4104
G01 X27.3557 Y32.4779
G01 X27.3457 Y32.5448
G01 X27.3318 Y32.6015
G01 X27.3264 Y32.6192
G01 X27.3065 Y32.6741
G01 X27.2776 Y32.7352
G01 X27.2478 Y32.7853
G01 X27.2375 Y32.8007
G01 X27.2083 Y32.8402
G01 X27.1996 Y32.8510
G01 X27.1572 Y32.8976
G01 X25.7589 Y34.2958
G01 X25.7589 Y38.3537
G01 X25.7661 Y38.3612
G01 X25.7721 Y38.3682
G01 X25.7832 Y38.3831
G01 X25.7927 Y38.3989
G01 X25.8006 Y38.4157
G01 X25.8068 Y38.4331
G01 X25.8113 Y38.4511
G01 X25.8141 Y38.4694
G01 X25.8150 Y38.4879
G01 X25.8147 Y39.3472
G01 X25.8129 Y39.3656
G01 X25.8104 Y39.3792
G01 X25.8054 Y39.3971
G01 X25.7988 Y39.4144
G01 X25.7927 Y39.4269
G01 X25.7832 Y39.4427
G01 X25.7750 Y39.4540
G01 X25.7629 Y39.4680
G01 X25.7495 Y39.4808
G01 X25.7424 Y39.4867
G01 X25.7311 Y39.4948
G01 X25.7152 Y39.5043
G01 X25.6985 Y39.5123
G01 X25.6810 Y39.5185
G01 X25.6631 Y39.5230
G01 X25.6447 Y39.5257
G01 X25.6262 Y39.5266
G01 X24.7045 Y39.5264
G01 X24.6906 Y39.5252
G01 X24.6724 Y39.5220
G01 X24.6546 Y39.5171
G01 X24.6415 Y39.5123
G01 X24.6289 Y39.5065
G01 X24.6128 Y39.4973
G01 X24.5976 Y39.4867
G01 X24.5836 Y39.4746
G01 X24.5708 Y39.4612
G01 X24.5595 Y39.4466
G01 X24.5495 Y39.4309
G01 X24.5412 Y39.4144
G01 X24.5361 Y39.4015
G01 X24.5332 Y39.3927
G01 X24.5287 Y39.3747
G01 X24.5259 Y39.3564
G01 X24.5250 Y39.3379
G01 X24.5253 Y38.4786
G01 X24.5264 Y38.4648
G01 X24.5296 Y38.4466
G01 X24.5346 Y38.4287
G01 X24.5412 Y38.4114
G01 X24.5495 Y38.3949
G01 X24.5595 Y38.3792
G01 X24.5708 Y38.3646
G01 X24.5811 Y38.3537
G00 Z1.2000
G00 X24.7024 Y38.4215
G01 F60.00
G01 Z-0.0650
G01 F120.00
G01 X24.7024 Y34.2318
G01 X24.6962 Y34.2230
G01 X24.6694 Y34.1780
G01 X24.6456 Y34.1276
G01 X24.6268 Y34.0752
G01 X24.6133 Y34.0211
G01 X24.6051 Y33.9660
G01 X24.6023 Y33.9104
G01 X24.6051 Y33.8548
G01 X24.6133 Y33.7997
G01 X24.6268 Y33.7456
G01 X24.6444 Y33.6963
G01 X24.6469 Y33.6901
G01 X24.6694 Y33.6428
G01 X24.6962 Y33.5978
G01 X24.6999 Y33.5923
G01 X24.7312 Y33.5503
G01 X24.7663 Y33.5114
G01 X26.1023 Y32.1753
G01 X26.1023 Y29.3203
G01 X26.0867 Y29.3085
G01 X26.0213 Y29.2491
G01 X25.9630 Y29.1849
G01 X25.9588 Y29.1798
G01 X25.9072 Y29.1101
G01 X25.8626 Y29.0357
G01 X25.8594 Y29.0299
G01 X25.8238 Y28.9545
G01 X25.8212 Y28.9484
G01 X25.7921 Y28.8667
G01 X25.7710 Y28.7826
G01 X25.7697 Y28.7761
G01 X25.7570 Y28.6903
G01 X25.7527 Y28.6037
G01 X25.7527 Y28.5971
G01 X25.7570 Y28.5105
G01 X25.7699 Y28.4231
G01 X25.7921 Y28.3341
G01 X25.8224 Y28.2493
G01 X25.8609 Y28.1679
G01 X25.9072 Y28.0907
G01 X25.9608 Y28.0184
G01 X26.0213 Y27.9517
G01 X26.0880 Y27.8912
G01 X26.1603 Y27.8376
G01 X26.2375 Y27.7913
G01 X26.3189 Y27.7528
G01 X26.4037 Y27.7225
G01 X26.4910 Y27.7006
G01 X26.5801 Y27.6874
G01 X26.6700 Y27.6830
G01 X26.7599 Y27.6874
G01 X26.8490 Y27.7006
G01 X26.9363 Y27.7225
G01 X27.0180 Y27.7516
G01 X27.0241 Y27.7542
G01 X27.0995 Y27.7898
G01 X27.1053 Y27.7930
G01 X27.1797 Y27.8376
G01 X27.2520 Y27.8912
G01 X27.3187 Y27.9517
G01 X27.3770 Y28.0159
G01 X27.3812 Y28.0210
G01 X27.4309 Y28.0880
G01 X27.4346 Y28.0935
G01 X27.4791 Y28.1679
G01 X27.5176 Y28.2493
G01 X27.5479 Y28.3341
G01 X27.5690 Y28.4182
G01 X27.5703 Y28.4247
G01 X27.5831 Y28.5121
G01 X27.5873 Y28.5971
G01 X27.5873 Y28.6037
G01 X27.5830 Y28.6903
G01 X27.5703 Y28.7761
G01 X27.5690 Y28.7826
G01 X27.5479 Y28.8667
G01 X27.5176 Y28.9515
G01 X27.4806 Y29.0299
G01 X27.4774 Y29.0357
G01 X27.4328 Y29.1101
G01 X27.3812 Y29.1798
G01 X27.3770 Y29.1849
G01 X27.3187 Y29.2491
G01 X27.2533 Y29.3085
G01 X27.2377 Y29.3203
G01 X27.2377 Y32.4104
G01 X27.2349 Y32.4660
G01 X27.2267 Y32.5211
G01 X27.2141 Y32.5720
G01 X27.2122 Y32.5783
G01 X27.1944 Y32.6276
G01 X27.1706 Y32.6780
G01 X27.1438 Y32.7230
G01 X27.1401 Y32.7285
G01 X27.1108 Y32.7679
G01 X27.1066 Y32.7730
G01 X27.0714 Y32.8118
G01 X25.6376 Y34.2456
G01 X25.6376 Y38.4215
G01 X25.6474 Y38.4239
G01 X25.6580 Y38.4285
G01 X25.6677 Y38.4348
G01 X25.6762 Y38.4426
G01 X25.6832 Y38.4518
G01 X25.6885 Y38.4621
G01 X25.6920 Y38.4731
G01 X25.6936 Y38.4846
G01 X25.6936 Y39.3396
G01 X25.6931 Y39.3462
G01 X25.6920 Y39.3527
G01 X25.6902 Y39.3590
G01 X25.6879 Y39.3652
G01 X25.6823 Y39.3753
G01 X25.6784 Y39.3807
G01 X25.6739 Y39.3856
G01 X25.6690 Y39.3900
G01 X25.6637 Y39.3939
G01 X25.6580 Y39.3973
G01 X25.6520 Y39.4002
G01 X25.6458 Y39.4024
G01 X25.6394 Y39.4040
G01 X25.6329 Y39.4050
G01 X25.6262 Y39.4053
G01 X24.7121 Y39.4053
G01 X24.7055 Y39.4048
G01 X24.6990 Y39.4037
G01 X24.6880 Y39.4002
G01 X24.6820 Y39.3973
G01 X24.6763 Y39.3939
G01 X24.6710 Y39.3900
G01 X24.6661 Y39.3856
G01 X24.6616 Y39.3807
G01 X24.6577 Y39.3753
G01 X24.6543 Y39.3697
G01 X24.6515 Y39.3637
G01 X24.6493 Y39.3575
G01 X24.6476 Y39.3510
G01 X24.6464 Y39.3396
G01 X24.6464 Y38.4846
G01 X24.6480 Y38.4731
G01 X24.6515 Y38.4621
G01 X24.6568 Y38.4518
G01 X24.6638 Y38.4426
G01 X24.6723 Y38.4348
G01 X24.6820 Y38.4285
G01 X24.6926 Y38.4239
G01 X24.7024 Y38.4215
G00 Z1.2000
G00 X26.0811 Y38.3537
G01 F60.00
G01 Z-0.0650
G01 F120.00
G01 X26.0811 Y35.9418
G01 X26.0646 Y35.9142
G01 X26.0602 Y35.9061
G01 X26.0353 Y35.8533
G01 X26.0301 Y35.8404
G01 X26.0136 Y35.7942
G01 X26.0094 Y35.7809
G01 X25.9943 Y35.7198
G01 X25.9855 Y35.6621
G01 X25.9837 Y35.6437
G01 X25.9811 Y35.5900
G01 X25.9813 Y35.5761
G01 X25.9843 Y35.5179
G01 X25.9943 Y35.4510
G01 X26.0107 Y35.3854
G01 X26.0301 Y35.3304
G01 X26.0353 Y35.3175
G01 X26.0624 Y35.2606
G01 X26.0971 Y35.2026
G01 X26.1374 Y35.1483
G01 X26.1796 Y35.1015
G01 X28.5210 Y32.7600
G01 X28.5210 Y29.3764
G01 X28.4755 Y29.3349
G01 X28.4100 Y29.2629
G01 X28.4014 Y29.2521
G01 X28.3517 Y29.1851
G01 X28.3438 Y29.1736
G01 X28.2939 Y29.0900
G01 X28.2541 Y29.0064
G01 X28.2470 Y28.9893
G01 X28.2189 Y28.9107
G01 X28.2147 Y28.8975
G01 X28.1912 Y28.8030
G01 X28.1774 Y28.7114
G01 X28.1756 Y28.6930
G01 X28.1713 Y28.6004
G01 X28.1763 Y28.4986
G01 X28.1897 Y28.4069
G01 X28.1933 Y28.3887
G01 X28.2135 Y28.3078
G01 X28.2174 Y28.2945
G01 X28.2503 Y28.2029
G01 X28.2939 Y28.1108
G01 X28.3463 Y28.0233
G01 X28.4071 Y27.9414
G01 X28.4755 Y27.8659
G01 X28.5510 Y27.7975
G01 X28.6329 Y27.7367
G01 X28.7204 Y27.6843
G01 X28.8125 Y27.6407
G01 X28.9085 Y27.6064
G01 X29.0074 Y27.5816
G01 X29.1082 Y27.5667
G01 X29.2100 Y27.5617
G01 X29.3118 Y27.5667
G01 X29.4126 Y27.5816
G01 X29.5026 Y27.6039
G01 X29.5159 Y27.6078
G01 X29.6075 Y27.6407
G01 X29.6914 Y27.6802
G01 X29.7077 Y27.6889
G01 X29.7871 Y27.7367
G01 X29.8617 Y27.7918
G01 X29.8760 Y27.8035
G01 X29.9445 Y27.8659
G01 X30.0129 Y27.9414
G01 X30.0737 Y28.0233
G01 X30.1215 Y28.1027
G01 X30.1302 Y28.1190
G01 X30.1697 Y28.2029
G01 X30.2040 Y28.2989
G01 X30.2267 Y28.3887
G01 X30.2303 Y28.4069
G01 X30.2426 Y28.4894
G01 X30.2441 Y28.5032
G01 X30.2487 Y28.6004
G01 X30.2444 Y28.6930
G01 X30.2426 Y28.7114
G01 X30.2288 Y28.8030
G01 X30.2065 Y28.8930
G01 X30.2011 Y28.9107
G01 X30.1714 Y28.9936
G01 X30.1659 Y29.0064
G01 X30.1261 Y29.0900
G01 X30.0786 Y29.1697
G01 X30.0710 Y29.1813
G01 X30.0186 Y29.2521
G01 X30.0100 Y29.2629
G01 X29.9445 Y29.3349
G01 X29.8990 Y29.3764
G01 X29.8990 Y33.0454
G01 X29.8957 Y33.1129
G01 X29.8873 Y33.1707
G01 X29.8837 Y33.1888
G01 X29.8718 Y33.2365
G01 X29.8679 Y33.2498
G01 X29.8499 Y33.3004
G01 X29.8428 Y33.3175
G01 X29.8176 Y33.3702
G01 X29.7878 Y33.4203
G01 X29.7775 Y33.4357
G01 X29.7426 Y33.4825
G01 X29.7004 Y33.5293
G01 X27.2589 Y35.9708
G01 X27.2589 Y38.3537
G01 X27.2661 Y38.3612
G01 X27.2721 Y38.3682
G01 X27.2832 Y38.3831
G01 X27.2927 Y38.3989
G01 X27.3006 Y38.4157
G01 X27.3068 Y38.4331
G01 X27.3113 Y38.4511
G01 X27.3141 Y38.4694
G01 X27.3150 Y38.4879
G01 X27.3147 Y39.3472
G01 X27.3129 Y39.3656
G01 X27.3104 Y39.3792
G01 X27.3054 Y39.3971
G01 X27.2988 Y39.4144
G01 X27.2927 Y39.4269
G01 X27.2832 Y39.4427
G01 X27.2750 Y39.4540
G01 X27.2629 Y39.4680
G01 X27.2495 Y39.4808
G01 X27.2424 Y39.4867
G01 X27.2311 Y39.4948
G01 X27.2152 Y39.5043
G01 X27.1985 Y39.5123
G01 X27.1810 Y39.5185
G01 X27.1631 Y39.5230
G01 X27.1447 Y39.5257
G01 X27.1262 Y39.5266
G01 X26.2045 Y39.5264
G01 X26.1906 Y39.5252
G01 X26.1724 Y39.5220
G01 X26.1546 Y39.5171
G01 X26.1415 Y39.5123
G01 X26.1289 Y39.5065
G01 X26.1128 Y39.4973
G01 X26.0976 Y39.4867
G01 X26.0836 Y39.4746
G01 X26.0708 Y39.4612
G01 X26.0595 Y39.4466
G01 X26.0495 Y39.4309
G01 X26.0412 Y39.4144
G01 X26.0361 Y39.4015
G01 X26.0332 Y39.3927
G01 X26.0287 Y39.3747
G01 X26.0259 Y39.3564
G01 X26.0250 Y39.3379
G01 X26.0253 Y38.4786
G01 X26.0264 Y38.4648
G01 X26.0296 Y38.4466
G01 X26.0346 Y38.4287
G01 X26.0412 Y38.4114
G01 X26.0495 Y38.3949
G01 X26.0595 Y38.3792
G01 X26.0708 Y38.3646
G01 X26.0811 Y38.3537
G00 Z1.2000
G00 X26.2024 Y38.4215
G01 F60.00
G01 Z-0.0650
G01 F120.00
G01 X26.2024 Y35.9068
G01 X26.1962 Y35.8980
G01 X26.1694 Y35.8530
G01 X26.1456 Y35.8026
G01 X26.1268 Y35.7502
G01 X26.1140 Y35.6994
G01 X26.1127 Y35.6929
G01 X26.1055 Y35.6443
G01 X26.1048 Y35.6377
G01 X26.1023 Y35.5854
G01 X26.1048 Y35.5331
G01 X26.1055 Y35.5265
G01 X26.1133 Y35.4747
G01 X26.1268 Y35.4206
G01 X26.1456 Y35.3682
G01 X26.1679 Y35.3208
G01 X26.1710 Y35.3149
G01 X26.1980 Y35.2700
G01 X26.2292 Y35.2279
G01 X26.2334 Y35.2228
G01 X26.2675 Y35.1852
G01 X28.6423 Y32.8103
G01 X28.6423 Y29.3203
G01 X28.6267 Y29.3085
G01 X28.5613 Y29.2491
G01 X28.5030 Y29.1849
G01 X28.4988 Y29.1798
G01 X28.4472 Y29.1101
G01 X28.4026 Y29.0357
G01 X28.3994 Y29.0299
G01 X28.3638 Y28.9545
G01 X28.3612 Y28.9484
G01 X28.3321 Y28.8667
G01 X28.3110 Y28.7826
G01 X28.3097 Y28.7761
G01 X28.2970 Y28.6903
G01 X28.2927 Y28.6037
G01 X28.2927 Y28.5971
G01 X28.2970 Y28.5105
G01 X28.3099 Y28.4231
G01 X28.3321 Y28.3341
G01 X28.3624 Y28.2493
G01 X28.4009 Y28.1679
G01 X28.4472 Y28.0907
G01 X28.5008 Y28.0184
G01 X28.5613 Y27.9517
G01 X28.6280 Y27.8912
G01 X28.6976 Y27.8395
G01 X28.7031 Y27.8358
G01 X28.7775 Y27.7913
G01 X28.8559 Y27.7542
G01 X28.8620 Y27.7516
G01 X28.9406 Y27.7235
G01 X28.9469 Y27.7216
G01 X29.0310 Y27.7006
G01 X29.1168 Y27.6878
G01 X29.1234 Y27.6872
G01 X29.2100 Y27.6830
G01 X29.2999 Y27.6874
G01 X29.3890 Y27.7006
G01 X29.4763 Y27.7225
G01 X29.5580 Y27.7516
G01 X29.5641 Y27.7542
G01 X29.6425 Y27.7913
G01 X29.7197 Y27.8376
G01 X29.7894 Y27.8892
G01 X29.7945 Y27.8934
G01 X29.8587 Y27.9517
G01 X29.9192 Y28.0184
G01 X29.9728 Y28.0907
G01 X30.0174 Y28.1651
G01 X30.0206 Y28.1709
G01 X30.0576 Y28.2493
G01 X30.0879 Y28.3341
G01 X30.1090 Y28.4182
G01 X30.1103 Y28.4247
G01 X30.1226 Y28.5072
G01 X30.1232 Y28.5138
G01 X30.1274 Y28.6004
G01 X30.1232 Y28.6870
G01 X30.1226 Y28.6936
G01 X30.1103 Y28.7761
G01 X30.1090 Y28.7826
G01 X30.0879 Y28.8667
G01 X30.0576 Y28.9515
G01 X30.0206 Y29.0299
G01 X30.0174 Y29.0357
G01 X29.9728 Y29.1101
G01 X29.9212 Y29.1798
G01 X29.9170 Y29.1849
G01 X29.8587 Y29.2491
G01 X29.7933 Y29.3085
G01 X29.7777 Y29.3203
G01 X29.7777 Y33.0454
G01 X29.7752 Y33.0977
G01 X29.7745 Y33.1043
G01 X29.7667 Y33.1561
G01 X29.7532 Y33.2102
G01 X29.7344 Y33.2626
G01 X29.7121 Y33.3100
G01 X29.7090 Y33.3159
G01 X29.6820 Y33.3608
G01 X29.6508 Y33.4029
G01 X29.6466 Y33.4080
G01 X29.6125 Y33.4456
G01 X27.1376 Y35.9206
G01 X27.1376 Y38.4215
G01 X27.1426 Y38.4225
G01 X27.1490 Y38.4244
G01 X27.1595 Y38.4293
G01 X27.1690 Y38.4358
G01 X27.1773 Y38.4439
G01 X27.1814 Y38.4491
G01 X27.1849 Y38.4547
G01 X27.1897 Y38.4652
G01 X27.1927 Y38.4764
G01 X27.1936 Y38.4879
G01 X27.1936 Y39.3396
G01 X27.1931 Y39.3462
G01 X27.1920 Y39.3527
G01 X27.1902 Y39.3590
G01 X27.1879 Y39.3652
G01 X27.1823 Y39.3753
G01 X27.1784 Y39.3807
G01 X27.1739 Y39.3856
G01 X27.1690 Y39.3900
G01 X27.1637 Y39.3939
G01 X27.1580 Y39.3973
G01 X27.1520 Y39.4002
G01 X27.1458 Y39.4024
G01 X27.1394 Y39.4040
G01 X27.1329 Y39.4050
G01 X27.1262 Y39.4053
G01 X26.2121 Y39.4053
G01 X26.2055 Y39.4048
G01 X26.1990 Y39.4037
G01 X26.1880 Y39.4002
G01 X26.1820 Y39.3973
G01 X26.1763 Y39.3939
G01 X26.1710 Y39.3900
G01 X26.1661 Y39.3856
G01 X26.1616 Y39.3807
G01 X26.1577 Y39.3753
G01 X26.1543 Y39.3697
G01 X26.1515 Y39.3637
G01 X26.1493 Y39.3575
G01 X26.1476 Y39.3510
G01 X26.1464 Y39.3396
G01 X26.1464 Y38.4846
G01 X26.1480 Y38.4731
G01 X26.1515 Y38.4621
G01 X26.1568 Y38.4518
G01 X26.1638 Y38.4426
G01 X26.1723 Y38.4348
G01 X26.1820 Y38.4285
G01 X26.1926 Y38.4239
G01 X26.2024 Y38.4215
G00 Z1.2000
G00 X28.6262 Y38.4205
G01 F60.00
G01 Z-0.0650
G01 F120.00
G01 X28.6329 Y38.4208
G01 X28.6394 Y38.4218
G01 X28.6458 Y38.4234
G01 X28.6520 Y38.4256
G01 X28.6580 Y38.4285
G01 X28.6637 Y38.4319
G01 X28.6727 Y38.4391
G01 X28.6804 Y38.4477
G01 X28.6841 Y38.4532
G01 X28.6872 Y38.4591
G01 X28.6897 Y38.4652
G01 X28.6916 Y38.4715
G01 X28.6929 Y38.4780
G01 X28.6936 Y38.4846
G01 X28.6936 Y39.3396
G01 X28.6931 Y39.3462
G01 X28.6920 Y39.3527
G01 X28.6885 Y39.3637
G01 X28.6857 Y39.3697
G01 X28.6823 Y39.3753
G01 X28.6784 Y39.3807
G01 X28.6739 Y39.3856
G01 X28.6690 Y39.3900
G01 X28.6637 Y39.3939
G01 X28.6580 Y39.3973
G01 X28.6520 Y39.4002
G01 X28.6458 Y39.4024
G01 X28.6394 Y39.4040
G01 X28.6279 Y39.4053
G01 X27.7138 Y39.4053
G01 X27.7071 Y39.4050
G01 X27.7006 Y39.4040
G01 X27.6942 Y39.4024
G01 X27.6880 Y39.4002
G01 X27.6820 Y39.3973
G01 X27.6763 Y39.3939
G01 X27.6710 Y39.3900
G01 X27.6661 Y39.3856
G01 X27.6616 Y39.3807
G01 X27.6577 Y39.3753
G01 X27.6543 Y39.3697
G01 X27.6515 Y39.3637
G01 X27.6493 Y39.3575
G01 X27.6476 Y39.3510
G01 X27.6464 Y39.3396
G01 X27.6464 Y38.4879
G01 X27.6467 Y38.4813
G01 X27.6476 Y38.4748
G01 X27.6493 Y38.4683
G01 X27.6515 Y38.4621
G01 X27.6543 Y38.4561
G01 X27.6577 Y38.4505
G01 X27.6616 Y38.4451
G01 X27.6661 Y38.4402
G01 X27.6710 Y38.4358
G01 X27.6763 Y38.4319
G01 X27.6864 Y38.4263
G01 X27.6926 Y38.4239
G01 X27.6990 Y38.4221
G01 X27.7055 Y38.4210
G01 X27.7121 Y38.4205
G01 X28.6262 Y38.4205
G00 Z1.2000
G00 X28.6262 Y38.2992
G01 F60.00
G01 Z-0.0650
G01 F120.00
G01 X28.6447 Y38.3001
G01 X28.6585 Y38.3020
G01 X28.6766 Y38.3060
G01 X28.6942 Y38.3118
G01 X28.7111 Y38.3193
G01 X28.7272 Y38.3285
G01 X28.7387 Y38.3363
G01 X28.7530 Y38.3481
G01 X28.7661 Y38.3612
G01 X28.7750 Y38.3718
G01 X28.7857 Y38.3869
G01 X28.7948 Y38.4030
G01 X28.8023 Y38.4200
G01 X28.8068 Y38.4331
G01 X28.8104 Y38.4466
G01 X28.8136 Y38.4648
G01 X28.8147 Y38.4786
G01 X28.8150 Y38.4879
G01 X28.8147 Y39.3472
G01 X28.8129 Y39.3656
G01 X28.8104 Y39.3792
G01 X28.8068 Y39.3927
G01 X28.8023 Y39.4058
G01 X28.7948 Y39.4228
G01 X28.7881 Y39.4349
G01 X28.7805 Y39.4466
G01 X28.7692 Y39.4612
G01 X28.7564 Y39.4746
G01 X28.7424 Y39.4867
G01 X28.7349 Y39.4922
G01 X28.7233 Y39.4998
G01 X28.7069 Y39.5085
G01 X28.6898 Y39.5156
G01 X28.6810 Y39.5185
G01 X28.6676 Y39.5220
G01 X28.6494 Y39.5252
G01 X28.6309 Y39.5266
G01 X27.7045 Y39.5264
G01 X27.6906 Y39.5252
G01 X27.6769 Y39.5230
G01 X27.6634 Y39.5198
G01 X27.6458 Y39.5140
G01 X27.6289 Y39.5065
G01 X27.6167 Y39.4998
G01 X27.6013 Y39.4895
G01 X27.5905 Y39.4808
G01 X27.5771 Y39.4680
G01 X27.5650 Y39.4540
G01 X27.5568 Y39.4427
G01 X27.5519 Y39.4349
G01 X27.5431 Y39.4186
G01 X27.5361 Y39.4015
G01 X27.5307 Y39.3838
G01 X27.5278 Y39.3702
G01 X27.5264 Y39.3610
G01 X27.5251 Y39.3425
G01 X27.5253 Y38.4786
G01 X27.5271 Y38.4602
G01 X27.5296 Y38.4466
G01 X27.5332 Y38.4331
G01 X27.5377 Y38.4200
G01 X27.5431 Y38.4072
G01 X27.5519 Y38.3909
G01 X27.5622 Y38.3755
G01 X27.5708 Y38.3646
G01 X27.5836 Y38.3512
G01 X27.5976 Y38.3391
G01 X27.6128 Y38.3285
G01 X27.6289 Y38.3193
G01 X27.6458 Y38.3118
G01 X27.6634 Y38.3060
G01 X27.6815 Y38.3020
G01 X27.6999 Y38.2997
G01 X27.7138 Y38.2992
G01 X28.6262 Y38.2992
G00 Z1.2000
G00 X29.0811 Y38.3537
G01 F60.00
G01 Z-0.0650
G01 F120.00
G01 X29.0811 Y35.8628
G01 X29.0646 Y35.8352
G01 X29.0602 Y35.8271
G01 X29.0353 Y35.7743
G01 X29.0301 Y35.7614
G01 X29.0136 Y35.7152
G01 X29.0094 Y35.7019
G01 X28.9943 Y35.6408
G01 X28.9855 Y35.5831
G01 X28.9837 Y35.5647
G01 X28.9811 Y35.5110
G01 X28.9813 Y35.4971
G01 X28.9843 Y35.4389
G01 X28.9943 Y35.3720
G01 X29.0107 Y35.3064
G01 X29.0335 Y35.2427
G01 X29.0624 Y35.1816
G01 X29.0971 Y35.1236
G01 X29.1374 Y35.0693
G01 X29.1764 Y35.0259
G01 X29.1861 Y35.0160
G01 X29.2259 Y34.9799
G01 X29.2402 Y34.9681
G01 X29.2872 Y34.9335
G01 X29.3372 Y34.9033
G01 X29.3493 Y34.8966
G01 X29.4063 Y34.8699
G01 X29.4700 Y34.8471
G01 X29.5356 Y34.8307
G01 X29.5933 Y34.8219
G01 X29.6117 Y34.8201
G01 X29.6654 Y34.8175
G01 X29.8926 Y34.8174
G01 X31.0610 Y33.6490
G01 X31.0610 Y32.4840
G01 X31.0509 Y32.4745
G01 X31.0445 Y32.4678
G01 X30.9918 Y32.4097
G01 X30.9800 Y32.3953
G01 X30.9279 Y32.3247
G01 X30.8826 Y32.2495
G01 X30.8739 Y32.2332
G01 X30.8365 Y32.1538
G01 X30.8039 Y32.0624
G01 X30.7803 Y31.9683
G01 X30.7672 Y31.8815
G01 X30.7654 Y31.8631
G01 X30.7613 Y31.7754
G01 X30.7660 Y31.6785
G01 X30.7803 Y31.5825
G01 X30.8014 Y31.4973
G01 X30.8068 Y31.4796
G01 X30.8332 Y31.4057
G01 X30.8403 Y31.3886
G01 X30.8780 Y31.3093
G01 X30.9230 Y31.2339
G01 X30.9305 Y31.2223
G01 X30.9857 Y31.1482
G01 X31.0509 Y31.0763
G01 X31.1228 Y31.0111
G01 X31.1931 Y30.9586
G01 X31.2085 Y30.9484
G01 X31.2759 Y30.9080
G01 X31.2922 Y30.8993
G01 X31.3716 Y30.8619
G01 X31.4630 Y30.8293
G01 X31.5571 Y30.8057
G01 X31.6439 Y30.7926
G01 X31.6623 Y30.7908
G01 X31.7407 Y30.7869
G01 X31.7593 Y30.7869
G01 X31.8469 Y30.7914
G01 X31.9429 Y30.8057
G01 X32.0370 Y30.8293
G01 X32.1284 Y30.8619
G01 X32.2161 Y30.9034
G01 X32.2915 Y30.9484
G01 X32.3069 Y30.9586
G01 X32.3772 Y31.0111
G01 X32.4424 Y31.0699
G01 X32.4555 Y31.0830
G01 X32.5143 Y31.1482
G01 X32.5668 Y31.2185
G01 X32.5770 Y31.2339
G01 X32.6220 Y31.3093
G01 X32.6597 Y31.3886
G01 X32.6668 Y31.4057
G01 X32.6961 Y31.4884
G01 X32.7177 Y31.5735
G01 X32.7213 Y31.5916
G01 X32.7340 Y31.6785
G01 X32.7387 Y31.7754
G01 X32.7346 Y31.8631
G01 X32.7328 Y31.8815
G01 X32.7213 Y31.9592
G01 X32.7177 Y31.9773
G01 X32.6961 Y32.0624
G01 X32.6668 Y32.1451
G01 X32.6597 Y32.1622
G01 X32.6220 Y32.2415
G01 X32.5721 Y32.3247
G01 X32.5143 Y32.4026
G01 X32.4555 Y32.4678
G01 X32.4491 Y32.4745
G01 X32.4390 Y32.4840
G01 X32.4390 Y33.9344
G01 X32.4357 Y34.0019
G01 X32.4273 Y34.0597
G01 X32.4248 Y34.0733
G01 X32.4093 Y34.1344
G01 X32.3899 Y34.1894
G01 X32.3828 Y34.2065
G01 X32.3576 Y34.2592
G01 X32.3278 Y34.3093
G01 X32.3175 Y34.3247
G01 X32.2826 Y34.3715
G01 X32.2436 Y34.4149
G01 X30.6652 Y35.9936
G01 X30.6151 Y36.0390
G01 X30.5683 Y36.0739
G01 X30.5569 Y36.0818
G01 X30.5108 Y36.1095
G01 X30.4945 Y36.1182
G01 X30.4417 Y36.1429
G01 X30.3780 Y36.1657
G01 X30.3124 Y36.1821
G01 X30.2589 Y36.1903
G01 X30.2589 Y38.3537
G01 X30.2661 Y38.3612
G01 X30.2721 Y38.3682
G01 X30.2832 Y38.3831
G01 X30.2927 Y38.3989
G01 X30.3006 Y38.4157
G01 X30.3068 Y38.4331
G01 X30.3113 Y38.4511
G01 X30.3141 Y38.4694
G01 X30.3150 Y38.4879
G01 X30.3147 Y39.3472
G01 X30.3129 Y39.3656
G01 X30.3104 Y39.3792
G01 X30.3054 Y39.3971
