(G-CODE GENERATED BY FLATCAM v8.993 - www.flatcam.org - Version Date: 2020/08/01)

(Name: Wasserhahn-B_Cu-.gbl_ncc_cnc)
(Type: G-code from Geometry)
(Units: MM)

(Created on Samstag, 16 Mai 2020 at 21:11)

(This preprocessor is the default preprocessor used by FlatCAM.)
(It is made to work with MACH3 compatible motion controllers.)

(TOOL DIAMETER: 0.2 mm)
(Feedrate_XY: 120.0 mm/min)
(Feedrate_Z: 60.0 mm/min)
(Feedrate rapids 1500.0 mm/min)

(Z_Cut: -0.1866 mm)
(Z_Move: 2.0 mm)
(Z Start: None mm)
(Z End: 15.0 mm)
(Steps per circle: 64)
(Preprocessor Geometry: default)

(X range:  152.1000 ...  177.9000  mm)
(Y range:  -70.9000 ...  -47.1000  mm)

(Spindle Speed: None RPM)
G21
G90
G94



G01 F120.00
G00 Z2.0000

M03
G00 X152.1000 Y-47.1000
G01 F60.00
G01 Z-0.1866
G01 F120.00
G01 X152.1000 Y-49.1823
G01 X152.2900 Y-49.1823
G01 X152.2900 Y-47.1000
G01 X152.1000 Y-47.1000
G01 X155.0198 Y-47.1000
G01 X155.0198 Y-49.1677
G01 X155.0082 Y-49.1744
G01 X154.9984 Y-49.1818
G01 X154.9897 Y-49.1903
G01 X154.9849 Y-49.1960
G01 X154.9806 Y-49.2019
G01 X154.9744 Y-49.2125
G01 X154.9714 Y-49.2192
G01 X154.9688 Y-49.2261
G01 X154.9667 Y-49.2332
G01 X154.9652 Y-49.2404
G01 X154.9639 Y-49.2526
G01 X154.9638 Y-50.1100
G01 X154.9645 Y-50.1197
G01 X154.9662 Y-50.1294
G01 X154.9688 Y-50.1389
G01 X154.9723 Y-50.1480
G01 X154.9767 Y-50.1568
G01 X154.9806 Y-50.1631
G01 X154.9864 Y-50.1709
G01 X154.9930 Y-50.1782
G01 X155.0003 Y-50.1848
G01 X155.0082 Y-50.1906
G01 X155.0166 Y-50.1957
G01 X155.0255 Y-50.1999
G01 X155.0347 Y-50.2032
G01 X155.0442 Y-50.2056
G01 X155.0539 Y-50.2070
G01 X155.0638 Y-50.2075
G01 X155.9762 Y-50.2075
G01 X155.9836 Y-50.2072
G01 X155.9909 Y-50.2064
G01 X155.9982 Y-50.2051
G01 X156.0053 Y-50.2032
G01 X156.0122 Y-50.2008
G01 X156.0190 Y-50.1979
G01 X156.0255 Y-50.1945
G01 X156.0318 Y-50.1906
G01 X156.0378 Y-50.1863
G01 X156.0434 Y-50.1816
G01 X156.0503 Y-50.1747
G01 X156.0551 Y-50.1690
G01 X156.0594 Y-50.1631
G01 X156.0633 Y-50.1568
G01 X156.0666 Y-50.1503
G01 X156.0695 Y-50.1435
G01 X156.0719 Y-50.1365
G01 X156.0738 Y-50.1294
G01 X156.0752 Y-50.1222
G01 X156.0760 Y-50.1149
G01 X156.0762 Y-50.1075
G01 X156.0761 Y-49.2526
G01 X156.0755 Y-49.2453
G01 X156.0743 Y-49.2380
G01 X156.0712 Y-49.2261
G01 X156.0666 Y-49.2147
G01 X156.0633 Y-49.2082
G01 X156.0594 Y-49.2019
G01 X156.0551 Y-49.1960
G01 X156.0503 Y-49.1903
G01 X156.0416 Y-49.1818
G01 X156.0318 Y-49.1744
G01 X156.0202 Y-49.1677
G01 X156.0202 Y-47.1000
G01 X156.5198 Y-47.1000
G01 X156.5198 Y-49.1677
G01 X156.5082 Y-49.1744
G01 X156.4984 Y-49.1818
G01 X156.4897 Y-49.1903
G01 X156.4849 Y-49.1960
G01 X156.4806 Y-49.2019
G01 X156.4744 Y-49.2125
G01 X156.4714 Y-49.2192
G01 X156.4688 Y-49.2261
G01 X156.4667 Y-49.2332
G01 X156.4652 Y-49.2404
G01 X156.4639 Y-49.2526
G01 X156.4638 Y-50.1100
G01 X156.4645 Y-50.1197
G01 X156.4662 Y-50.1294
G01 X156.4688 Y-50.1389
G01 X156.4723 Y-50.1480
G01 X156.4767 Y-50.1568
G01 X156.4806 Y-50.1631
G01 X156.4864 Y-50.1709
G01 X156.4930 Y-50.1782
G01 X156.5003 Y-50.1848
G01 X156.5082 Y-50.1906
G01 X156.5166 Y-50.1957
G01 X156.5255 Y-50.1999
G01 X156.5347 Y-50.2032
G01 X156.5442 Y-50.2056
G01 X156.5539 Y-50.2070
G01 X156.5638 Y-50.2075
G01 X157.4762 Y-50.2075
G01 X157.4836 Y-50.2072
G01 X157.4909 Y-50.2064
G01 X157.4982 Y-50.2051
G01 X157.5053 Y-50.2032
G01 X157.5122 Y-50.2008
G01 X157.5190 Y-50.1979
G01 X157.5255 Y-50.1945
G01 X157.5318 Y-50.1906
G01 X157.5378 Y-50.1863
G01 X157.5434 Y-50.1816
G01 X157.5503 Y-50.1747
G01 X157.5551 Y-50.1690
G01 X157.5594 Y-50.1631
G01 X157.5633 Y-50.1568
G01 X157.5666 Y-50.1503
G01 X157.5695 Y-50.1435
G01 X157.5719 Y-50.1365
G01 X157.5738 Y-50.1294
G01 X157.5752 Y-50.1222
G01 X157.5760 Y-50.1149
G01 X157.5762 Y-50.1075
G01 X157.5761 Y-49.2526
G01 X157.5755 Y-49.2453
G01 X157.5743 Y-49.2380
G01 X157.5712 Y-49.2261
G01 X157.5666 Y-49.2147
G01 X157.5633 Y-49.2082
G01 X157.5594 Y-49.2019
G01 X157.5551 Y-49.1960
G01 X157.5503 Y-49.1903
G01 X157.5416 Y-49.1818
G01 X157.5318 Y-49.1744
G01 X157.5202 Y-49.1677
G01 X157.5202 Y-47.1000
G01 X159.5198 Y-47.1000
G01 X159.5198 Y-49.1677
G01 X159.5082 Y-49.1744
G01 X159.4984 Y-49.1818
G01 X159.4897 Y-49.1903
G01 X159.4849 Y-49.1960
G01 X159.4806 Y-49.2019
G01 X159.4744 Y-49.2125
G01 X159.4714 Y-49.2192
G01 X159.4688 Y-49.2261
G01 X159.4667 Y-49.2332
G01 X159.4652 Y-49.2404
G01 X159.4639 Y-49.2526
G01 X159.4638 Y-50.1100
G01 X159.4645 Y-50.1197
G01 X159.4662 Y-50.1294
G01 X159.4688 Y-50.1389
G01 X159.4723 Y-50.1480
G01 X159.4767 Y-50.1568
G01 X159.4806 Y-50.1631
G01 X159.4864 Y-50.1709
G01 X159.4930 Y-50.1782
G01 X159.5003 Y-50.1848
G01 X159.5082 Y-50.1906
G01 X159.5166 Y-50.1957
G01 X159.5255 Y-50.1999
G01 X159.5347 Y-50.2032
G01 X159.5442 Y-50.2056
G01 X159.5539 Y-50.2070
G01 X159.5638 Y-50.2075
G01 X160.4762 Y-50.2075
G01 X160.4836 Y-50.2072
G01 X160.4909 Y-50.2064
G01 X160.4982 Y-50.2051
G01 X160.5053 Y-50.2032
G01 X160.5122 Y-50.2008
G01 X160.5190 Y-50.1979
G01 X160.5255 Y-50.1945
G01 X160.5318 Y-50.1906
G01 X160.5378 Y-50.1863
G01 X160.5434 Y-50.1816
G01 X160.5503 Y-50.1747
G01 X160.5551 Y-50.1690
G01 X160.5594 Y-50.1631
G01 X160.5633 Y-50.1568
G01 X160.5666 Y-50.1503
G01 X160.5695 Y-50.1435
G01 X160.5719 Y-50.1365
G01 X160.5738 Y-50.1294
G01 X160.5752 Y-50.1222
G01 X160.5760 Y-50.1149
G01 X160.5762 Y-50.1075
G01 X160.5761 Y-49.2526
G01 X160.5755 Y-49.2453
G01 X160.5743 Y-49.2380
G01 X160.5712 Y-49.2261
G01 X160.5666 Y-49.2147
G01 X160.5633 Y-49.2082
G01 X160.5594 Y-49.2019
G01 X160.5551 Y-49.1960
G01 X160.5503 Y-49.1903
G01 X160.5416 Y-49.1818
G01 X160.5318 Y-49.1744
G01 X160.5202 Y-49.1677
G01 X160.5202 Y-47.1000
G01 X160.9467 Y-47.1000
G01 X160.9553 Y-47.1579
G01 X160.9683 Y-47.2103
G01 X160.9711 Y-47.2197
G01 X160.9894 Y-47.2705
G01 X161.0124 Y-47.3194
G01 X161.0170 Y-47.3280
G01 X161.0438 Y-47.3726
G01 X161.0438 Y-49.1595
G01 X161.0347 Y-49.1618
G01 X161.0278 Y-49.1642
G01 X161.0188 Y-49.1682
G01 X161.0123 Y-49.1717
G01 X161.0062 Y-49.1757
G01 X160.9984 Y-49.1818
G01 X160.9930 Y-49.1868
G01 X160.9880 Y-49.1922
G01 X160.9834 Y-49.1979
G01 X160.9780 Y-49.2061
G01 X160.9744 Y-49.2125
G01 X160.9714 Y-49.2192
G01 X160.9688 Y-49.2261
G01 X160.9667 Y-49.2332
G01 X160.9652 Y-49.2404
G01 X160.9640 Y-49.2501
G01 X160.9638 Y-49.2575
G01 X160.9638 Y-50.1075
G01 X160.9642 Y-50.1173
G01 X160.9657 Y-50.1270
G01 X160.9681 Y-50.1365
G01 X160.9714 Y-50.1458
G01 X160.9756 Y-50.1546
G01 X160.9806 Y-50.1631
G01 X160.9864 Y-50.1709
G01 X160.9930 Y-50.1782
G01 X161.0003 Y-50.1848
G01 X161.0082 Y-50.1906
G01 X161.0166 Y-50.1957
G01 X161.0255 Y-50.1999
G01 X161.0347 Y-50.2032
G01 X161.0442 Y-50.2056
G01 X161.0539 Y-50.2070
G01 X161.0638 Y-50.2075
G01 X161.9812 Y-50.2074
G01 X161.9885 Y-50.2067
G01 X161.9958 Y-50.2056
G01 X162.0029 Y-50.2039
G01 X162.0099 Y-50.2017
G01 X162.0168 Y-50.1989
G01 X162.0234 Y-50.1957
G01 X162.0338 Y-50.1893
G01 X162.0434 Y-50.1816
G01 X162.0487 Y-50.1765
G01 X162.0536 Y-50.1709
G01 X162.0580 Y-50.1651
G01 X162.0620 Y-50.1589
G01 X162.0656 Y-50.1525
G01 X162.0686 Y-50.1458
G01 X162.0719 Y-50.1365
G01 X162.0743 Y-50.1270
G01 X162.0758 Y-50.1173
G01 X162.0762 Y-50.1075
G01 X162.0762 Y-49.2550
G01 X162.0755 Y-49.2453
G01 X162.0738 Y-49.2356
G01 X162.0712 Y-49.2261
G01 X162.0677 Y-49.2170
G01 X162.0633 Y-49.2082
G01 X162.0580 Y-49.1999
G01 X162.0520 Y-49.1922
G01 X162.0442 Y-49.1841
G01 X162.0442 Y-47.3895
G01 X162.3337 Y-47.1000
G01 X165.5198 Y-47.1000
G01 X165.5198 Y-49.1677
G01 X165.5082 Y-49.1744
G01 X165.5022 Y-49.1787
G01 X165.4966 Y-49.1834
G01 X165.4913 Y-49.1885
G01 X165.4864 Y-49.1941
G01 X165.4793 Y-49.2040
G01 X165.4756 Y-49.2104
G01 X165.4723 Y-49.2170
G01 X165.4696 Y-49.2238
G01 X165.4674 Y-49.2308
G01 X165.4657 Y-49.2380
G01 X165.4645 Y-49.2453
G01 X165.4638 Y-49.2575
G01 X165.4639 Y-50.1124
G01 X165.4645 Y-50.1197
G01 X165.4657 Y-50.1270
G01 X165.4688 Y-50.1389
G01 X165.4714 Y-50.1458
G01 X165.4744 Y-50.1525
G01 X165.4806 Y-50.1631
G01 X165.4849 Y-50.1690
G01 X165.4897 Y-50.1747
G01 X165.4984 Y-50.1832
G01 X165.5082 Y-50.1906
G01 X165.5198 Y-50.1973
G01 X165.5198 Y-51.4697
G01 X159.6336 Y-51.4697
G01 X159.0202 Y-50.8563
G01 X159.0202 Y-50.1973
G01 X159.0318 Y-50.1906
G01 X159.0378 Y-50.1863
G01 X159.0434 Y-50.1816
G01 X159.0487 Y-50.1765
G01 X159.0536 Y-50.1709
G01 X159.0607 Y-50.1610
G01 X159.0644 Y-50.1546
G01 X159.0677 Y-50.1480
G01 X159.0719 Y-50.1365
G01 X159.0748 Y-50.1246
G01 X159.0758 Y-50.1173
G01 X159.0762 Y-50.1100
G01 X159.0762 Y-49.2550
G01 X159.0758 Y-49.2477
G01 X159.0748 Y-49.2404
G01 X159.0733 Y-49.2332
G01 X159.0712 Y-49.2261
G01 X159.0686 Y-49.2192
G01 X159.0656 Y-49.2125
G01 X159.0620 Y-49.2061
G01 X159.0580 Y-49.1999
G01 X159.0503 Y-49.1903
G01 X159.0434 Y-49.1834
G01 X159.0338 Y-49.1757
G01 X159.0234 Y-49.1693
G01 X159.0145 Y-49.1651
G01 X159.0029 Y-49.1611
G01 X158.9933 Y-49.1590
G01 X158.9812 Y-49.1576
G01 X158.0638 Y-49.1575
G01 X158.0539 Y-49.1580
G01 X158.0442 Y-49.1594
G01 X158.0371 Y-49.1611
G01 X158.0278 Y-49.1642
G01 X158.0188 Y-49.1682
G01 X158.0123 Y-49.1717
G01 X158.0042 Y-49.1772
G01 X157.9984 Y-49.1818
G01 X157.9930 Y-49.1868
G01 X157.9880 Y-49.1922
G01 X157.9834 Y-49.1979
G01 X157.9780 Y-49.2061
G01 X157.9734 Y-49.2147
G01 X157.9705 Y-49.2215
G01 X157.9674 Y-49.2308
G01 X157.9657 Y-49.2380
G01 X157.9645 Y-49.2453
G01 X157.9638 Y-49.2550
G01 X157.9638 Y-50.1100
G01 X157.9648 Y-50.1222
G01 X157.9662 Y-50.1294
G01 X157.9681 Y-50.1365
G01 X157.9705 Y-50.1435
G01 X157.9734 Y-50.1503
G01 X157.9793 Y-50.1610
G01 X157.9834 Y-50.1671
G01 X157.9880 Y-50.1728
G01 X157.9966 Y-50.1816
G01 X158.0022 Y-50.1863
G01 X158.0082 Y-50.1906
G01 X158.0198 Y-50.1973
G01 X158.0198 Y-50.8732
G01 X157.9906 Y-50.9220
G01 X157.9674 Y-50.9708
G01 X157.9637 Y-50.9799
G01 X157.9456 Y-51.0308
G01 X157.9313 Y-51.0879
G01 X157.9232 Y-51.1413
G01 X157.9223 Y-51.1511
G01 X157.9197 Y-51.2050
G01 X157.9226 Y-51.2638
G01 X157.9304 Y-51.3173
G01 X157.9318 Y-51.3245
G01 X157.9443 Y-51.3745
G01 X157.9471 Y-51.3839
G01 X157.9654 Y-51.4347
G01 X157.9819 Y-51.4697
G01 X156.2075 Y-51.4698
G01 X156.1561 Y-51.4723
G01 X156.1463 Y-51.4732
G01 X156.0929 Y-51.4813
G01 X156.0405 Y-51.4943
G01 X156.0311 Y-51.4971
G01 X155.9803 Y-51.5154
G01 X155.9314 Y-51.5384
G01 X155.9249 Y-51.5418
G01 X155.8765 Y-51.5709
G01 X155.8331 Y-51.6030
G01 X155.8255 Y-51.6092
G01 X155.7856 Y-51.6456
G01 X153.5956 Y-53.8356
G01 X153.5560 Y-53.8792
G01 X153.5237 Y-53.9225
G01 X153.5183 Y-53.9307
G01 X153.4906 Y-53.9770
G01 X153.4674 Y-54.0258
G01 X153.4637 Y-54.0349
G01 X153.4456 Y-54.0858
G01 X153.4313 Y-54.1429
G01 X153.4232 Y-54.1963
G01 X153.4223 Y-54.2061
G01 X153.4197 Y-54.2600
G01 X153.4226 Y-54.3188
G01 X153.4304 Y-54.3723
G01 X153.4324 Y-54.3819
G01 X153.4456 Y-54.4342
G01 X153.4637 Y-54.4851
G01 X153.4674 Y-54.4942
G01 X153.4906 Y-54.5430
G01 X153.5198 Y-54.5918
G01 X153.5198 Y-66.6427
G01 X153.5082 Y-66.6494
G01 X153.5022 Y-66.6537
G01 X153.4966 Y-66.6584
G01 X153.4913 Y-66.6635
G01 X153.4864 Y-66.6691
G01 X153.4793 Y-66.6790
G01 X153.4756 Y-66.6854
G01 X153.4723 Y-66.6920
G01 X153.4696 Y-66.6988
G01 X153.4674 Y-66.7058
G01 X153.4657 Y-66.7130
G01 X153.4645 Y-66.7203
G01 X153.4638 Y-66.7325
G01 X153.4638 Y-67.5850
G01 X153.4645 Y-67.5947
G01 X153.4662 Y-67.6044
G01 X153.4688 Y-67.6139
G01 X153.4714 Y-67.6208
G01 X153.4756 Y-67.6296
G01 X153.4806 Y-67.6381
G01 X153.4864 Y-67.6459
G01 X153.4925 Y-67.6526
G01 X152.1000 Y-69.0451
G01 X152.1000 Y-50.1827
G01 X153.4978 Y-50.1827
G01 X153.5042 Y-50.1878
G01 X153.5123 Y-50.1933
G01 X153.5188 Y-50.1968
G01 X153.5278 Y-50.2008
G01 X153.5347 Y-50.2032
G01 X153.5442 Y-50.2056
G01 X153.5515 Y-50.2067
G01 X153.5613 Y-50.2075
G01 X154.4787 Y-50.2075
G01 X154.4885 Y-50.2067
G01 X154.4982 Y-50.2051
G01 X154.5076 Y-50.2025
G01 X154.5168 Y-50.1989
G01 X154.5255 Y-50.1945
G01 X154.5338 Y-50.1893
G01 X154.5416 Y-50.1832
G01 X154.5487 Y-50.1765
G01 X154.5551 Y-50.1690
G01 X154.5607 Y-50.1610
G01 X154.5656 Y-50.1525
G01 X154.5695 Y-50.1435
G01 X154.5726 Y-50.1342
G01 X154.5743 Y-50.1270
G01 X154.5758 Y-50.1173
G01 X154.5762 Y-50.1075
G01 X154.5762 Y-49.2575
G01 X154.5760 Y-49.2501
G01 X154.5752 Y-49.2428
G01 X154.5738 Y-49.2356
G01 X154.5719 Y-49.2285
G01 X154.5695 Y-49.2215
G01 X154.5666 Y-49.2147
G01 X154.5633 Y-49.2082
G01 X154.5566 Y-49.1979
G01 X154.5520 Y-49.1922
G01 X154.5470 Y-49.1868
G01 X154.5416 Y-49.1818
G01 X154.5358 Y-49.1772
G01 X154.5297 Y-49.1730
G01 X154.5234 Y-49.1693
G01 X154.5122 Y-49.1642
G01 X154.5029 Y-49.1611
G01 X154.4933 Y-49.1590
G01 X154.4861 Y-49.1580
G01 X154.4762 Y-49.1575
G01 X153.5638 Y-49.1575
G01 X153.5539 Y-49.1580
G01 X153.5467 Y-49.1590
G01 X153.5371 Y-49.1611
G01 X153.5278 Y-49.1642
G01 X153.5188 Y-49.1682
G01 X153.5123 Y-49.1717
G01 X153.5042 Y-49.1772
G01 X153.4978 Y-49.1823
G01 X152.1000 Y-49.1823
G01 X152.1000 Y-47.1000
G01 X152.4800 Y-47.1000
G01 X152.4800 Y-49.1823
G01 X152.6700 Y-49.1823
G01 X152.6700 Y-47.1000
G01 X152.8600 Y-47.1000
G01 X152.8600 Y-49.1823
G01 X153.0500 Y-49.1823
G01 X153.0500 Y-47.1000
G01 X153.2400 Y-47.1000
G01 X153.2400 Y-49.1823
G01 X153.4300 Y-49.1823
G01 X153.4300 Y-47.1000
G01 X153.6200 Y-47.1000
G01 X153.6200 Y-49.1575
G01 X153.8100 Y-49.1575
G01 X153.8100 Y-47.1000
G01 X154.0000 Y-47.1000
G01 X154.0000 Y-49.1575
G01 X154.1900 Y-49.1575
G01 X154.1900 Y-47.1000
G01 X154.3800 Y-47.1000
G01 X154.3800 Y-49.1575
G00 Z2.0000
G00 X154.5700 Y-49.2227
G01 F60.00
G01 Z-0.1866
G01 F120.00
G01 X154.5700 Y-47.1000
G01 X154.7600 Y-47.1000
G01 X154.7600 Y-52.6711
G01 X154.5700 Y-52.8611
G01 X154.5700 Y-50.1423
G00 Z2.0000
G00 X154.3800 Y-50.2075
G01 F60.00
G01 Z-0.1866
G01 F120.00
G01 X154.3800 Y-53.0511
G01 X154.1900 Y-53.2411
G01 X154.1900 Y-50.2075
G01 X154.0000 Y-50.2075
G01 X154.0000 Y-53.4311
G01 X153.8100 Y-53.6211
G01 X153.8100 Y-50.2075
G01 X153.6200 Y-50.2075
G01 X153.6200 Y-53.8111
G00 Z2.0000
G00 X153.4300 Y-54.1507
G01 F60.00
G01 Z-0.1866
G01 F120.00
G01 X153.4300 Y-50.1827
G01 X153.2400 Y-50.1827
G01 X153.2400 Y-67.9051
G01 X153.0500 Y-68.0951
G01 X153.0500 Y-50.1827
G01 X152.8600 Y-50.1827
G01 X152.8600 Y-68.2851
G01 X152.6700 Y-68.4751
G01 X152.6700 Y-50.1827
G01 X152.4800 Y-50.1827
G01 X152.4800 Y-68.6651
G01 X152.2900 Y-68.8551
G01 X152.2900 Y-50.1827
G01 X152.1000 Y-50.1827
G01 X152.1000 Y-69.0451
G01 X153.4300 Y-67.7151
G01 X153.4300 Y-54.3693
G00 Z2.0000
G00 X154.5202 Y-54.7000
G01 F60.00
G01 Z-0.1866
G01 F120.00
G01 X158.7847 Y-54.7000
G01 X158.7847 Y-54.5100
G01 X154.6189 Y-54.5100
G01 X154.8089 Y-54.3200
G01 X158.7847 Y-54.3200
G01 X158.7847 Y-54.1300
G01 X154.9989 Y-54.1300
G01 X155.1889 Y-53.9400
G01 X158.7847 Y-53.9400
G01 X158.7847 Y-53.7500
G01 X155.3789 Y-53.7500
G01 X155.5689 Y-53.5600
G01 X158.7847 Y-53.5600
G01 X158.7847 Y-53.3700
G01 X155.7589 Y-53.3700
G01 X155.9489 Y-53.1800
G01 X158.7847 Y-53.1800
G01 X158.7847 Y-52.9900
G01 X156.1389 Y-52.9900
G01 X156.3289 Y-52.8000
G01 X158.7847 Y-52.8000
G00 Z2.0000
G00 X159.9853 Y-52.8000
G01 F60.00
G01 Z-0.1866
G01 F120.00
G01 X177.6569 Y-52.8000
G01 X177.6569 Y-52.9900
G01 X159.9853 Y-52.9900
G01 X159.9853 Y-53.1800
G01 X177.6569 Y-53.1800
G01 X177.6569 Y-53.3700
G01 X159.9853 Y-53.3700
G01 X159.9853 Y-53.5600
G01 X177.6569 Y-53.5600
G01 X177.6569 Y-53.7500
G01 X159.9853 Y-53.7500
G01 X159.9853 Y-53.9400
G01 X177.6569 Y-53.9400
G01 X177.6569 Y-54.1300
G01 X159.9853 Y-54.1300
G01 X159.9853 Y-54.3200
G01 X177.6569 Y-54.3200
G01 X177.6569 Y-54.5100
G01 X159.9853 Y-54.5100
G01 X159.9853 Y-54.7000
G01 X177.6569 Y-54.7000
G01 X177.6569 Y-54.8900
G01 X159.9832 Y-54.8900
G00 Z2.0000
G00 X158.7868 Y-54.8900
G01 F60.00
G01 Z-0.1866
G01 F120.00
G01 X154.5202 Y-54.8900
G01 X154.5202 Y-55.0800
G01 X157.2186 Y-55.0800
G00 Z2.0000
G00 X157.1900 Y-55.2700
G01 F60.00
G01 Z-0.1866
G01 F120.00
G01 X154.5202 Y-55.2700
G01 X154.5202 Y-55.4600
G01 X157.1900 Y-55.4600
G01 X157.1900 Y-55.6500
G01 X154.5202 Y-55.6500
G01 X154.5202 Y-55.8400
G01 X157.1900 Y-55.8400
G01 X157.1900 Y-56.0300
G01 X154.5202 Y-56.0300
G01 X154.5202 Y-56.2200
G01 X157.1900 Y-56.2200
G01 X157.1900 Y-56.4100
G01 X154.5202 Y-56.4100
G01 X154.5202 Y-56.6000
G01 X157.1900 Y-56.6000
G01 X157.1900 Y-56.7900
G01 X154.5202 Y-56.7900
G01 X154.5202 Y-56.9800
G01 X157.1900 Y-56.9800
G01 X157.1900 Y-57.1700
G01 X154.5202 Y-57.1700
G01 X154.5202 Y-57.3600
G01 X157.1900 Y-57.3600
G01 X157.1900 Y-57.5500
G01 X154.5202 Y-57.5500
G01 X154.5202 Y-57.7400
G01 X157.1900 Y-57.7400
G01 X157.1900 Y-57.9300
G01 X154.5202 Y-57.9300
G01 X154.5202 Y-58.1200
G01 X157.1900 Y-58.1200
G01 X157.1900 Y-58.3100
G01 X154.5202 Y-58.3100
G01 X154.5202 Y-58.5000
G01 X157.1900 Y-58.5000
G01 X157.1900 Y-58.6900
G01 X154.5202 Y-58.6900
G01 X154.5202 Y-58.8800
G01 X157.1900 Y-58.8800
G01 X157.1900 Y-59.0700
G01 X154.5202 Y-59.0700
G01 X154.5202 Y-59.2600
G01 X157.1900 Y-59.2600
G00 Z2.0000
G00 X157.1900 Y-59.4500
G01 F60.00
G01 Z-0.1866
G01 F120.00
G01 X154.5202 Y-59.4500
G01 X154.5202 Y-59.6400
G01 X177.6569 Y-59.6400
G01 X177.6569 Y-59.8300
G01 X154.5202 Y-59.8300
G01 X154.5202 Y-60.0200
G01 X177.6569 Y-60.0200
G01 X177.6569 Y-60.2100
G01 X154.5202 Y-60.2100
G01 X154.5202 Y-60.4000
G01 X177.6569 Y-60.4000
G01 X177.6569 Y-60.5900
G01 X154.5202 Y-60.5900
G01 X154.5202 Y-60.7800
G01 X177.6569 Y-60.7800
G01 X177.6569 Y-60.9700
G01 X154.5202 Y-60.9700
G01 X154.5202 Y-61.1600
G01 X177.6569 Y-61.1600
G01 X177.6569 Y-61.3500
G01 X154.5202 Y-61.3500
G01 X154.5202 Y-61.5400
G01 X177.6569 Y-61.5400
G01 X177.6569 Y-61.7300
G01 X154.5202 Y-61.7300
G01 X154.5202 Y-61.9200
G01 X177.6569 Y-61.9200
G01 X177.6569 Y-62.1100
G01 X154.5202 Y-62.1100
G01 X154.5202 Y-62.3000
G01 X177.6569 Y-62.3000
G01 X177.6569 Y-62.4900
G01 X154.5202 Y-62.4900
G01 X154.5202 Y-62.6800
G01 X177.6569 Y-62.6800
G01 X177.6569 Y-62.8700
G01 X154.5202 Y-62.8700
G01 X154.5202 Y-63.0600
G01 X177.6569 Y-63.0600
G01 X177.6569 Y-63.2500
G01 X154.5202 Y-63.2500
G01 X154.5202 Y-63.4400
G01 X177.6569 Y-63.4400
G01 X177.6569 Y-63.6300
G01 X154.5202 Y-63.6300
G01 X154.5202 Y-63.8200
G01 X177.6569 Y-63.8200
G01 X177.6569 Y-64.0100
G01 X154.5202 Y-64.0100
G01 X154.5202 Y-64.2000
G01 X177.6569 Y-64.2000
G01 X177.6569 Y-64.3900
G01 X154.5202 Y-64.3900
G01 X154.5202 Y-64.5800
G01 X177.6569 Y-64.5800
G01 X177.6569 Y-64.7700
G01 X154.5202 Y-64.7700
G01 X154.5202 Y-64.9600
G01 X177.6569 Y-64.9600
G01 X177.6569 Y-65.1500
G01 X154.5202 Y-65.1500
G01 X154.5202 Y-65.3400
G01 X177.6569 Y-65.3400
G01 X177.6569 Y-65.5300
G01 X154.5202 Y-65.5300
G01 X154.5202 Y-65.7200
G01 X177.6569 Y-65.7200
G01 X177.6569 Y-65.9100
G01 X154.5202 Y-65.9100
G01 X154.5202 Y-66.1000
G01 X177.6569 Y-66.1000
G01 X177.6569 Y-66.2900
G01 X154.5202 Y-66.2900
G01 X154.5202 Y-66.4800
G01 X177.6569 Y-66.4800
G01 X177.6569 Y-66.6700
G01 X166.5543 Y-66.6700
G00 Z2.0000
G00 X166.5762 Y-66.8600
G01 F60.00
G01 Z-0.1866
G01 F120.00
G01 X177.6569 Y-66.8600
G01 X177.6569 Y-67.0500
G01 X166.5762 Y-67.0500
G01 X166.5762 Y-67.2400
G01 X177.6569 Y-67.2400
G01 X177.6569 Y-67.4300
G01 X166.5762 Y-67.4300
G00 Z2.0000
G00 X166.5689 Y-67.6200
G01 F60.00
G01 Z-0.1866
G01 F120.00
G01 X177.6569 Y-67.6200
G01 X177.6569 Y-67.8100
G01 X166.5192 Y-67.8100
G00 Z2.0000
G00 X166.5202 Y-68.0000
G01 F60.00
G01 Z-0.1866
G01 F120.00
G01 X177.6569 Y-68.0000
G01 X177.6569 Y-68.1900
G01 X166.5202 Y-68.1900
G01 X166.5202 Y-68.3800
G01 X177.6569 Y-68.3800
G01 X177.6569 Y-68.5700
G01 X166.5202 Y-68.5700
G01 X166.5202 Y-68.7600
G01 X177.5319 Y-68.7600
G00 Z2.0000
G00 X177.4244 Y-68.9500
G01 F60.00
G01 Z-0.1866
G01 F120.00
G01 X166.5202 Y-68.9500
G01 X166.5202 Y-69.1400
G01 X177.3708 Y-69.1400
G00 Z2.0000
G00 X177.3590 Y-69.3300
G01 F60.00
G01 Z-0.1866
G01 F120.00
G01 X166.5202 Y-69.3300
G01 X166.5202 Y-69.5200
G01 X177.3877 Y-69.5200
G00 Z2.0000
G00 X177.4608 Y-69.7100
G01 F60.00
G01 Z-0.1866
G01 F120.00
G01 X166.5202 Y-69.7100
G01 X166.5722 Y-69.9000
G01 X177.5956 Y-69.9000
G00 Z2.0000
G00 X177.8434 Y-70.0900
G01 F60.00
G01 Z-0.1866
G01 F120.00
G01 X166.6182 Y-70.0900
G00 Z2.0000
G00 X166.6203 Y-70.2800
G01 F60.00
G01 Z-0.1866
G01 F120.00
G01 X177.9000 Y-70.2800
G01 X177.9000 Y-70.4700
G01 X166.6203 Y-70.4700
G01 X166.6203 Y-70.6600
G01 X177.9000 Y-70.6600
G01 X177.9000 Y-70.8500
G01 X166.6203 Y-70.8500
G00 Z2.0000
G00 X165.4197 Y-70.8500
G01 F60.00
G01 Z-0.1866
G01 F120.00
G01 X163.8222 Y-70.8500
G01 X163.8222 Y-70.6600
G01 X164.7099 Y-70.6600
G00 Z2.0000
G00 X164.4486 Y-70.4700
G01 F60.00
G01 Z-0.1866
G01 F120.00
G01 X163.8222 Y-70.4700
G01 X163.8222 Y-70.2800
G01 X164.3096 Y-70.2800
G00 Z2.0000
G00 X164.2333 Y-70.0900
G01 F60.00
G01 Z-0.1866
G01 F120.00
G01 X163.8222 Y-70.0900
G01 X163.8222 Y-69.9000
G01 X164.2023 Y-69.9000
G00 Z2.0000
G00 X164.2119 Y-69.7100
G01 F60.00
G01 Z-0.1866
G01 F120.00
G01 X163.8222 Y-69.7100
G01 X163.8222 Y-69.5200
G01 X164.2632 Y-69.5200
G00 Z2.0000
G00 X164.3664 Y-69.3300
G01 F60.00
G01 Z-0.1866
G01 F120.00
G01 X163.8222 Y-69.3300
G01 X163.9774 Y-69.1400
G01 X164.5481 Y-69.1400
G01 X164.4199 Y-68.9500
G01 X165.5198 Y-68.9500
G01 X165.5198 Y-68.7600
G01 X164.6114 Y-68.7600
G01 X164.8014 Y-68.5700
G01 X165.5198 Y-68.5700
G01 X165.5198 Y-68.3800
G01 X164.9610 Y-68.3800
G00 Z2.0000
G00 X165.0180 Y-68.1900
G01 F60.00
G01 Z-0.1866
G01 F120.00
G01 X165.5198 Y-68.1900
G01 X165.5198 Y-68.0000
G01 X165.0202 Y-68.0000
G01 X165.0202 Y-67.8100
G01 X165.5208 Y-67.8100
G00 Z2.0000
G00 X165.4711 Y-67.6200
G01 F60.00
G01 Z-0.1866
G01 F120.00
G01 X165.0689 Y-67.6200
G00 Z2.0000
G00 X165.0762 Y-67.4300
G01 F60.00
G01 Z-0.1866
G01 F120.00
G01 X165.4638 Y-67.4300
G01 X165.4638 Y-67.2400
G01 X165.0762 Y-67.2400
G01 X165.0762 Y-67.0500
G01 X165.4638 Y-67.0500
G01 X165.4638 Y-66.8600
G01 X165.0762 Y-66.8600
G00 Z2.0000
G00 X165.0543 Y-66.6700
G01 F60.00
G01 Z-0.1866
G01 F120.00
G01 X165.4857 Y-66.6700
G00 Z2.0000
G00 X163.9857 Y-66.6700
G01 F60.00
G01 Z-0.1866
G01 F120.00
G01 X163.5543 Y-66.6700
G00 Z2.0000
G00 X163.5762 Y-66.8600
G01 F60.00
G01 Z-0.1866
G01 F120.00
G01 X163.9638 Y-66.8600
G01 X163.9638 Y-67.0500
G01 X163.5762 Y-67.0500
G01 X163.5762 Y-67.2400
G01 X163.9638 Y-67.2400
G01 X163.9638 Y-67.4300
G01 X163.5762 Y-67.4300
G00 Z2.0000
G00 X163.5689 Y-67.6200
G01 F60.00
G01 Z-0.1866
G01 F120.00
G01 X163.9711 Y-67.6200
G01 X164.0198 Y-67.8100
G01 X162.0202 Y-67.8100
G01 X162.0202 Y-68.0000
G01 X163.9566 Y-68.0000
G00 Z2.0000
G00 X163.5170 Y-68.1900
G01 F60.00
G01 Z-0.1866
G01 F120.00
G01 X162.0202 Y-68.1900
G01 X162.0202 Y-68.3800
G01 X163.3226 Y-68.3800
G01 X163.1326 Y-68.5700
G01 X162.0202 Y-68.5700
G01 X162.0202 Y-68.7600
G01 X162.9449 Y-68.7600
G00 Z2.0000
G00 X162.8414 Y-68.9500
G01 F60.00
G01 Z-0.1866
G01 F120.00
G01 X162.0202 Y-68.9500
G01 X162.0202 Y-69.1400
G01 X162.8218 Y-69.1400
G01 X162.8218 Y-69.3300
G01 X162.0202 Y-69.3300
G01 X162.0202 Y-69.5200
G01 X162.8218 Y-69.5200
G01 X162.8218 Y-69.7100
G01 X162.0202 Y-69.7100
G01 X162.0202 Y-69.9000
G01 X162.8218 Y-69.9000
G01 X162.8218 Y-70.0900
G01 X162.0202 Y-70.0900
G01 X162.0202 Y-70.2800
G01 X162.8218 Y-70.2800
G01 X162.8218 Y-70.4700
G01 X162.0202 Y-70.4700
G01 X162.0202 Y-70.6600
G01 X162.8218 Y-70.6600
G01 X162.8218 Y-70.8500
G01 X162.0202 Y-70.8500
G00 Z2.0000
G00 X161.0198 Y-70.8500
G01 F60.00
G01 Z-0.1866
G01 F120.00
G01 X160.4959 Y-70.8500
G00 Z2.0000
G00 X160.5942 Y-70.6600
G01 F60.00
G01 Z-0.1866
G01 F120.00
G01 X161.0198 Y-70.6600
G01 X161.0198 Y-70.4700
G01 X160.6196 Y-70.4700
G00 Z2.0000
G00 X160.5835 Y-70.2800
G01 F60.00
G01 Z-0.1866
G01 F120.00
G01 X161.0198 Y-70.2800
G01 X161.0198 Y-70.0900
G01 X160.5202 Y-70.0900
G01 X160.5202 Y-69.9000
G01 X161.0198 Y-69.9000
G01 X161.0198 Y-69.7100
G01 X160.5202 Y-69.7100
G01 X160.5202 Y-69.5200
G01 X161.0198 Y-69.5200
G01 X161.0198 Y-69.3300
G01 X160.5202 Y-69.3300
G01 X160.5202 Y-69.1400
G01 X161.0198 Y-69.1400
G01 X161.0198 Y-68.9500
G01 X160.5202 Y-68.9500
G01 X160.5202 Y-68.7600
G01 X161.0198 Y-68.7600
G01 X161.0198 Y-68.5700
G01 X160.5202 Y-68.5700
G01 X160.5202 Y-68.3800
G01 X161.0198 Y-68.3800
G01 X161.0198 Y-68.1900
G01 X160.5202 Y-68.1900
G01 X160.5202 Y-68.0000
G01 X161.0198 Y-68.0000
G01 X161.0198 Y-67.8100
G01 X160.5202 Y-67.8100
G01 X160.5689 Y-67.6200
G01 X160.9711 Y-67.6200
G00 Z2.0000
G00 X160.9638 Y-67.4300
G01 F60.00
G01 Z-0.1866
G01 F120.00
G01 X160.5762 Y-67.4300
G01 X160.5762 Y-67.2400
G01 X160.9638 Y-67.2400
G01 X160.9638 Y-67.0500
G01 X160.5762 Y-67.0500
G01 X160.5762 Y-66.8600
G01 X160.9638 Y-66.8600
G00 Z2.0000
G00 X160.9857 Y-66.6700
G01 F60.00
G01 Z-0.1866
G01 F120.00
G01 X160.5543 Y-66.6700
G00 Z2.0000
G00 X159.4857 Y-66.6700
G01 F60.00
G01 Z-0.1866
G01 F120.00
G01 X159.0543 Y-66.6700
G00 Z2.0000
G00 X159.0762 Y-66.8600
G01 F60.00
G01 Z-0.1866
G01 F120.00
G01 X159.4638 Y-66.8600
G01 X159.4638 Y-67.0500
G01 X159.0762 Y-67.0500
G01 X159.0762 Y-67.2400
G01 X159.4638 Y-67.2400
G01 X159.4638 Y-67.4300
G01 X159.0762 Y-67.4300
G00 Z2.0000
G00 X159.0689 Y-67.6200
G01 F60.00
G01 Z-0.1866
G01 F120.00
G01 X159.4711 Y-67.6200
G01 X159.5198 Y-67.8100
G01 X157.5202 Y-67.8100
G01 X157.5202 Y-68.0000
G01 X159.5198 Y-68.0000
G01 X159.5198 Y-68.1900
G01 X157.5202 Y-68.1900
G01 X157.5202 Y-68.3800
G01 X159.5198 Y-68.3800
G01 X159.5198 Y-68.5700
G01 X157.5202 Y-68.5700
G01 X157.5202 Y-68.7600
G01 X159.5198 Y-68.7600
G01 X159.5198 Y-68.9500
G01 X157.5202 Y-68.9500
G01 X157.5202 Y-69.1400
G01 X159.5198 Y-69.1400
G01 X159.5198 Y-69.3300
G01 X157.5202 Y-69.3300
G01 X157.5202 Y-69.5200
G01 X159.5198 Y-69.5200
G01 X159.5198 Y-69.7100
G01 X157.5202 Y-69.7100
G01 X157.5202 Y-69.9000
G01 X159.5198 Y-69.9000
G01 X159.5198 Y-70.0900
G01 X157.5202 Y-70.0900
G00 Z2.0000
G00 X157.5488 Y-70.2800
G01 F60.00
G01 Z-0.1866
G01 F120.00
G01 X159.3761 Y-70.2800
G01 X159.1861 Y-70.4700
G01 X157.6123 Y-70.4700
G00 Z2.0000
G00 X157.6120 Y-70.6600
G01 F60.00
G01 Z-0.1866
G01 F120.00
G01 X158.9961 Y-70.6600
G01 X158.8061 Y-70.8500
G01 X157.5477 Y-70.8500
G00 Z2.0000
G00 X156.5198 Y-69.9000
G01 F60.00
G01 Z-0.1866
G01 F120.00
G01 X155.0894 Y-69.9000
G01 X154.8994 Y-70.0900
G01 X156.1445 Y-70.0900
G00 Z2.0000
G00 X155.9471 Y-70.2800
G01 F60.00
G01 Z-0.1866
G01 F120.00
G01 X154.7094 Y-70.2800
G01 X154.5194 Y-70.4700
G01 X155.7571 Y-70.4700
G01 X155.5671 Y-70.6600
G01 X154.3294 Y-70.6600
G01 X154.1394 Y-70.8500
G01 X155.3771 Y-70.8500
G01 X155.2794 Y-69.7100
G01 X156.5198 Y-69.7100
G01 X156.5198 Y-69.5200
G01 X155.4694 Y-69.5200
G01 X155.6594 Y-69.3300
G01 X156.5198 Y-69.3300
G01 X156.5198 Y-69.1400
G01 X155.8494 Y-69.1400
G00 Z2.0000
G00 X155.9835 Y-68.9500
G01 F60.00
G01 Z-0.1866
G01 F120.00
G01 X156.5198 Y-68.9500
G01 X156.5198 Y-68.7600
G01 X156.0202 Y-68.7600
G01 X156.0202 Y-68.5700
G01 X156.5198 Y-68.5700
G01 X156.5198 Y-68.3800
G01 X156.0202 Y-68.3800
G01 X156.0202 Y-68.1900
G01 X156.5198 Y-68.1900
G01 X156.5198 Y-68.0000
G01 X156.0202 Y-68.0000
G01 X156.0202 Y-67.8100
G01 X156.5198 Y-67.8100
G01 X156.4711 Y-67.6200
G01 X156.0689 Y-67.6200
G00 Z2.0000
G00 X156.0762 Y-67.4300
G01 F60.00
G01 Z-0.1866
G01 F120.00
G01 X156.4638 Y-67.4300
G01 X156.4638 Y-67.2400
G01 X156.0762 Y-67.2400
G01 X156.0762 Y-67.0500
G01 X156.4638 Y-67.0500
G01 X156.4638 Y-66.8600
G01 X156.0762 Y-66.8600
G00 Z2.0000
G00 X156.0543 Y-66.6700
G01 F60.00
G01 Z-0.1866
G01 F120.00
G01 X156.4857 Y-66.6700
G00 Z2.0000
G00 X157.5543 Y-66.6700
G01 F60.00
G01 Z-0.1866
G01 F120.00
G01 X157.9857 Y-66.6700
G00 Z2.0000
G00 X158.0638 Y-66.6325
G01 F60.00
G01 Z-0.1866
G01 F120.00
G01 X158.0539 Y-66.6330
G01 X158.0442 Y-66.6344
G01 X158.0371 Y-66.6361
G01 X158.0278 Y-66.6392
G01 X158.0188 Y-66.6432
G01 X158.0123 Y-66.6467
G01 X158.0042 Y-66.6522
G01 X157.9966 Y-66.6584
G01 X157.9897 Y-66.6653
G01 X157.9834 Y-66.6729
G01 X157.9780 Y-66.6811
G01 X157.9734 Y-66.6897
G01 X157.9705 Y-66.6965
G01 X157.9674 Y-66.7058
G01 X157.9652 Y-66.7154
G01 X157.9640 Y-66.7251
G01 X157.9638 Y-66.7325
G01 X157.9638 Y-67.5850
G01 X157.9645 Y-67.5947
G01 X157.9662 Y-67.6044
G01 X157.9688 Y-67.6139
G01 X157.9714 Y-67.6208
G01 X157.9744 Y-67.6275
G01 X157.9793 Y-67.6360
G01 X157.9849 Y-67.6440
G01 X157.9913 Y-67.6515
G01 X157.9984 Y-67.6582
G01 X158.0062 Y-67.6643
G01 X158.0145 Y-67.6695
G01 X158.0232 Y-67.6739
G01 X158.0324 Y-67.6775
G01 X158.0442 Y-67.6806
G01 X158.0539 Y-67.6820
G01 X158.0638 Y-67.6825
G01 X158.9787 Y-67.6825
G01 X158.9885 Y-67.6817
G01 X158.9958 Y-67.6806
G01 X159.0053 Y-67.6782
G01 X159.0145 Y-67.6749
G01 X159.0234 Y-67.6707
G01 X159.0318 Y-67.6656
G01 X159.0378 Y-67.6613
G01 X159.0452 Y-67.6549
G01 X159.0520 Y-67.6478
G01 X159.0580 Y-67.6401
G01 X159.0633 Y-67.6318
G01 X159.0677 Y-67.6230
G01 X159.0712 Y-67.6139
G01 X159.0743 Y-67.6020
G01 X159.0758 Y-67.5923
G01 X159.0762 Y-67.5825
G01 X159.0762 Y-66.7300
G01 X159.0755 Y-66.7203
G01 X159.0738 Y-66.7106
G01 X159.0712 Y-66.7011
G01 X159.0686 Y-66.6942
G01 X159.0656 Y-66.6875
G01 X159.0607 Y-66.6790
G01 X159.0551 Y-66.6710
G01 X159.0487 Y-66.6635
G01 X159.0416 Y-66.6568
G01 X159.0338 Y-66.6507
G01 X159.0255 Y-66.6455
G01 X159.0168 Y-66.6411
G01 X159.0076 Y-66.6375
G01 X158.9982 Y-66.6349
G01 X158.9885 Y-66.6333
G01 X158.9787 Y-66.6325
G01 X158.0638 Y-66.6325
G00 Z2.0000
G00 X157.9638 Y-66.8600
G01 F60.00
G01 Z-0.1866
G01 F120.00
G01 X157.5762 Y-66.8600
G01 X157.5762 Y-67.0500
G01 X157.9638 Y-67.0500
G01 X157.9638 Y-67.2400
G01 X157.5762 Y-67.2400
G01 X157.5762 Y-67.4300
G01 X157.9638 Y-67.4300
G00 Z2.0000
G00 X157.9711 Y-67.6200
G01 F60.00
G01 Z-0.1866
G01 F120.00
G01 X157.5689 Y-67.6200
G00 Z2.0000
G00 X155.0198 Y-67.8100
G01 F60.00
G01 Z-0.1866
G01 F120.00
G01 X154.5202 Y-67.8100
G00 Z2.0000
G00 X154.4908 Y-68.0000
G01 F60.00
G01 Z-0.1866
G01 F120.00
G01 X155.0198 Y-68.0000
G01 X155.0198 Y-68.1900
G01 X154.3699 Y-68.1900
G01 X154.1799 Y-68.3800
G01 X155.0198 Y-68.3800
G01 X155.0046 Y-68.5700
G01 X153.9899 Y-68.5700
G01 X153.7999 Y-68.7600
G01 X154.8146 Y-68.7600
G01 X154.6246 Y-68.9500
G01 X153.6099 Y-68.9500
G01 X153.4199 Y-69.1400
G01 X154.4346 Y-69.1400
G01 X154.2446 Y-69.3300
G01 X153.2299 Y-69.3300
G01 X153.0399 Y-69.5200
G01 X154.0546 Y-69.5200
G01 X153.8646 Y-69.7100
G01 X152.8499 Y-69.7100
G01 X152.6599 Y-69.9000
G01 X153.6746 Y-69.9000
G01 X153.4846 Y-70.0900
G01 X152.5523 Y-70.0900
G00 Z2.0000
G00 X152.4210 Y-70.2800
G01 F60.00
G01 Z-0.1866
G01 F120.00
G01 X153.2946 Y-70.2800
G01 X153.1046 Y-70.4700
G01 X152.1000 Y-70.4700
G01 X152.1000 Y-70.4417
G01 X152.1220 Y-70.4382
G01 X152.1791 Y-70.4237
G01 X152.2322 Y-70.4046
G01 X152.2833 Y-70.3805
G01 X152.3318 Y-70.3517
G01 X152.3400 Y-70.3463
G01 X152.3833 Y-70.3140
G01 X152.4234 Y-70.2778
G01 X152.4287 Y-70.2727
G01 X152.4665 Y-70.2308
G01 X152.4988 Y-70.1875
G01 X152.5042 Y-70.1793
G01 X152.5319 Y-70.1330
G01 X152.5551 Y-70.0842
G01 X152.5588 Y-70.0751
G01 X152.5769 Y-70.0242
G01 X152.5908 Y-69.9691
G01 X154.3754 Y-68.1844
G01 X154.4067 Y-68.1498
G01 X154.4331 Y-68.1144
G01 X154.4385 Y-68.1062
G01 X154.4611 Y-68.0683
G01 X154.4801 Y-68.0284
G01 X154.4839 Y-68.0193
G01 X154.4987 Y-67.9776
G01 X154.5101 Y-67.9325
G01 X154.5178 Y-67.8815
G01 X154.5201 Y-67.8374
G01 X154.5202 Y-67.6723
G01 X154.5318 Y-67.6656
G01 X154.5378 Y-67.6613
G01 X154.5434 Y-67.6566
G01 X154.5487 Y-67.6515
G01 X154.5536 Y-67.6459
G01 X154.5607 Y-67.6360
G01 X154.5644 Y-67.6296
G01 X154.5677 Y-67.6230
G01 X154.5704 Y-67.6162
G01 X154.5726 Y-67.6092
G01 X154.5743 Y-67.6020
G01 X154.5755 Y-67.5947
G01 X154.5762 Y-67.5825
G01 X154.5761 Y-66.7276
G01 X154.5755 Y-66.7203
G01 X154.5743 Y-66.7130
G01 X154.5712 Y-66.7011
G01 X154.5666 Y-66.6897
G01 X154.5633 Y-66.6832
G01 X154.5594 Y-66.6769
G01 X154.5520 Y-66.6672
G01 X154.5470 Y-66.6618
G01 X154.5416 Y-66.6568
G01 X154.5318 Y-66.6494
G01 X154.5202 Y-66.6427
G01 X154.5202 Y-54.6087
G01 X156.4586 Y-52.6703
G01 X158.7847 Y-52.6703
G01 X158.7848 Y-54.8475
G01 X158.7876 Y-54.9038
G01 X158.7958 Y-54.9597
G01 X158.8099 Y-55.0169
G01 X158.8215 Y-55.0500
G01 X157.2851 Y-55.0501
G01 X157.2778 Y-55.0508
G01 X157.2705 Y-55.0519
G01 X157.2633 Y-55.0536
G01 X157.2540 Y-55.0567
G01 X157.2472 Y-55.0596
G01 X157.2407 Y-55.0630
G01 X157.2324 Y-55.0682
G01 X157.2266 Y-55.0727
G01 X157.2210 Y-55.0776
G01 X157.2143 Y-55.0847
G01 X157.2082 Y-55.0924
G01 X157.2042 Y-55.0986
G01 X157.2007 Y-55.1050
G01 X157.1967 Y-55.1140
G01 X157.1943 Y-55.1210
G01 X157.1924 Y-55.1281
G01 X157.1905 Y-55.1402
G01 X157.1900 Y-55.1500
G01 X157.1900 Y-59.4500
G01 X157.1903 Y-59.4574
G01 X157.1911 Y-59.4647
G01 X157.1924 Y-59.4719
G01 X157.1950 Y-59.4814
G01 X157.1976 Y-59.4883
G01 X157.2007 Y-59.4950
G01 X157.2055 Y-59.5035
G01 X157.2097 Y-59.5096
G01 X157.2176 Y-59.5190
G01 X157.2247 Y-59.5257
G01 X157.2344 Y-59.5331
G01 X157.2450 Y-59.5393
G01 X157.2563 Y-59.5442
G01 X157.2681 Y-59.5476
G01 X157.2802 Y-59.5495
G01 X157.2900 Y-59.5500
G01 X161.5900 Y-59.5500
G01 X161.6022 Y-59.5492
G01 X161.6143 Y-59.5470
G01 X161.6214 Y-59.5450
G01 X161.6283 Y-59.5424
G01 X161.6371 Y-59.5382
G01 X161.6435 Y-59.5345
G01 X161.6496 Y-59.5303
G01 X161.6572 Y-59.5241
G01 X161.6624 Y-59.5190
G01 X161.6673 Y-59.5134
G01 X161.6731 Y-59.5056
G01 X161.6770 Y-59.4993
G01 X161.6804 Y-59.4928
G01 X161.6833 Y-59.4860
G01 X161.6864 Y-59.4767
G01 X161.6881 Y-59.4695
G01 X161.6892 Y-59.4622
G01 X161.6900 Y-59.4525
G01 X161.6900 Y-55.1500
G01 X161.6892 Y-55.1378
G01 X161.6876 Y-55.1281
G01 X161.6857 Y-55.1210
G01 X161.6833 Y-55.1140
G01 X161.6804 Y-55.1072
G01 X161.6758 Y-55.0986
G01 X161.6703 Y-55.0904
G01 X161.6657 Y-55.0847
G01 X161.6607 Y-55.0793
G01 X161.6553 Y-55.0743
G01 X161.6496 Y-55.0697
G01 X161.6414 Y-55.0642
G01 X161.6350 Y-55.0607
G01 X161.6283 Y-55.0576
G01 X161.6214 Y-55.0550
G01 X161.6119 Y-55.0524
G01 X161.6022 Y-55.0508
G01 X161.5949 Y-55.0501
G01 X159.9485 Y-55.0500
G01 X159.9601 Y-55.0169
G01 X159.9742 Y-54.9597
G01 X159.9824 Y-54.9038
G01 X159.9852 Y-54.8475
G01 X159.9853 Y-52.6703
G01 X165.7375 Y-52.6702
G01 X165.7938 Y-52.6674
G01 X165.8521 Y-52.6587
G01 X165.9092 Y-52.6444
G01 X165.9601 Y-52.6263
G01 X165.9692 Y-52.6226
G01 X166.0136 Y-52.6016
G01 X166.0222 Y-52.5970
G01 X166.0685 Y-52.5691
G01 X166.1119 Y-52.5370
G01 X166.1177 Y-52.5324
G01 X166.1594 Y-52.4944
G01 X166.1958 Y-52.4545
G01 X166.2020 Y-52.4469
G01 X166.2341 Y-52.4035
G01 X166.2644 Y-52.3530
G01 X166.2896 Y-52.2997
G01 X166.3094 Y-52.2442
G01 X166.3226 Y-52.1919
G01 X166.3247 Y-52.1812
G01 X166.3392 Y-52.1701
G01 X166.3719 Y-52.1404
G01 X166.4051 Y-52.1042
G01 X166.4359 Y-52.0629
G01 X166.4600 Y-52.0229
G01 X166.4821 Y-51.9764
G01 X166.4987 Y-51.9301
G01 X166.5106 Y-51.8826
G01 X166.5180 Y-51.8316
G01 X166.5202 Y-51.7850
G01 X166.5202 Y-50.1973
G01 X166.5318 Y-50.1906
G01 X166.5378 Y-50.1863
G01 X166.5434 Y-50.1816
G01 X166.5487 Y-50.1765
G01 X166.5536 Y-50.1709
G01 X166.5607 Y-50.1610
G01 X166.5644 Y-50.1546
G01 X166.5677 Y-50.1480
G01 X166.5704 Y-50.1412
G01 X166.5726 Y-50.1342
G01 X166.5743 Y-50.1270
G01 X166.5755 Y-50.1197
G01 X166.5762 Y-50.1075
G01 X166.5761 Y-49.2526
G01 X166.5755 Y-49.2453
G01 X166.5743 Y-49.2380
G01 X166.5712 Y-49.2261
G01 X166.5666 Y-49.2147
G01 X166.5633 Y-49.2082
G01 X166.5594 Y-49.2019
G01 X166.5551 Y-49.1960
G01 X166.5503 Y-49.1903
G01 X166.5416 Y-49.1818
G01 X166.5318 Y-49.1744
G01 X166.5202 Y-49.1677
G01 X166.5202 Y-47.1000
G01 X177.6569 Y-47.1000
G01 X177.6569 Y-68.6219
G01 X177.6191 Y-68.6566
G01 X177.5631 Y-68.7184
G01 X177.5585 Y-68.7241
G01 X177.5103 Y-68.7892
G01 X177.5063 Y-68.7953
G01 X177.4635 Y-68.8669
G01 X177.4267 Y-68.9445
G01 X177.4239 Y-68.9514
G01 X177.3959 Y-69.0300
G01 X177.3745 Y-69.1156
G01 X177.3615 Y-69.2030
G01 X177.3572 Y-69.2912
G01 X177.3615 Y-69.3794
G01 X177.3737 Y-69.4619
G01 X177.3756 Y-69.4716
G01 X177.3960 Y-69.5525
G01 X177.4239 Y-69.6310
G01 X177.4277 Y-69.6401
G01 X177.4635 Y-69.7155
G01 X177.5089 Y-69.7912
G01 X177.5585 Y-69.8583
G01 X177.5647 Y-69.8659
G01 X177.6208 Y-69.9276
G01 X177.6862 Y-69.9869
G01 X177.7532 Y-70.0367
G01 X177.7613 Y-70.0421
G01 X177.8329 Y-70.0849
G01 X177.9000 Y-70.1168
G01 X177.9000 Y-70.9000
G01 X166.6203 Y-70.9000
G01 X166.6203 Y-70.1350
G01 X166.6174 Y-70.0762
G01 X166.6087 Y-70.0179
G01 X166.5957 Y-69.9655
G01 X166.5929 Y-69.9561
G01 X166.5746 Y-69.9053
G01 X166.5516 Y-69.8564
G01 X166.5470 Y-69.8478
G01 X166.5202 Y-69.8032
G01 X166.5202 Y-67.8325
G01 X166.5178 Y-67.7835
G01 X166.5114 Y-67.7398
G01 X166.5095 Y-67.7301
G01 X166.5000 Y-67.6920
G01 X166.4963 Y-67.6805
G01 X166.5053 Y-67.6782
G01 X166.5122 Y-67.6758
G01 X166.5190 Y-67.6729
G01 X166.5277 Y-67.6683
G01 X166.5358 Y-67.6628
G01 X166.5416 Y-67.6582
G01 X166.5470 Y-67.6532
G01 X166.5520 Y-67.6478
G01 X166.5566 Y-67.6421
G01 X166.5607 Y-67.6360
G01 X166.5656 Y-67.6275
G01 X166.5686 Y-67.6208
G01 X166.5712 Y-67.6139
G01 X166.5733 Y-67.6068
G01 X166.5748 Y-67.5996
G01 X166.5760 Y-67.5899
G01 X166.5762 Y-67.5825
G01 X166.5762 Y-66.7300
G01 X166.5755 Y-66.7203
G01 X166.5738 Y-66.7106
G01 X166.5712 Y-66.7011
G01 X166.5677 Y-66.6920
G01 X166.5633 Y-66.6832
G01 X166.5594 Y-66.6769
G01 X166.5536 Y-66.6691
G01 X166.5470 Y-66.6618
G01 X166.5397 Y-66.6552
G01 X166.5318 Y-66.6494
G01 X166.5234 Y-66.6443
G01 X166.5145 Y-66.6401
G01 X166.5053 Y-66.6368
G01 X166.4958 Y-66.6344
G01 X166.4861 Y-66.6330
G01 X166.4762 Y-66.6325
G01 X165.5588 Y-66.6326
G01 X165.5491 Y-66.6336
G01 X165.5371 Y-66.6361
G01 X165.5255 Y-66.6401
G01 X165.5166 Y-66.6443
G01 X165.5082 Y-66.6494
G01 X165.4984 Y-66.6568
G01 X165.4913 Y-66.6635
G01 X165.4834 Y-66.6729
G01 X165.4793 Y-66.6790
G01 X165.4756 Y-66.6854
G01 X165.4723 Y-66.6920
G01 X165.4696 Y-66.6988
G01 X165.4674 Y-66.7058
G01 X165.4657 Y-66.7130
G01 X165.4645 Y-66.7203
G01 X165.4638 Y-66.7300
G01 X165.4639 Y-67.5874
G01 X165.4645 Y-67.5947
G01 X165.4657 Y-67.6020
G01 X165.4674 Y-67.6092
G01 X165.4705 Y-67.6185
G01 X165.4734 Y-67.6253
G01 X165.4780 Y-67.6339
G01 X165.4834 Y-67.6421
G01 X165.4880 Y-67.6478
G01 X165.4930 Y-67.6532
G01 X165.4984 Y-67.6582
G01 X165.5042 Y-67.6628
G01 X165.5123 Y-67.6683
G01 X165.5188 Y-67.6718
G01 X165.5278 Y-67.6758
G01 X165.5347 Y-67.6782
G01 X165.5437 Y-67.6805
G01 X165.5400 Y-67.6920
G01 X165.5305 Y-67.7301
G01 X165.5286 Y-67.7398
G01 X165.5222 Y-67.7835
G01 X165.5198 Y-67.8300
G01 X165.5198 Y-69.0540
G01 X165.4444 Y-69.0185
G01 X165.3659 Y-68.9903
G01 X165.3565 Y-68.9874
G01 X165.2804 Y-68.9684
G01 X165.2707 Y-68.9665
G01 X165.1882 Y-68.9543
G01 X165.1000 Y-68.9500
G01 X165.0118 Y-68.9543
G01 X164.9293 Y-68.9665
G01 X164.9196 Y-68.9684
G01 X164.8387 Y-68.9888
G01 X164.7602 Y-69.0167
G01 X164.7511 Y-69.0205
G01 X164.6801 Y-69.0541
G01 X164.6715 Y-69.0587
G01 X164.6000 Y-69.1017
G01 X164.5290 Y-69.1543
G01 X164.4636 Y-69.2136
G01 X164.4075 Y-69.2753
G01 X164.4013 Y-69.2829
G01 X164.3517 Y-69.3500
G01 X164.3087 Y-69.4215
G01 X164.3041 Y-69.4301
G01 X164.2705 Y-69.5011
G01 X164.2667 Y-69.5102
G01 X164.2387 Y-69.5888
G01 X164.2184 Y-69.6696
G01 X164.2165 Y-69.6793
G01 X164.2043 Y-69.7618
G01 X164.2001 Y-69.8451
G01 X164.2001 Y-69.8549
G01 X164.2043 Y-69.9382
G01 X164.2165 Y-70.0207
G01 X164.2184 Y-70.0304
G01 X164.2388 Y-70.1113
G01 X164.2685 Y-70.1944
G01 X164.3041 Y-70.2699
G01 X164.3087 Y-70.2785
G01 X164.3517 Y-70.3500
G01 X164.4013 Y-70.4171
G01 X164.4075 Y-70.4247
G01 X164.4636 Y-70.4864
G01 X164.5290 Y-70.5457
G01 X164.5960 Y-70.5955
G01 X164.6041 Y-70.6009
G01 X164.6757 Y-70.6437
G01 X164.7511 Y-70.6795
G01 X164.7602 Y-70.6833
G01 X164.8388 Y-70.7113
G01 X164.9220 Y-70.7322
G01 X165.0069 Y-70.7451
G01 X165.0167 Y-70.7460
G01 X165.1000 Y-70.7500
G01 X165.1858 Y-70.7459
G01 X165.2707 Y-70.7335
G01 X165.2780 Y-70.7322
G01 X165.3613 Y-70.7112
G01 X165.4197 Y-70.6904
G01 X165.4197 Y-70.9000
G01 X163.8222 Y-70.9000
G01 X163.8222 Y-69.2952
G01 X164.0372 Y-69.0802
G01 X164.0865 Y-69.0802
G01 X164.1355 Y-69.0775
G01 X164.1816 Y-69.0706
G01 X164.2292 Y-69.0587
G01 X164.2754 Y-69.0421
G01 X164.3198 Y-69.0211
G01 X164.3619 Y-68.9959
G01 X164.4032 Y-68.9651
G01 X164.4377 Y-68.9337
G01 X164.8737 Y-68.4977
G01 X164.9051 Y-68.4632
G01 X164.9359 Y-68.4219
G01 X164.9611 Y-68.3798
G01 X164.9821 Y-68.3354
G01 X164.9972 Y-68.2937
G01 X164.9994 Y-68.2868
G01 X165.0106 Y-68.2416
G01 X165.0172 Y-68.1979
G01 X165.0182 Y-68.1881
G01 X165.0202 Y-68.1465
G01 X165.0202 Y-67.6723
G01 X165.0318 Y-67.6656
G01 X165.0416 Y-67.6582
G01 X165.0503 Y-67.6497
G01 X165.0551 Y-67.6440
G01 X165.0594 Y-67.6381
G01 X165.0656 Y-67.6275
G01 X165.0686 Y-67.6208
G01 X165.0712 Y-67.6139
G01 X165.0733 Y-67.6068
G01 X165.0748 Y-67.5996
G01 X165.0761 Y-67.5874
G01 X165.0762 Y-66.7300
G01 X165.0755 Y-66.7203
G01 X165.0738 Y-66.7106
G01 X165.0712 Y-66.7011
G01 X165.0677 Y-66.6920
G01 X165.0633 Y-66.6832
G01 X165.0594 Y-66.6769
G01 X165.0536 Y-66.6691
G01 X165.0470 Y-66.6618
G01 X165.0397 Y-66.6552
G01 X165.0318 Y-66.6494
G01 X165.0234 Y-66.6443
G01 X165.0145 Y-66.6401
G01 X165.0053 Y-66.6368
G01 X164.9958 Y-66.6344
G01 X164.9861 Y-66.6330
G01 X164.9762 Y-66.6325
G01 X164.0613 Y-66.6325
G01 X164.0515 Y-66.6333
G01 X164.0418 Y-66.6349
G01 X164.0324 Y-66.6375
G01 X164.0232 Y-66.6411
G01 X164.0145 Y-66.6455
G01 X164.0062 Y-66.6507
G01 X163.9984 Y-66.6568
G01 X163.9913 Y-66.6635
G01 X163.9849 Y-66.6710
G01 X163.9793 Y-66.6790
G01 X163.9744 Y-66.6875
G01 X163.9714 Y-66.6942
G01 X163.9688 Y-66.7011
G01 X163.9662 Y-66.7106
G01 X163.9645 Y-66.7203
G01 X163.9638 Y-66.7300
G01 X163.9638 Y-67.5850
G01 X163.9648 Y-67.5972
G01 X163.9662 Y-67.6044
G01 X163.9681 Y-67.6115
G01 X163.9705 Y-67.6185
G01 X163.9734 Y-67.6253
G01 X163.9793 Y-67.6360
G01 X163.9834 Y-67.6421
G01 X163.9880 Y-67.6478
G01 X163.9966 Y-67.6566
G01 X164.0022 Y-67.6613
G01 X164.0082 Y-67.6656
G01 X164.0198 Y-67.6723
G01 X164.0198 Y-67.9368
G01 X163.8768 Y-68.0798
G01 X163.8275 Y-68.0798
G01 X163.7785 Y-68.0825
G01 X163.7324 Y-68.0894
G01 X163.6848 Y-68.1013
G01 X163.6386 Y-68.1179
G01 X163.5942 Y-68.1389
G01 X163.5521 Y-68.1641
G01 X163.5127 Y-68.1933
G01 X163.4763 Y-68.2263
G01 X162.9666 Y-68.7361
G01 X162.9353 Y-68.7707
G01 X162.9089 Y-68.8061
G01 X162.9035 Y-68.8143
G01 X162.8797 Y-68.8544
G01 X162.8619 Y-68.8921
G01 X162.8581 Y-68.9012
G01 X162.8433 Y-68.9429
G01 X162.8325 Y-68.9856
G01 X162.8306 Y-68.9953
G01 X162.8242 Y-69.0390
G01 X162.8218 Y-69.0855
G01 X162.8218 Y-70.9000
G01 X162.0202 Y-70.9000
G01 X162.0202 Y-67.6723
G01 X162.0318 Y-67.6656
G01 X162.0416 Y-67.6582
G01 X162.0503 Y-67.6497
G01 X162.0551 Y-67.6440
G01 X162.0594 Y-67.6381
G01 X162.0656 Y-67.6275
G01 X162.0686 Y-67.6208
G01 X162.0712 Y-67.6139
G01 X162.0733 Y-67.6068
G01 X162.0748 Y-67.5996
G01 X162.0761 Y-67.5874
G01 X162.0762 Y-66.7325
G01 X162.0758 Y-66.7227
G01 X162.0743 Y-66.7130
G01 X162.0719 Y-66.7035
G01 X162.0686 Y-66.6942
G01 X162.0644 Y-66.6854
G01 X162.0594 Y-66.6769
G01 X162.0536 Y-66.6691
G01 X162.0470 Y-66.6618
G01 X162.0397 Y-66.6552
G01 X162.0318 Y-66.6494
G01 X162.0234 Y-66.6443
G01 X162.0145 Y-66.6401
G01 X162.0053 Y-66.6368
G01 X161.9958 Y-66.6344
G01 X161.9861 Y-66.6330
G01 X161.9762 Y-66.6325
G01 X161.0638 Y-66.6325
G01 X161.0564 Y-66.6328
G01 X161.0491 Y-66.6336
G01 X161.0395 Y-66.6355
G01 X161.0324 Y-66.6375
G01 X161.0255 Y-66.6401
G01 X161.0188 Y-66.6432
G01 X161.0123 Y-66.6467
G01 X161.0042 Y-66.6522
G01 X160.9984 Y-66.6568
G01 X160.9930 Y-66.6618
G01 X160.9880 Y-66.6672
G01 X160.9834 Y-66.6729
G01 X160.9780 Y-66.6811
G01 X160.9734 Y-66.6897
G01 X160.9705 Y-66.6965
G01 X160.9681 Y-66.7035
G01 X160.9662 Y-66.7106
G01 X160.9645 Y-66.7203
G01 X160.9638 Y-66.7325
G01 X160.9639 Y-67.5874
G01 X160.9645 Y-67.5947
G01 X160.9657 Y-67.6020
G01 X160.9688 Y-67.6139
G01 X160.9734 Y-67.6253
G01 X160.9767 Y-67.6318
G01 X160.9806 Y-67.6381
G01 X160.9880 Y-67.6478
G01 X160.9930 Y-67.6532
G01 X160.9984 Y-67.6582
G01 X161.0082 Y-67.6656
G01 X161.0198 Y-67.6723
G01 X161.0198 Y-70.9000
G01 X160.4532 Y-70.9000
G01 X160.4840 Y-70.8658
G01 X160.5191 Y-70.8185
G01 X160.5494 Y-70.7680
G01 X160.5746 Y-70.7147
G01 X160.5944 Y-70.6592
G01 X160.6087 Y-70.6021
G01 X160.6174 Y-70.5438
G01 X160.6203 Y-70.4850
G01 X160.6174 Y-70.4262
G01 X160.6096 Y-70.3727
G01 X160.6076 Y-70.3631
G01 X160.5944 Y-70.3108
G01 X160.5763 Y-70.2599
G01 X160.5726 Y-70.2508
G01 X160.5494 Y-70.2020
G01 X160.5202 Y-70.1532
G01 X160.5202 Y-67.6723
G01 X160.5318 Y-67.6656
G01 X160.5416 Y-67.6582
G01 X160.5503 Y-67.6497
G01 X160.5551 Y-67.6440
G01 X160.5594 Y-67.6381
G01 X160.5656 Y-67.6275
G01 X160.5686 Y-67.6208
G01 X160.5712 Y-67.6139
G01 X160.5733 Y-67.6068
G01 X160.5748 Y-67.5996
G01 X160.5761 Y-67.5874
G01 X160.5761 Y-66.7276
G01 X160.5752 Y-66.7178
G01 X160.5733 Y-66.7082
G01 X160.5704 Y-66.6988
G01 X160.5666 Y-66.6897
G01 X160.5620 Y-66.6811
G01 X160.5566 Y-66.6729
G01 X160.5520 Y-66.6672
G01 X160.5452 Y-66.6601
G01 X160.5378 Y-66.6537
G01 X160.5318 Y-66.6494
G01 X160.5234 Y-66.6443
G01 X160.5145 Y-66.6401
G01 X160.5053 Y-66.6368
G01 X160.4958 Y-66.6344
G01 X160.4861 Y-66.6330
G01 X160.4762 Y-66.6325
G01 X159.5588 Y-66.6326
G01 X159.5515 Y-66.6333
G01 X159.5442 Y-66.6344
G01 X159.5371 Y-66.6361
G01 X159.5301 Y-66.6383
G01 X159.5188 Y-66.6432
G01 X159.5123 Y-66.6467
G01 X159.5062 Y-66.6507
G01 X159.4966 Y-66.6584
G01 X159.4913 Y-66.6635
G01 X159.4864 Y-66.6691
G01 X159.4820 Y-66.6749
G01 X159.4780 Y-66.6811
G01 X159.4744 Y-66.6875
G01 X159.4714 Y-66.6942
G01 X159.4681 Y-66.7035
G01 X159.4657 Y-66.7130
G01 X159.4642 Y-66.7227
G01 X159.4638 Y-66.7325
G01 X159.4639 Y-67.5874
G01 X159.4645 Y-67.5947
G01 X159.4657 Y-67.6020
G01 X159.4688 Y-67.6139
G01 X159.4734 Y-67.6253
G01 X159.4767 Y-67.6318
G01 X159.4806 Y-67.6381
G01 X159.4880 Y-67.6478
G01 X159.4930 Y-67.6532
G01 X159.4984 Y-67.6582
G01 X159.5082 Y-67.6656
G01 X159.5198 Y-67.6723
G01 X159.5198 Y-70.1363
G01 X158.7561 Y-70.9000
G01 X157.5173 Y-70.9000
G01 X157.5217 Y-70.8933
G01 X157.5470 Y-70.8512
G01 X157.5516 Y-70.8426
G01 X157.5746 Y-70.7937
G01 X157.5944 Y-70.7382
G01 X157.6087 Y-70.6811
G01 X157.6168 Y-70.6277
G01 X157.6177 Y-70.6179
G01 X157.6203 Y-70.5640
G01 X157.6174 Y-70.5052
G01 X157.6096 Y-70.4517
G01 X157.6076 Y-70.4421
G01 X157.5944 Y-70.3898
G01 X157.5763 Y-70.3389
G01 X157.5726 Y-70.3298
G01 X157.5494 Y-70.2810
G01 X157.5202 Y-70.2322
G01 X157.5202 Y-67.6723
G01 X157.5318 Y-67.6656
G01 X157.5416 Y-67.6582
G01 X157.5503 Y-67.6497
G01 X157.5551 Y-67.6440
G01 X157.5594 Y-67.6381
G01 X157.5656 Y-67.6275
G01 X157.5686 Y-67.6208
G01 X157.5712 Y-67.6139
G01 X157.5733 Y-67.6068
G01 X157.5748 Y-67.5996
G01 X157.5761 Y-67.5874
G01 X157.5762 Y-66.7300
G01 X157.5755 Y-66.7203
G01 X157.5738 Y-66.7106
G01 X157.5712 Y-66.7011
G01 X157.5677 Y-66.6920
G01 X157.5633 Y-66.6832
G01 X157.5594 Y-66.6769
G01 X157.5536 Y-66.6691
G01 X157.5470 Y-66.6618
G01 X157.5397 Y-66.6552
G01 X157.5318 Y-66.6494
G01 X157.5234 Y-66.6443
G01 X157.5145 Y-66.6401
G01 X157.5053 Y-66.6368
G01 X157.4958 Y-66.6344
G01 X157.4861 Y-66.6330
G01 X157.4762 Y-66.6325
G01 X156.5588 Y-66.6326
G01 X156.5515 Y-66.6333
G01 X156.5442 Y-66.6344
G01 X156.5324 Y-66.6375
G01 X156.5255 Y-66.6401
G01 X156.5188 Y-66.6432
G01 X156.5082 Y-66.6494
G01 X156.5022 Y-66.6537
G01 X156.4966 Y-66.6584
G01 X156.4880 Y-66.6672
G01 X156.4806 Y-66.6769
G01 X156.4744 Y-66.6875
G01 X156.4696 Y-66.6988
G01 X156.4662 Y-66.7106
G01 X156.4645 Y-66.7203
G01 X156.4638 Y-66.7325
G01 X156.4639 Y-67.5874
G01 X156.4645 Y-67.5947
G01 X156.4657 Y-67.6020
G01 X156.4688 Y-67.6139
G01 X156.4734 Y-67.6253
G01 X156.4767 Y-67.6318
G01 X156.4806 Y-67.6381
G01 X156.4880 Y-67.6478
G01 X156.4930 Y-67.6532
G01 X156.4984 Y-67.6582
G01 X156.5082 Y-67.6656
G01 X156.5198 Y-67.6723
G01 X156.5198 Y-69.9637
G01 X156.5071 Y-69.9639
G01 X156.4581 Y-69.9663
G01 X156.4483 Y-69.9672
G01 X156.3949 Y-69.9753
G01 X156.3425 Y-69.9883
G01 X156.3331 Y-69.9911
G01 X156.2823 Y-70.0094
G01 X156.2290 Y-70.0346
G01 X156.1785 Y-70.0649
G01 X156.1331 Y-70.0985
G01 X156.1275 Y-70.1032
G01 X156.0876 Y-70.1396
G01 X155.3271 Y-70.9000
G01 X154.0894 Y-70.9000
G01 X155.8754 Y-69.1139
G01 X155.9067 Y-69.0793
G01 X155.9359 Y-69.0399
G01 X155.9611 Y-68.9978
G01 X155.9812 Y-68.9557
G01 X155.9987 Y-68.9071
G01 X156.0106 Y-68.8596
G01 X156.0178 Y-68.8110
G01 X156.0202 Y-68.7645
G01 X156.0202 Y-67.6723
G01 X156.0318 Y-67.6656
G01 X156.0378 Y-67.6613
G01 X156.0434 Y-67.6566
G01 X156.0487 Y-67.6515
G01 X156.0536 Y-67.6459
G01 X156.0607 Y-67.6360
G01 X156.0644 Y-67.6296
G01 X156.0677 Y-67.6230
G01 X156.0704 Y-67.6162
G01 X156.0726 Y-67.6092
G01 X156.0743 Y-67.6020
G01 X156.0755 Y-67.5947
G01 X156.0762 Y-67.5825
G01 X156.0762 Y-66.7325
G01 X156.0758 Y-66.7227
G01 X156.0743 Y-66.7130
G01 X156.0726 Y-66.7058
G01 X156.0695 Y-66.6965
G01 X156.0666 Y-66.6897
G01 X156.0633 Y-66.6832
G01 X156.0594 Y-66.6769
G01 X156.0536 Y-66.6691
G01 X156.0487 Y-66.6635
G01 X156.0434 Y-66.6584
G01 X156.0358 Y-66.6522
G01 X156.0277 Y-66.6467
G01 X156.0212 Y-66.6432
G01 X156.0145 Y-66.6401
G01 X156.0076 Y-66.6375
G01 X156.0005 Y-66.6355
G01 X155.9909 Y-66.6336
G01 X155.9836 Y-66.6328
G01 X155.9762 Y-66.6325
G01 X155.0613 Y-66.6325
G01 X155.0515 Y-66.6333
G01 X155.0418 Y-66.6349
G01 X155.0324 Y-66.6375
G01 X155.0232 Y-66.6411
G01 X155.0145 Y-66.6455
G01 X155.0042 Y-66.6522
G01 X154.9966 Y-66.6584
G01 X154.9897 Y-66.6653
G01 X154.9834 Y-66.6729
G01 X154.9780 Y-66.6811
G01 X154.9734 Y-66.6897
G01 X154.9705 Y-66.6965
G01 X154.9674 Y-66.7058
G01 X154.9657 Y-66.7130
G01 X154.9645 Y-66.7203
G01 X154.9638 Y-66.7300
G01 X154.9638 Y-67.5850
G01 X154.9648 Y-67.5972
G01 X154.9662 Y-67.6044
G01 X154.9681 Y-67.6115
G01 X154.9705 Y-67.6185
G01 X154.9734 Y-67.6253
G01 X154.9793 Y-67.6360
G01 X154.9834 Y-67.6421
G01 X154.9880 Y-67.6478
G01 X154.9966 Y-67.6566
G01 X155.0022 Y-67.6613
G01 X155.0082 Y-67.6656
G01 X155.0198 Y-67.6723
G01 X155.0198 Y-68.5548
G01 X152.6746 Y-70.9000
G01 X152.1000 Y-70.9000
G01 X152.1000 Y-70.4417
G01 X152.1000 Y-70.6600
G01 X152.9146 Y-70.6600
G01 X152.7246 Y-70.8500
G01 X152.1000 Y-70.8500
G00 Z2.0000
G00 X154.5689 Y-67.6200
G01 F60.00
G01 Z-0.1866
G01 F120.00
G01 X154.9711 Y-67.6200
G00 Z2.0000
G00 X154.9638 Y-67.4300
G01 F60.00
G01 Z-0.1866
G01 F120.00
G01 X154.5762 Y-67.4300
G01 X154.5762 Y-67.2400
G01 X154.9638 Y-67.2400
G01 X154.9638 Y-67.0500
G01 X154.5762 Y-67.0500
G01 X154.5762 Y-66.8600
G01 X154.9638 Y-66.8600
G00 Z2.0000
G00 X154.9857 Y-66.6700
G01 F60.00
G01 Z-0.1866
G01 F120.00
G01 X154.5543 Y-66.6700
G00 Z2.0000
G00 X162.0543 Y-66.6700
G01 F60.00
G01 Z-0.1866
G01 F120.00
G01 X162.4857 Y-66.6700
G00 Z2.0000
G00 X162.5638 Y-66.6325
G01 F60.00
G01 Z-0.1866
G01 F120.00
G01 X162.5539 Y-66.6330
G01 X162.5442 Y-66.6344
G01 X162.5371 Y-66.6361
G01 X162.5278 Y-66.6392
G01 X162.5188 Y-66.6432
G01 X162.5123 Y-66.6467
G01 X162.5042 Y-66.6522
G01 X162.4966 Y-66.6584
G01 X162.4897 Y-66.6653
G01 X162.4834 Y-66.6729
G01 X162.4780 Y-66.6811
G01 X162.4734 Y-66.6897
G01 X162.4705 Y-66.6965
G01 X162.4674 Y-66.7058
G01 X162.4652 Y-66.7154
G01 X162.4640 Y-66.7251
G01 X162.4638 Y-66.7325
G01 X162.4638 Y-67.5850
G01 X162.4645 Y-67.5947
G01 X162.4662 Y-67.6044
G01 X162.4688 Y-67.6139
G01 X162.4714 Y-67.6208
G01 X162.4744 Y-67.6275
G01 X162.4793 Y-67.6360
G01 X162.4849 Y-67.6440
G01 X162.4913 Y-67.6515
G01 X162.4984 Y-67.6582
G01 X162.5062 Y-67.6643
G01 X162.5145 Y-67.6695
G01 X162.5232 Y-67.6739
G01 X162.5324 Y-67.6775
G01 X162.5442 Y-67.6806
G01 X162.5539 Y-67.6820
G01 X162.5638 Y-67.6825
G01 X163.4787 Y-67.6825
G01 X163.4885 Y-67.6817
G01 X163.4958 Y-67.6806
G01 X163.5053 Y-67.6782
G01 X163.5145 Y-67.6749
G01 X163.5234 Y-67.6707
G01 X163.5318 Y-67.6656
G01 X163.5378 Y-67.6613
G01 X163.5452 Y-67.6549
G01 X163.5520 Y-67.6478
G01 X163.5580 Y-67.6401
G01 X163.5633 Y-67.6318
G01 X163.5677 Y-67.6230
G01 X163.5712 Y-67.6139
G01 X163.5743 Y-67.6020
G01 X163.5758 Y-67.5923
G01 X163.5762 Y-67.5825
G01 X163.5762 Y-66.7300
G01 X163.5755 Y-66.7203
G01 X163.5738 Y-66.7106
G01 X163.5712 Y-66.7011
G01 X163.5686 Y-66.6942
G01 X163.5656 Y-66.6875
G01 X163.5607 Y-66.6790
G01 X163.5551 Y-66.6710
G01 X163.5487 Y-66.6635
G01 X163.5416 Y-66.6568
G01 X163.5338 Y-66.6507
G01 X163.5255 Y-66.6455
G01 X163.5168 Y-66.6411
G01 X163.5076 Y-66.6375
G01 X163.4982 Y-66.6349
G01 X163.4885 Y-66.6333
G01 X163.4787 Y-66.6325
G01 X162.5638 Y-66.6325
G00 Z2.0000
G00 X162.4638 Y-66.8600
G01 F60.00
G01 Z-0.1866
G01 F120.00
G01 X162.0762 Y-66.8600
G01 X162.0762 Y-67.0500
G01 X162.4638 Y-67.0500
G01 X162.4638 Y-67.2400
G01 X162.0762 Y-67.2400
G01 X162.0762 Y-67.4300
G01 X162.4638 Y-67.4300
G00 Z2.0000
G00 X162.4711 Y-67.6200
G01 F60.00
G01 Z-0.1866
G01 F120.00
G01 X162.0689 Y-67.6200
G00 Z2.0000
G00 X161.6900 Y-59.4500
G01 F60.00
G01 Z-0.1866
G01 F120.00
G01 X177.6569 Y-59.4500
G01 X177.6569 Y-59.2600
G01 X161.6900 Y-59.2600
G01 X161.6900 Y-59.0700
G01 X177.6569 Y-59.0700
G01 X177.6569 Y-58.8800
G01 X161.6900 Y-58.8800
G01 X161.6900 Y-58.6900
G01 X177.6569 Y-58.6900
G01 X177.6569 Y-58.5000
G01 X161.6900 Y-58.5000
G01 X161.6900 Y-58.3100
G01 X177.6569 Y-58.3100
G01 X177.6569 Y-58.1200
G01 X161.6900 Y-58.1200
G01 X161.6900 Y-57.9300
G01 X177.6569 Y-57.9300
G01 X177.6569 Y-57.7400
G01 X161.6900 Y-57.7400
G01 X161.6900 Y-57.5500
G01 X177.6569 Y-57.5500
G01 X177.6569 Y-57.3600
G01 X161.6900 Y-57.3600
G01 X161.6900 Y-57.1700
G01 X177.6569 Y-57.1700
G01 X177.6569 Y-56.9800
G01 X161.6900 Y-56.9800
G01 X161.6900 Y-56.7900
G01 X177.6569 Y-56.7900
G01 X177.6569 Y-56.6000
G01 X161.6900 Y-56.6000
G01 X161.6900 Y-56.4100
G01 X177.6569 Y-56.4100
G01 X177.6569 Y-56.2200
G01 X161.6900 Y-56.2200
G01 X161.6900 Y-56.0300
G01 X177.6569 Y-56.0300
G01 X177.6569 Y-55.8400
G01 X161.6900 Y-55.8400
G01 X161.6900 Y-55.6500
G01 X177.6569 Y-55.6500
G01 X177.6569 Y-55.4600
G01 X161.6900 Y-55.4600
G01 X161.6900 Y-55.2700
G01 X177.6569 Y-55.2700
G01 X177.6569 Y-55.0800
G01 X161.6614 Y-55.0800
G00 Z2.0000
G00 X161.9800 Y-50.2074
G01 F60.00
G01 Z-0.1866
G01 F120.00
G01 X161.9800 Y-51.4697
G01 X161.7900 Y-51.4697
G01 X161.7900 Y-50.2075
G01 X161.6000 Y-50.2075
G01 X161.6000 Y-51.4697
G01 X161.4100 Y-51.4697
G01 X161.4100 Y-50.2075
G01 X161.2200 Y-50.2075
G01 X161.2200 Y-51.4697
G01 X160.6500 Y-51.4697
G01 X160.6500 Y-47.1000
G01 X160.8400 Y-47.1000
G01 X160.8400 Y-51.4697
G01 X161.0300 Y-51.4697
G01 X161.0300 Y-50.2016
G00 Z2.0000
G00 X160.4600 Y-50.2075
G01 F60.00
G01 Z-0.1866
G01 F120.00
G01 X160.4600 Y-51.4697
G01 X160.2700 Y-51.4697
G01 X160.2700 Y-50.2075
G01 X160.0800 Y-50.2075
G01 X160.0800 Y-51.4697
G01 X159.8900 Y-51.4697
G01 X159.8900 Y-50.2075
G01 X159.7000 Y-50.2075
G01 X159.7000 Y-51.4697
G01 X159.5100 Y-51.3461
G01 X159.5100 Y-50.1918
G00 Z2.0000
G00 X159.5100 Y-49.1732
G01 F60.00
G01 Z-0.1866
G01 F120.00
G01 X159.5100 Y-47.1000
G01 X159.3200 Y-47.1000
G01 X159.3200 Y-51.1561
G01 X159.1300 Y-50.9661
G01 X159.1300 Y-47.1000
G01 X158.9400 Y-47.1000
G01 X158.9400 Y-49.1575
G01 X158.7500 Y-49.1575
G01 X158.7500 Y-47.1000
G01 X158.5600 Y-47.1000
G01 X158.5600 Y-49.1575
G01 X158.3700 Y-49.1575
G01 X158.3700 Y-47.1000
G01 X158.1800 Y-47.1000
G01 X158.1800 Y-49.1575
G00 Z2.0000
G00 X157.9900 Y-49.1900
G01 F60.00
G01 Z-0.1866
G01 F120.00
G01 X157.9900 Y-47.1000
G01 X157.8000 Y-47.1000
G01 X157.8000 Y-51.4697
G00 Z2.0000
G00 X157.6100 Y-51.4697
G01 F60.00
G01 Z-0.1866
G01 F120.00
G01 X157.6100 Y-47.1000
G00 Z2.0000
G00 X156.0900 Y-47.1000
G01 F60.00
G01 Z-0.1866
G01 F120.00
G01 X156.0900 Y-51.4819
G00 Z2.0000
G00 X156.2800 Y-51.4697
G01 F60.00
G01 Z-0.1866
G01 F120.00
G01 X156.2800 Y-47.1000
G01 X156.4700 Y-47.1000
G01 X156.4700 Y-49.2227
G00 Z2.0000
G00 X156.4700 Y-50.1423
G01 F60.00
G01 Z-0.1866
G01 F120.00
G01 X156.4700 Y-51.4697
G01 X156.6600 Y-51.4697
G01 X156.6600 Y-50.2075
G01 X156.8500 Y-50.2075
G01 X156.8500 Y-51.4697
G01 X157.0400 Y-51.4697
G01 X157.0400 Y-50.2075
G01 X157.2300 Y-50.2075
G01 X157.2300 Y-51.4697
G01 X157.4200 Y-51.4697
G01 X157.4200 Y-50.2075
G00 Z2.0000
G00 X157.9900 Y-50.1750
G01 F60.00
G01 Z-0.1866
G01 F120.00
G01 X157.9900 Y-50.9233
G00 Z2.0000
G00 X155.9000 Y-51.5567
G01 F60.00
G01 Z-0.1866
G01 F120.00
G01 X155.9000 Y-50.2075
G01 X155.7100 Y-50.2075
G01 X155.7100 Y-51.7211
G01 X155.5200 Y-51.9111
G01 X155.5200 Y-50.2075
G01 X155.3300 Y-50.2075
G01 X155.3300 Y-52.1011
G01 X155.1400 Y-52.2911
G01 X155.1400 Y-50.2075
G00 Z2.0000
G00 X154.9500 Y-52.4811
G01 F60.00
G01 Z-0.1866
G01 F120.00
G01 X154.9500 Y-47.1000
G00 Z2.0000
G00 X161.0300 Y-47.3496
G01 F60.00
G01 Z-0.1866
G01 F120.00
G01 X161.0300 Y-49.1634
G00 Z2.0000
G00 X162.5500 Y-49.1585
G01 F60.00
G01 Z-0.1866
G01 F120.00
G01 X162.5500 Y-47.1000
G01 X162.7400 Y-47.1000
G01 X162.7400 Y-49.1575
G01 X162.9300 Y-49.1575
G01 X162.9300 Y-47.1000
G01 X163.1200 Y-47.1000
G01 X163.1200 Y-49.1575
G01 X163.3100 Y-49.1575
G01 X163.3100 Y-47.1000
G01 X163.5000 Y-47.1000
G01 X163.5000 Y-49.1604
G00 Z2.0000
G00 X164.0700 Y-49.1575
G01 F60.00
G01 Z-0.1866
G01 F120.00
G01 X164.0700 Y-47.1000
G01 X164.2600 Y-47.1000
G01 X164.2600 Y-49.1575
G01 X164.4500 Y-49.1575
G01 X164.4500 Y-47.1000
G01 X164.6400 Y-47.1000
G01 X164.6400 Y-49.1575
G01 X164.8300 Y-49.1575
G01 X164.8300 Y-47.1000
G01 X165.4000 Y-47.1000
G01 X165.4000 Y-51.4697
G01 X165.2100 Y-51.4697
G01 X165.2100 Y-47.1000
G01 X165.0200 Y-47.1000
G01 X165.0200 Y-49.1676
G00 Z2.0000
G00 X165.0200 Y-50.1974
G01 F60.00
G01 Z-0.1866
G01 F120.00
G01 X165.0200 Y-51.4697
G01 X164.8300 Y-51.4697
G01 X164.8300 Y-50.2075
G01 X164.6400 Y-50.2075
G01 X164.6400 Y-51.4697
G01 X164.4500 Y-51.4697
G01 X164.4500 Y-50.2075
G01 X164.2600 Y-50.2075
G01 X164.2600 Y-51.4697
G01 X163.6900 Y-51.4697
G01 X163.6900 Y-47.1000
G01 X163.8800 Y-47.1000
G01 X163.8800 Y-51.4697
G01 X164.0700 Y-51.4697
G01 X164.0700 Y-50.2075
G00 Z2.0000
G00 X163.9638 Y-50.1075
G01 F60.00
G01 Z-0.1866
G01 F120.00
G01 X163.9639 Y-49.2526
G01 X163.9648 Y-49.2428
G01 X163.9674 Y-49.2308
G01 X163.9705 Y-49.2215
G01 X163.9744 Y-49.2125
G01 X163.9793 Y-49.2040
G01 X163.9864 Y-49.1941
G01 X163.9930 Y-49.1868
G01 X164.0003 Y-49.1802
G01 X164.0062 Y-49.1757
G01 X164.0145 Y-49.1705
G01 X164.0232 Y-49.1661
G01 X164.0301 Y-49.1633
G01 X164.0371 Y-49.1611
G01 X164.0467 Y-49.1590
G01 X164.0539 Y-49.1580
G01 X164.0613 Y-49.1575
G01 X164.9787 Y-49.1575
G01 X164.9885 Y-49.1583
G01 X165.0005 Y-49.1605
G01 X165.0099 Y-49.1633
G01 X165.0212 Y-49.1682
G01 X165.0297 Y-49.1730
G01 X165.0378 Y-49.1787
G01 X165.0470 Y-49.1868
G01 X165.0536 Y-49.1941
G01 X165.0594 Y-49.2019
G01 X165.0633 Y-49.2082
G01 X165.0666 Y-49.2147
G01 X165.0695 Y-49.2215
G01 X165.0726 Y-49.2308
G01 X165.0743 Y-49.2380
G01 X165.0755 Y-49.2453
G01 X165.0762 Y-49.2550
G01 X165.0762 Y-50.1100
G01 X165.0752 Y-50.1222
G01 X165.0726 Y-50.1342
G01 X165.0686 Y-50.1458
G01 X165.0633 Y-50.1568
G01 X165.0566 Y-50.1671
G01 X165.0487 Y-50.1765
G01 X165.0397 Y-50.1848
G01 X165.0297 Y-50.1920
G01 X165.0234 Y-50.1957
G01 X165.0168 Y-50.1989
G01 X165.0053 Y-50.2032
G01 X164.9933 Y-50.2060
G01 X164.9861 Y-50.2070
G01 X164.9787 Y-50.2075
G01 X164.0638 Y-50.2075
G01 X164.0564 Y-50.2072
G01 X164.0467 Y-50.2060
G01 X164.0371 Y-50.2039
G01 X164.0278 Y-50.2008
G01 X164.0188 Y-50.1968
G01 X164.0123 Y-50.1933
G01 X164.0042 Y-50.1878
G01 X163.9966 Y-50.1816
G01 X163.9897 Y-50.1747
G01 X163.9834 Y-50.1671
G01 X163.9780 Y-50.1589
G01 X163.9744 Y-50.1525
G01 X163.9705 Y-50.1435
G01 X163.9674 Y-50.1342
G01 X163.9657 Y-50.1270
G01 X163.9642 Y-50.1173
G01 X163.9638 Y-50.1075
G01 X163.5000 Y-50.2046
G01 X163.5000 Y-51.4697
G01 X163.3100 Y-51.4697
G01 X163.3100 Y-50.2075
G01 X163.1200 Y-50.2075
G01 X163.1200 Y-51.4697
G01 X162.9300 Y-51.4697
G01 X162.9300 Y-50.2075
G01 X162.7400 Y-50.2075
G01 X162.7400 Y-51.4697
G01 X162.5500 Y-51.4697
G01 X162.5500 Y-50.2065
G00 Z2.0000
G00 X162.4638 Y-50.1075
G01 F60.00
G01 Z-0.1866
G01 F120.00
G01 X162.4642 Y-50.1173
G01 X162.4657 Y-50.1270
G01 X162.4674 Y-50.1342
G01 X162.4705 Y-50.1435
G01 X162.4744 Y-50.1525
G01 X162.4780 Y-50.1589
G01 X162.4834 Y-50.1671
G01 X162.4897 Y-50.1747
G01 X162.4966 Y-50.1816
G01 X162.5042 Y-50.1878
G01 X162.5123 Y-50.1933
G01 X162.5188 Y-50.1968
G01 X162.5278 Y-50.2008
G01 X162.5371 Y-50.2039
G01 X162.5467 Y-50.2060
G01 X162.5564 Y-50.2072
G01 X162.5638 Y-50.2075
G01 X163.4787 Y-50.2075
G01 X163.4861 Y-50.2070
G01 X163.4933 Y-50.2060
G01 X163.5029 Y-50.2039
G01 X163.5099 Y-50.2017
G01 X163.5168 Y-50.1989
G01 X163.5255 Y-50.1945
G01 X163.5338 Y-50.1893
G01 X163.5397 Y-50.1848
G01 X163.5487 Y-50.1765
G01 X163.5551 Y-50.1690
G01 X163.5607 Y-50.1610
G01 X163.5666 Y-50.1503
G01 X163.5704 Y-50.1412
G01 X163.5738 Y-50.1294
G01 X163.5755 Y-50.1197
G01 X163.5762 Y-50.1100
G01 X163.5762 Y-49.2550
G01 X163.5755 Y-49.2453
G01 X163.5743 Y-49.2380
G01 X163.5726 Y-49.2308
G01 X163.5695 Y-49.2215
G01 X163.5666 Y-49.2147
G01 X163.5633 Y-49.2082
G01 X163.5594 Y-49.2019
G01 X163.5536 Y-49.1941
G01 X163.5470 Y-49.1868
G01 X163.5378 Y-49.1787
G01 X163.5297 Y-49.1730
G01 X163.5212 Y-49.1682
G01 X163.5099 Y-49.1633
G01 X163.5005 Y-49.1605
G01 X163.4885 Y-49.1583
G01 X163.4787 Y-49.1575
G01 X162.5613 Y-49.1575
G01 X162.5539 Y-49.1580
G01 X162.5467 Y-49.1590
G01 X162.5371 Y-49.1611
G01 X162.5301 Y-49.1633
G01 X162.5232 Y-49.1661
G01 X162.5145 Y-49.1705
G01 X162.5062 Y-49.1757
G01 X162.5003 Y-49.1802
G01 X162.4930 Y-49.1868
G01 X162.4864 Y-49.1941
G01 X162.4793 Y-49.2040
G01 X162.4744 Y-49.2125
G01 X162.4705 Y-49.2215
G01 X162.4674 Y-49.2308
G01 X162.4648 Y-49.2428
G01 X162.4639 Y-49.2526
G01 X162.4638 Y-50.1075
G00 Z2.0000
G00 X162.1700 Y-47.2637
G01 F60.00
G01 Z-0.1866
G01 F120.00
G01 X162.1700 Y-51.4697
G01 X162.3600 Y-51.4697
G01 X162.3600 Y-47.1000
G00 Z2.0000
G00 X166.5202 Y-47.1000
G01 F60.00
G01 Z-0.1866
G01 F120.00
G01 X177.6569 Y-47.1000
G01 X177.6569 Y-47.2900
G01 X166.5202 Y-47.2900
G01 X166.5202 Y-47.4800
G01 X177.6569 Y-47.4800
G01 X177.6569 Y-47.6700
G01 X166.5202 Y-47.6700
G01 X166.5202 Y-47.8600
G01 X177.6569 Y-47.8600
G01 X177.6569 Y-48.0500
G01 X166.5202 Y-48.0500
G01 X166.5202 Y-48.2400
G01 X177.6569 Y-48.2400
G01 X177.6569 Y-48.4300
G01 X166.5202 Y-48.4300
G01 X166.5202 Y-48.6200
G01 X177.6569 Y-48.6200
G01 X177.6569 Y-48.8100
G01 X166.5202 Y-48.8100
G01 X166.5202 Y-49.0000
G01 X177.6569 Y-49.0000
G01 X177.6569 Y-49.1900
G01 X166.5500 Y-49.1900
G00 Z2.0000
G00 X166.5762 Y-49.3800
G01 F60.00
G01 Z-0.1866
G01 F120.00
G01 X177.6569 Y-49.3800
G01 X177.6569 Y-49.5700
G01 X166.5762 Y-49.5700
G01 X166.5762 Y-49.7600
G01 X177.6569 Y-49.7600
G01 X177.6569 Y-49.9500
G01 X166.5762 Y-49.9500
G00 Z2.0000
G00 X166.5708 Y-50.1400
G01 F60.00
G01 Z-0.1866
G01 F120.00
G01 X177.6569 Y-50.1400
G01 X177.6569 Y-50.3300
G01 X166.5202 Y-50.3300
G01 X166.5202 Y-50.5200
G01 X177.6569 Y-50.5200
G01 X177.6569 Y-50.7100
G01 X166.5202 Y-50.7100
G01 X166.5202 Y-50.9000
G01 X177.6569 Y-50.9000
G01 X177.6569 Y-51.0900
G01 X166.5202 Y-51.0900
G01 X166.5202 Y-51.2800
G01 X177.6569 Y-51.2800
G01 X177.6569 Y-51.4700
G01 X166.5202 Y-51.4700
G01 X166.5202 Y-51.6600
G01 X177.6569 Y-51.6600
G01 X177.6569 Y-51.8500
G01 X166.5155 Y-51.8500
G00 Z2.0000
G00 X166.4498 Y-52.0400
G01 F60.00
G01 Z-0.1866
G01 F120.00
G01 X177.6569 Y-52.0400
G01 X177.6569 Y-52.2300
G01 X166.3131 Y-52.2300
G00 Z2.0000
G00 X166.2220 Y-52.4200
G01 F60.00
G01 Z-0.1866
G01 F120.00
G01 X177.6569 Y-52.4200
G01 X177.6569 Y-52.6100
G01 X165.9958 Y-52.6100
G00 Z2.0000
M05
G00 Z2.0000
G00 Z15.00

